( Made using CamBam - http://www.cambam.co.uk )
( speech_synth_panel 10/5/2016 6:42:01 AM )
( T3 : 3.175 )
G21 G90 G64 G40
G0 Z3.0
( T3 : 3.175 )
T3 M6
( midi_hole )
G17
M3 S1000
G0 X23.5071 Y96.4643
G1 F500.0 Z-0.1
G2 F1000.0 X21.0091 Y90.4336 I-8.5287 J0.0
G2 X14.9784 Y87.9356 I-6.0307 J6.0307
G3 X14.9777 I0.0 J-1.5875
G2 X13.3119 Y88.098 I-0.0037 J8.5854
G2 X10.5952 Y89.1464 I1.6386 J8.2908
G3 X10.5947 Y89.1467 I-0.8181 J-1.3604
G2 X7.5555 Y92.2609 I4.4172 J7.3509
G2 X6.4497 Y96.4618 I7.3773 J4.1878
G3 Y96.465 I-1.5875 J0.0025
G2 X6.6121 Y98.1308 I8.5854 J0.0037
G2 X7.6605 Y100.8475 I8.2908 J-1.6386
G3 X7.6608 Y100.848 I-1.3604 J0.8181
G2 X10.775 Y103.8872 I7.351 J-4.4172
G2 X14.9759 Y104.993 I4.1878 J-7.3773
G3 X14.9784 I0.0025 J1.5875
G2 X21.0091 Y102.495 I0.0 J-8.5287
G2 X23.5071 Y96.4643 I-6.0307 J-6.0307
G1 F500.0 Z-0.2
G2 F1000.0 X21.0091 Y90.4336 I-8.5287 J0.0
G2 X14.9784 Y87.9356 I-6.0307 J6.0307
G3 X14.9777 I0.0 J-1.5875
G2 X13.3119 Y88.098 I-0.0037 J8.5854
G2 X10.5952 Y89.1464 I1.6386 J8.2908
G3 X10.5947 Y89.1467 I-0.8181 J-1.3604
G2 X7.5555 Y92.2609 I4.4172 J7.3509
G2 X6.4497 Y96.4618 I7.3773 J4.1878
G3 Y96.465 I-1.5875 J0.0025
G2 X6.6121 Y98.1308 I8.5854 J0.0037
G2 X7.6605 Y100.8475 I8.2908 J-1.6386
G3 X7.6608 Y100.848 I-1.3604 J0.8181
G2 X10.775 Y103.8872 I7.351 J-4.4172
G2 X14.9759 Y104.993 I4.1878 J-7.3773
G3 X14.9784 I0.0025 J1.5875
G2 X21.0091 Y102.495 I0.0 J-8.5287
G2 X23.5071 Y96.4643 I-6.0307 J-6.0307
G1 F500.0 Z-0.3
G2 F1000.0 X21.0091 Y90.4336 I-8.5287 J0.0
G2 X14.9784 Y87.9356 I-6.0307 J6.0307
G3 X14.9777 I0.0 J-1.5875
G2 X13.3119 Y88.098 I-0.0037 J8.5854
G2 X10.5952 Y89.1464 I1.6386 J8.2908
G3 X10.5947 Y89.1467 I-0.8181 J-1.3604
G2 X7.5555 Y92.2609 I4.4172 J7.3509
G2 X6.4497 Y96.4618 I7.3773 J4.1878
G3 Y96.465 I-1.5875 J0.0025
G2 X6.6121 Y98.1308 I8.5854 J0.0037
G2 X7.6605 Y100.8475 I8.2908 J-1.6386
G3 X7.6608 Y100.848 I-1.3604 J0.8181
G2 X10.775 Y103.8872 I7.351 J-4.4172
G2 X14.9759 Y104.993 I4.1878 J-7.3773
G3 X14.9784 I0.0025 J1.5875
G2 X21.0091 Y102.495 I0.0 J-8.5287
G2 X23.5071 Y96.4643 I-6.0307 J-6.0307
G1 F500.0 Z-0.4
G2 F1000.0 X21.0091 Y90.4336 I-8.5287 J0.0
G2 X14.9784 Y87.9356 I-6.0307 J6.0307
G3 X14.9777 I0.0 J-1.5875
G2 X13.3119 Y88.098 I-0.0037 J8.5854
G2 X10.5952 Y89.1464 I1.6386 J8.2908
G3 X10.5947 Y89.1467 I-0.8181 J-1.3604
G2 X7.5555 Y92.2609 I4.4172 J7.3509
G2 X6.4497 Y96.4618 I7.3773 J4.1878
G3 Y96.465 I-1.5875 J0.0025
G2 X6.6121 Y98.1308 I8.5854 J0.0037
G2 X7.6605 Y100.8475 I8.2908 J-1.6386
G3 X7.6608 Y100.848 I-1.3604 J0.8181
G2 X10.775 Y103.8872 I7.351 J-4.4172
G2 X14.9759 Y104.993 I4.1878 J-7.3773
G3 X14.9784 I0.0025 J1.5875
G2 X21.0091 Y102.495 I0.0 J-8.5287
G2 X23.5071 Y96.4643 I-6.0307 J-6.0307
G1 F500.0 Z-0.5
G2 F1000.0 X21.0091 Y90.4336 I-8.5287 J0.0
G2 X14.9784 Y87.9356 I-6.0307 J6.0307
G3 X14.9777 I0.0 J-1.5875
G2 X13.3119 Y88.098 I-0.0037 J8.5854
G2 X10.5952 Y89.1464 I1.6386 J8.2908
G3 X10.5947 Y89.1467 I-0.8181 J-1.3604
G2 X7.5555 Y92.2609 I4.4172 J7.3509
G2 X6.4497 Y96.4618 I7.3773 J4.1878
G3 Y96.465 I-1.5875 J0.0025
G2 X6.6121 Y98.1308 I8.5854 J0.0037
G2 X7.6605 Y100.8475 I8.2908 J-1.6386
G3 X7.6608 Y100.848 I-1.3604 J0.8181
G2 X10.775 Y103.8872 I7.351 J-4.4172
G2 X14.9759 Y104.993 I4.1878 J-7.3773
G3 X14.9784 I0.0025 J1.5875
G2 X21.0091 Y102.495 I0.0 J-8.5287
G2 X23.5071 Y96.4643 I-6.0307 J-6.0307
G1 F500.0 Z-0.6
G2 F1000.0 X21.0091 Y90.4336 I-8.5287 J0.0
G2 X14.9784 Y87.9356 I-6.0307 J6.0307
G3 X14.9777 I0.0 J-1.5875
G2 X13.3119 Y88.098 I-0.0037 J8.5854
G2 X10.5952 Y89.1464 I1.6386 J8.2908
G3 X10.5947 Y89.1467 I-0.8181 J-1.3604
G2 X7.5555 Y92.2609 I4.4172 J7.3509
G2 X6.4497 Y96.4618 I7.3773 J4.1878
G3 Y96.465 I-1.5875 J0.0025
G2 X6.6121 Y98.1308 I8.5854 J0.0037
G2 X7.6605 Y100.8475 I8.2908 J-1.6386
G3 X7.6608 Y100.848 I-1.3604 J0.8181
G2 X10.775 Y103.8872 I7.351 J-4.4172
G2 X14.9759 Y104.993 I4.1878 J-7.3773
G3 X14.9784 I0.0025 J1.5875
G2 X21.0091 Y102.495 I0.0 J-8.5287
G2 X23.5071 Y96.4643 I-6.0307 J-6.0307
G1 F500.0 Z-0.7
G2 F1000.0 X21.0091 Y90.4336 I-8.5287 J0.0
G2 X14.9784 Y87.9356 I-6.0307 J6.0307
G3 X14.9777 I0.0 J-1.5875
G2 X13.3119 Y88.098 I-0.0037 J8.5854
G2 X10.5952 Y89.1464 I1.6386 J8.2908
G3 X10.5947 Y89.1467 I-0.8181 J-1.3604
G2 X7.5555 Y92.2609 I4.4172 J7.3509
G2 X6.4497 Y96.4618 I7.3773 J4.1878
G3 Y96.465 I-1.5875 J0.0025
G2 X6.6121 Y98.1308 I8.5854 J0.0037
G2 X7.6605 Y100.8475 I8.2908 J-1.6386
G3 X7.6608 Y100.848 I-1.3604 J0.8181
G2 X10.775 Y103.8872 I7.351 J-4.4172
G2 X14.9759 Y104.993 I4.1878 J-7.3773
G3 X14.9784 I0.0025 J1.5875
G2 X21.0091 Y102.495 I0.0 J-8.5287
G2 X23.5071 Y96.4643 I-6.0307 J-6.0307
G1 F500.0 Z-0.8
G2 F1000.0 X21.0091 Y90.4336 I-8.5287 J0.0
G2 X17.3141 Y88.2617 I-6.0307 J6.0307
G2 X14.9784 Y87.9356 Z-0.7001 I-2.3357 J8.2026
G3 X14.9777 Z-0.7 I0.0 J-1.5875
G2 X14.9767 I-0.0037 J8.5854
G2 X13.3119 Y88.098 Z-0.7712 I-0.0027 J8.5854
G2 X12.6391 Y88.2599 Z-0.8 I1.6386 J8.2908
G2 X10.5952 Y89.1464 I2.3114 J8.1289
G3 X10.5947 Y89.1467 I-0.8181 J-1.3604
G2 X7.5555 Y92.2609 I4.4172 J7.3509
G2 X6.4497 Y96.4618 I7.3773 J4.1878
G3 Y96.465 I-1.5875 J0.0025
G2 X6.6121 Y98.1308 I8.5854 J0.0037
G2 X7.6605 Y100.8475 I8.2908 J-1.6386
G3 X7.6608 Y100.848 I-1.3604 J0.8181
G2 X10.775 Y103.8872 I7.351 J-4.4172
G2 X12.637 Y104.6679 I4.1878 J-7.3773
G2 X14.9749 Y104.993 Z-0.7 I2.3258 J-8.158
G2 X14.9759 Z-0.7001 I-0.0121 J-8.483
G3 X14.9784 Z-0.7002 I0.0025 J1.5875
G2 X17.312 Y104.6675 Z-0.8 I0.0 J-8.5287
G2 X21.0091 Y102.495 I-2.3336 J-8.2032
G2 X23.5071 Y96.4643 I-6.0307 J-6.0307
G1 F500.0 Z-0.9
G2 F1000.0 X21.0091 Y90.4336 I-8.5287 J0.0
G2 X17.3141 Y88.2617 I-6.0307 J6.0307
G2 X14.9784 Y87.9356 Z-0.7001 I-2.3357 J8.2026
G3 X14.9777 I0.0 J-1.5875
G2 X14.9767 Z-0.7 I-0.0037 J8.5854
G2 X13.3119 Y88.098 Z-0.8424 I-0.0027 J8.5854
G2 X12.6391 Y88.2599 Z-0.9 I1.6386 J8.2908
G2 X10.5952 Y89.1464 I2.3114 J8.1289
G3 X10.5947 Y89.1467 I-0.8181 J-1.3604
G2 X7.5555 Y92.2609 I4.4172 J7.3509
G2 X6.4497 Y96.4618 I7.3773 J4.1878
G3 Y96.465 I-1.5875 J0.0025
G2 X6.6121 Y98.1308 I8.5854 J0.0037
G2 X7.6605 Y100.8475 I8.2908 J-1.6386
G3 X7.6608 Y100.848 I-1.3604 J0.8181
G2 X10.775 Y103.8872 I7.351 J-4.4172
G2 X12.637 Y104.6679 I4.1878 J-7.3773
G2 X14.9749 Y104.993 Z-0.7 I2.3258 J-8.158
G2 X14.9759 Z-0.7001 I-0.0121 J-8.483
G3 X14.9784 Z-0.7003 I0.0025 J1.5875
G2 X17.312 Y104.6675 Z-0.9 I0.0 J-8.5287
G2 X21.0091 Y102.495 I-2.3336 J-8.2032
G2 X23.5071 Y96.4643 I-6.0307 J-6.0307
G1 F500.0 Z-1.0
G2 F1000.0 X21.0091 Y90.4336 I-8.5287 J0.0
G2 X17.3141 Y88.2617 I-6.0307 J6.0307
G2 X14.9784 Y87.9356 Z-0.7002 I-2.3357 J8.2026
G3 X14.9777 Z-0.7001 I0.0 J-1.5875
G2 X14.9767 Z-0.7 I-0.0037 J8.5854
G2 X13.3119 Y88.098 Z-0.9137 I-0.0027 J8.5854
G2 X12.6391 Y88.2599 Z-1.0 I1.6386 J8.2908
G2 X10.5952 Y89.1464 I2.3114 J8.1289
G3 X10.5947 Y89.1467 I-0.8181 J-1.3604
G2 X7.5555 Y92.2609 I4.4172 J7.3509
G2 X6.4497 Y96.4618 I7.3773 J4.1878
G3 Y96.465 I-1.5875 J0.0025
G2 X6.6121 Y98.1308 I8.5854 J0.0037
G2 X7.6605 Y100.8475 I8.2908 J-1.6386
G3 X7.6608 Y100.848 I-1.3604 J0.8181
G2 X10.775 Y103.8872 I7.351 J-4.4172
G2 X12.637 Y104.6679 I4.1878 J-7.3773
G2 X14.9749 Y104.993 Z-0.7001 I2.3258 J-8.158
G2 X14.9759 Z-0.7002 I-0.0121 J-8.483
G3 X14.9784 Z-0.7005 I0.0025 J1.5875
G2 X17.312 Y104.6675 Z-1.0 I0.0 J-8.5287
G2 X21.0091 Y102.495 I-2.3336 J-8.2032
G2 X23.5071 Y96.4643 I-6.0307 J-6.0307
G1 F500.0 Z-1.1
G2 F1000.0 X21.0091 Y90.4336 I-8.5287 J0.0
G2 X17.3141 Y88.2617 I-6.0307 J6.0307
G2 X14.9784 Y87.9356 Z-0.7003 I-2.3357 J8.2026
G3 X14.9777 Z-0.7002 I0.0 J-1.5875
G2 X14.9767 Z-0.7 I-0.0037 J8.5854
G2 X13.3119 Y88.098 Z-0.9849 I-0.0027 J8.5854
G2 X12.6391 Y88.2599 Z-1.1 I1.6386 J8.2908
G2 X10.5952 Y89.1464 I2.3114 J8.1289
G3 X10.5947 Y89.1467 I-0.8181 J-1.3604
G2 X7.5555 Y92.2609 I4.4172 J7.3509
G2 X6.4497 Y96.4618 I7.3773 J4.1878
G3 Y96.465 I-1.5875 J0.0025
G2 X6.6121 Y98.1308 I8.5854 J0.0037
G2 X7.6605 Y100.8475 I8.2908 J-1.6386
G3 X7.6608 Y100.848 I-1.3604 J0.8181
G2 X10.775 Y103.8872 I7.351 J-4.4172
G2 X12.637 Y104.6679 I4.1878 J-7.3773
G2 X14.9749 Y104.993 Z-0.7001 I2.3258 J-8.158
G2 X14.9759 Z-0.7002 I-0.0121 J-8.483
G3 X14.9784 Z-0.7007 I0.0025 J1.5875
G2 X17.312 Y104.6675 Z-1.1 I0.0 J-8.5287
G2 X21.0091 Y102.495 I-2.3336 J-8.2032
G2 X23.5071 Y96.4643 I-6.0307 J-6.0307
G1 F500.0 Z-1.2
G2 F1000.0 X21.0091 Y90.4336 I-8.5287 J0.0
G2 X17.3141 Y88.2617 I-6.0307 J6.0307
G2 X14.9784 Y87.9356 Z-0.7004 I-2.3357 J8.2026
G3 X14.9777 Z-0.7002 I0.0 J-1.5875
G2 X14.9767 Z-0.7 I-0.0037 J8.5854
G2 X13.3119 Y88.098 Z-1.0561 I-0.0027 J8.5854
G2 X12.6391 Y88.2599 Z-1.2 I1.6386 J8.2908
G2 X10.5952 Y89.1464 I2.3114 J8.1289
G3 X10.5947 Y89.1467 I-0.8181 J-1.3604
G2 X7.5555 Y92.2609 I4.4172 J7.3509
G2 X6.4497 Y96.4618 I7.3773 J4.1878
G3 Y96.465 I-1.5875 J0.0025
G2 X6.6121 Y98.1308 I8.5854 J0.0037
G2 X7.6605 Y100.8475 I8.2908 J-1.6386
G3 X7.6608 Y100.848 I-1.3604 J0.8181
G2 X10.775 Y103.8872 I7.351 J-4.4172
G2 X12.637 Y104.6679 I4.1878 J-7.3773
G2 X14.9749 Y104.993 Z-0.7001 I2.3258 J-8.158
G2 X14.9759 Z-0.7003 I-0.0121 J-8.483
G3 X14.9784 Z-0.7008 I0.0025 J1.5875
G2 X17.312 Y104.6675 Z-1.2 I0.0 J-8.5287
G2 X21.0091 Y102.495 I-2.3336 J-8.2032
G2 X23.5071 Y96.4643 I-6.0307 J-6.0307
G1 F500.0 Z-1.3
G2 F1000.0 X21.0091 Y90.4336 I-8.5287 J0.0
G2 X17.3141 Y88.2617 I-6.0307 J6.0307
G2 X14.9784 Y87.9356 Z-0.7004 I-2.3357 J8.2026
G3 X14.9777 Z-0.7002 I0.0 J-1.5875
G2 X14.9767 Z-0.7 I-0.0037 J8.5854
G2 X13.3119 Y88.098 Z-1.1273 I-0.0027 J8.5854
G2 X12.6391 Y88.2599 Z-1.3 I1.6386 J8.2908
G2 X10.5952 Y89.1464 I2.3114 J8.1289
G3 X10.5947 Y89.1467 I-0.8181 J-1.3604
G2 X7.5555 Y92.2609 I4.4172 J7.3509
G2 X6.4497 Y96.4618 I7.3773 J4.1878
G3 Y96.465 I-1.5875 J0.0025
G2 X6.6121 Y98.1308 I8.5854 J0.0037
G2 X7.6605 Y100.8475 I8.2908 J-1.6386
G3 X7.6608 Y100.848 I-1.3604 J0.8181
G2 X10.775 Y103.8872 I7.351 J-4.4172
G2 X12.637 Y104.6679 I4.1878 J-7.3773
G2 X14.9749 Y104.993 Z-0.7001 I2.3258 J-8.158
G2 X14.9759 Z-0.7004 I-0.0121 J-8.483
G3 X14.9784 Z-0.701 I0.0025 J1.5875
G2 X17.312 Y104.6675 Z-1.3 I0.0 J-8.5287
G2 X21.0091 Y102.495 I-2.3336 J-8.2032
G2 X23.5071 Y96.4643 I-6.0307 J-6.0307
G1 F500.0 Z-1.4
G2 F1000.0 X21.0091 Y90.4336 I-8.5287 J0.0
G2 X17.3141 Y88.2617 I-6.0307 J6.0307
G2 X14.9784 Y87.9356 Z-0.7005 I-2.3357 J8.2026
G3 X14.9777 Z-0.7003 I0.0 J-1.5875
G2 X14.9767 Z-0.7 I-0.0037 J8.5854
G2 X13.3119 Y88.098 Z-1.1985 I-0.0027 J8.5854
G2 X12.6391 Y88.2599 Z-1.4 I1.6386 J8.2908
G2 X10.5952 Y89.1464 I2.3114 J8.1289
G3 X10.5947 Y89.1467 I-0.8181 J-1.3604
G2 X7.5555 Y92.2609 I4.4172 J7.3509
G2 X6.4497 Y96.4618 I7.3773 J4.1878
G3 Y96.465 I-1.5875 J0.0025
G2 X6.6121 Y98.1308 I8.5854 J0.0037
G2 X7.6605 Y100.8475 I8.2908 J-1.6386
G3 X7.6608 Y100.848 I-1.3604 J0.8181
G2 X10.775 Y103.8872 I7.351 J-4.4172
G2 X12.637 Y104.6679 I4.1878 J-7.3773
G2 X14.9749 Y104.993 Z-0.7001 I2.3258 J-8.158
G2 X14.9759 Z-0.7004 I-0.0121 J-8.483
G3 X14.9784 Z-0.7012 I0.0025 J1.5875
G2 X17.312 Y104.6675 Z-1.4 I0.0 J-8.5287
G2 X21.0091 Y102.495 I-2.3336 J-8.2032
G2 X23.5071 Y96.4643 I-6.0307 J-6.0307
G1 F500.0 Z-1.5
G2 F1000.0 X21.0091 Y90.4336 I-8.5287 J0.0
G2 X17.3141 Y88.2617 I-6.0307 J6.0307
G2 X14.9784 Y87.9356 Z-0.7006 I-2.3357 J8.2026
G3 X14.9777 Z-0.7003 I0.0 J-1.5875
G2 X14.9767 Z-0.7 I-0.0037 J8.5854
G2 X13.3119 Y88.098 Z-1.2698 I-0.0027 J8.5854
G2 X12.6391 Y88.2599 Z-1.5 I1.6386 J8.2908
G2 X10.5952 Y89.1464 I2.3114 J8.1289
G3 X10.5947 Y89.1467 I-0.8181 J-1.3604
G2 X7.5555 Y92.2609 I4.4172 J7.3509
G2 X6.4497 Y96.4618 I7.3773 J4.1878
G3 Y96.465 I-1.5875 J0.0025
G2 X6.6121 Y98.1308 I8.5854 J0.0037
G2 X7.6605 Y100.8475 I8.2908 J-1.6386
G3 X7.6608 Y100.848 I-1.3604 J0.8181
G2 X10.775 Y103.8872 I7.351 J-4.4172
G2 X12.637 Y104.6679 I4.1878 J-7.3773
G2 X14.9749 Y104.993 Z-0.7002 I2.3258 J-8.158
G2 X14.9759 Z-0.7005 I-0.0121 J-8.483
G3 X14.9784 Z-0.7013 I0.0025 J1.5875
G2 X17.312 Y104.6675 Z-1.5 I0.0 J-8.5287
G2 X21.0091 Y102.495 I-2.3336 J-8.2032
G2 X23.5071 Y96.4643 I-6.0307 J-6.0307
G1 F500.0 Z-1.6
G2 F1000.0 X21.0091 Y90.4336 I-8.5287 J0.0
G2 X17.3141 Y88.2617 I-6.0307 J6.0307
G2 X14.9784 Y87.9356 Z-0.7006 I-2.3357 J8.2026
G3 X14.9777 Z-0.7004 I0.0 J-1.5875
G2 X14.9767 Z-0.7 I-0.0037 J8.5854
G2 X13.3119 Y88.098 Z-1.341 I-0.0027 J8.5854
G2 X12.6391 Y88.2599 Z-1.6 I1.6386 J8.2908
G2 X10.5952 Y89.1464 I2.3114 J8.1289
G3 X10.5947 Y89.1467 I-0.8181 J-1.3604
G2 X7.5555 Y92.2609 I4.4172 J7.3509
G2 X6.4497 Y96.4618 I7.3773 J4.1878
G3 Y96.465 I-1.5875 J0.0025
G2 X6.6121 Y98.1308 I8.5854 J0.0037
G2 X7.6605 Y100.8475 I8.2908 J-1.6386
G3 X7.6608 Y100.848 I-1.3604 J0.8181
G2 X10.775 Y103.8872 I7.351 J-4.4172
G2 X12.637 Y104.6679 I4.1878 J-7.3773
G2 X14.9749 Y104.993 Z-0.7002 I2.3258 J-8.158
G2 X14.9759 Z-0.7005 I-0.0121 J-8.483
G3 X14.9784 Z-0.7015 I0.0025 J1.5875
G2 X17.312 Y104.6675 Z-1.6 I0.0 J-8.5287
G2 X21.0091 Y102.495 I-2.3336 J-8.2032
G2 X23.5071 Y96.4643 I-6.0307 J-6.0307
G1 F500.0 Z-1.7
G2 F1000.0 X21.0091 Y90.4336 I-8.5287 J0.0
G2 X17.3141 Y88.2617 I-6.0307 J6.0307
G2 X14.9784 Y87.9356 Z-0.7007 I-2.3357 J8.2026
G3 X14.9777 Z-0.7004 I0.0 J-1.5875
G2 X14.9767 Z-0.7 I-0.0037 J8.5854
G2 X13.3119 Y88.098 Z-1.4122 I-0.0027 J8.5854
G2 X12.6391 Y88.2599 Z-1.7 I1.6386 J8.2908
G2 X10.5952 Y89.1464 I2.3114 J8.1289
G3 X10.5947 Y89.1467 I-0.8181 J-1.3604
G2 X7.5555 Y92.2609 I4.4172 J7.3509
G2 X6.4497 Y96.4618 I7.3773 J4.1878
G3 Y96.465 I-1.5875 J0.0025
G2 X6.6121 Y98.1308 I8.5854 J0.0037
G2 X7.6605 Y100.8475 I8.2908 J-1.6386
G3 X7.6608 Y100.848 I-1.3604 J0.8181
G2 X10.775 Y103.8872 I7.351 J-4.4172
G2 X12.637 Y104.6679 I4.1878 J-7.3773
G2 X14.9749 Y104.993 Z-0.7002 I2.3258 J-8.158
G2 X14.9759 Z-0.7006 I-0.0121 J-8.483
G3 X14.9784 Z-0.7017 I0.0025 J1.5875
G2 X17.312 Y104.6675 Z-1.7 I0.0 J-8.5287
G2 X21.0091 Y102.495 I-2.3336 J-8.2032
G2 X23.5071 Y96.4643 I-6.0307 J-6.0307
G1 F500.0 Z-1.8
G2 F1000.0 X21.0091 Y90.4336 I-8.5287 J0.0
G2 X17.3141 Y88.2617 I-6.0307 J6.0307
G2 X14.9784 Y87.9356 Z-0.7008 I-2.3357 J8.2026
G3 X14.9777 Z-0.7005 I0.0 J-1.5875
G2 X14.9767 Z-0.7 I-0.0037 J8.5854
G2 X13.3119 Y88.098 Z-1.4834 I-0.0027 J8.5854
G2 X12.6391 Y88.2599 Z-1.8 I1.6386 J8.2908
G2 X10.5952 Y89.1464 I2.3114 J8.1289
G3 X10.5947 Y89.1467 I-0.8181 J-1.3604
G2 X7.5555 Y92.2609 I4.4172 J7.3509
G2 X6.4497 Y96.4618 I7.3773 J4.1878
G3 Y96.465 I-1.5875 J0.0025
G2 X6.6121 Y98.1308 I8.5854 J0.0037
G2 X7.6605 Y100.8475 I8.2908 J-1.6386
G3 X7.6608 Y100.848 I-1.3604 J0.8181
G2 X10.775 Y103.8872 I7.351 J-4.4172
G2 X12.637 Y104.6679 I4.1878 J-7.3773
G2 X14.9749 Y104.993 Z-0.7002 I2.3258 J-8.158
G2 X14.9759 Z-0.7007 I-0.0121 J-8.483
G3 X14.9784 Z-0.7018 I0.0025 J1.5875
G2 X17.312 Y104.6675 Z-1.8 I0.0 J-8.5287
G2 X21.0091 Y102.495 I-2.3336 J-8.2032
G2 X23.5071 Y96.4643 I-6.0307 J-6.0307
G1 F500.0 Z-1.9
G2 F1000.0 X21.0091 Y90.4336 I-8.5287 J0.0
G2 X17.3141 Y88.2617 I-6.0307 J6.0307
G2 X14.9784 Y87.9356 Z-0.7008 I-2.3357 J8.2026
G3 X14.9777 Z-0.7005 I0.0 J-1.5875
G2 X14.9767 Z-0.7 I-0.0037 J8.5854
G2 X13.3119 Y88.098 Z-1.5547 I-0.0027 J8.5854
G2 X12.6391 Y88.2599 Z-1.9 I1.6386 J8.2908
G2 X10.5952 Y89.1464 I2.3114 J8.1289
G3 X10.5947 Y89.1467 I-0.8181 J-1.3604
G2 X7.5555 Y92.2609 I4.4172 J7.3509
G2 X6.4497 Y96.4618 I7.3773 J4.1878
G3 Y96.465 I-1.5875 J0.0025
G2 X6.6121 Y98.1308 I8.5854 J0.0037
G2 X7.6605 Y100.8475 I8.2908 J-1.6386
G3 X7.6608 Y100.848 I-1.3604 J0.8181
G2 X10.775 Y103.8872 I7.351 J-4.4172
G2 X12.637 Y104.6679 I4.1878 J-7.3773
G2 X14.9749 Y104.993 Z-0.7002 I2.3258 J-8.158
G2 X14.9759 Z-0.7007 I-0.0121 J-8.483
G3 X14.9784 Z-0.702 I0.0025 J1.5875
G2 X17.312 Y104.6675 Z-1.9 I0.0 J-8.5287
G2 X21.0091 Y102.495 I-2.3336 J-8.2032
G2 X23.5071 Y96.4643 I-6.0307 J-6.0307
G1 F500.0 Z-2.0
G2 F1000.0 X21.0091 Y90.4336 I-8.5287 J0.0
G2 X17.3141 Y88.2617 I-6.0307 J6.0307
G2 X14.9784 Y87.9356 Z-0.7009 I-2.3357 J8.2026
G3 X14.9777 Z-0.7005 I0.0 J-1.5875
G2 X14.9767 Z-0.7 I-0.0037 J8.5854
G2 X13.3119 Y88.098 Z-1.6259 I-0.0027 J8.5854
G2 X12.6391 Y88.2599 Z-2.0 I1.6386 J8.2908
G2 X10.5952 Y89.1464 I2.3114 J8.1289
G3 X10.5947 Y89.1467 I-0.8181 J-1.3604
G2 X7.5555 Y92.2609 I4.4172 J7.3509
G2 X6.4497 Y96.4618 I7.3773 J4.1878
G3 Y96.465 I-1.5875 J0.0025
G2 X6.6121 Y98.1308 I8.5854 J0.0037
G2 X7.6605 Y100.8475 I8.2908 J-1.6386
G3 X7.6608 Y100.848 I-1.3604 J0.8181
G2 X10.775 Y103.8872 I7.351 J-4.4172
G2 X12.637 Y104.6679 I4.1878 J-7.3773
G2 X14.9749 Y104.993 Z-0.7002 I2.3258 J-8.158
G2 X14.9759 Z-0.7008 I-0.0121 J-8.483
G3 X14.9784 Z-0.7022 I0.0025 J1.5875
G2 X17.312 Y104.6675 Z-2.0 I0.0 J-8.5287
G2 X21.0091 Y102.495 I-2.3336 J-8.2032
G2 X23.5071 Y96.4643 I-6.0307 J-6.0307
G1 F500.0 Z-2.1
G2 F1000.0 X21.0091 Y90.4336 I-8.5287 J0.0
G2 X17.3141 Y88.2617 I-6.0307 J6.0307
G2 X14.9784 Y87.9356 Z-0.701 I-2.3357 J8.2026
G3 X14.9777 Z-0.7006 I0.0 J-1.5875
G2 X14.9767 Z-0.7 I-0.0037 J8.5854
G2 X13.3119 Y88.098 Z-1.6971 I-0.0027 J8.5854
G2 X12.6391 Y88.2599 Z-2.1 I1.6386 J8.2908
G2 X10.5952 Y89.1464 I2.3114 J8.1289
G3 X10.5947 Y89.1467 I-0.8181 J-1.3604
G2 X7.5555 Y92.2609 I4.4172 J7.3509
G2 X6.4497 Y96.4618 I7.3773 J4.1878
G3 Y96.465 I-1.5875 J0.0025
G2 X6.6121 Y98.1308 I8.5854 J0.0037
G2 X7.6605 Y100.8475 I8.2908 J-1.6386
G3 X7.6608 Y100.848 I-1.3604 J0.8181
G2 X10.775 Y103.8872 I7.351 J-4.4172
G2 X12.637 Y104.6679 I4.1878 J-7.3773
G2 X14.9749 Y104.993 Z-0.7003 I2.3258 J-8.158
G2 X14.9759 Z-0.7009 I-0.0121 J-8.483
G3 X14.9784 Z-0.7023 I0.0025 J1.5875
G2 X17.312 Y104.6675 Z-2.1 I0.0 J-8.5287
G2 X21.0091 Y102.495 I-2.3336 J-8.2032
G2 X23.5071 Y96.4643 I-6.0307 J-6.0307
G1 F500.0 Z-2.2
G2 F1000.0 X21.0091 Y90.4336 I-8.5287 J0.0
G2 X17.3141 Y88.2617 I-6.0307 J6.0307
G2 X14.9784 Y87.9356 Z-0.7011 I-2.3357 J8.2026
G3 X14.9777 Z-0.7006 I0.0 J-1.5875
G2 X14.9767 Z-0.7 I-0.0037 J8.5854
G2 X13.3119 Y88.098 Z-1.7683 I-0.0027 J8.5854
G2 X12.6391 Y88.2599 Z-2.2 I1.6386 J8.2908
G2 X10.5952 Y89.1464 I2.3114 J8.1289
G3 X10.5947 Y89.1467 I-0.8181 J-1.3604
G2 X7.5555 Y92.2609 I4.4172 J7.3509
G2 X6.4497 Y96.4618 I7.3773 J4.1878
G3 Y96.465 I-1.5875 J0.0025
G2 X6.6121 Y98.1308 I8.5854 J0.0037
G2 X7.6605 Y100.8475 I8.2908 J-1.6386
G3 X7.6608 Y100.848 I-1.3604 J0.8181
G2 X10.775 Y103.8872 I7.351 J-4.4172
G2 X12.637 Y104.6679 I4.1878 J-7.3773
G2 X14.9749 Y104.993 Z-0.7003 I2.3258 J-8.158
G2 X14.9759 Z-0.7009 I-0.0121 J-8.483
G3 X14.9784 Z-0.7025 I0.0025 J1.5875
G2 X17.312 Y104.6675 Z-2.2 I0.0 J-8.5287
G2 X21.0091 Y102.495 I-2.3336 J-8.2032
G2 X23.5071 Y96.4643 I-6.0307 J-6.0307
G1 F500.0 Z-2.3
G2 F1000.0 X21.0091 Y90.4336 I-8.5287 J0.0
G2 X17.3141 Y88.2617 I-6.0307 J6.0307
G2 X14.9784 Y87.9356 Z-0.7011 I-2.3357 J8.2026
G3 X14.9777 Z-0.7007 I0.0 J-1.5875
G2 X14.9767 Z-0.7 I-0.0037 J8.5854
G2 X13.3119 Y88.098 Z-1.8395 I-0.0027 J8.5854
G2 X12.6391 Y88.2599 Z-2.3 I1.6386 J8.2908
G2 X10.5952 Y89.1464 I2.3114 J8.1289
G3 X10.5947 Y89.1467 I-0.8181 J-1.3604
G2 X7.5555 Y92.2609 I4.4172 J7.3509
G2 X6.4497 Y96.4618 I7.3773 J4.1878
G3 Y96.465 I-1.5875 J0.0025
G2 X6.6121 Y98.1308 I8.5854 J0.0037
G2 X7.6605 Y100.8475 I8.2908 J-1.6386
G3 X7.6608 Y100.848 I-1.3604 J0.8181
G2 X10.775 Y103.8872 I7.351 J-4.4172
G2 X12.637 Y104.6679 I4.1878 J-7.3773
G2 X14.9749 Y104.993 Z-0.7003 I2.3258 J-8.158
G2 X14.9759 Z-0.701 I-0.0121 J-8.483
G3 X14.9784 Z-0.7027 I0.0025 J1.5875
G2 X17.312 Y104.6675 Z-2.3 I0.0 J-8.5287
G2 X21.0091 Y102.495 I-2.3336 J-8.2032
G2 X23.5071 Y96.4643 I-6.0307 J-6.0307
G1 F500.0 Z-2.4
G2 F1000.0 X21.0091 Y90.4336 I-8.5287 J0.0
G2 X17.3141 Y88.2617 I-6.0307 J6.0307
G2 X14.9784 Y87.9356 Z-0.7012 I-2.3357 J8.2026
G3 X14.9777 Z-0.7007 I0.0 J-1.5875
G2 X14.9767 Z-0.7 I-0.0037 J8.5854
G2 X13.3119 Y88.098 Z-1.9108 I-0.0027 J8.5854
G2 X12.6391 Y88.2599 Z-2.4 I1.6386 J8.2908
G2 X10.5952 Y89.1464 I2.3114 J8.1289
G3 X10.5947 Y89.1467 I-0.8181 J-1.3604
G2 X7.5555 Y92.2609 I4.4172 J7.3509
G2 X6.4497 Y96.4618 I7.3773 J4.1878
G3 Y96.465 I-1.5875 J0.0025
G2 X6.6121 Y98.1308 I8.5854 J0.0037
G2 X7.6605 Y100.8475 I8.2908 J-1.6386
G3 X7.6608 Y100.848 I-1.3604 J0.8181
G2 X10.775 Y103.8872 I7.351 J-4.4172
G2 X12.637 Y104.6679 I4.1878 J-7.3773
G2 X14.9749 Y104.993 Z-0.7003 I2.3258 J-8.158
G2 X14.9759 Z-0.701 I-0.0121 J-8.483
G3 X14.9784 Z-0.7028 I0.0025 J1.5875
G2 X17.312 Y104.6675 Z-2.4 I0.0 J-8.5287
G2 X21.0091 Y102.495 I-2.3336 J-8.2032
G2 X23.5071 Y96.4643 I-6.0307 J-6.0307
G1 F500.0 Z-2.5
G2 F1000.0 X21.0091 Y90.4336 I-8.5287 J0.0
G2 X17.3141 Y88.2617 I-6.0307 J6.0307
G2 X14.9784 Y87.9356 Z-0.7013 I-2.3357 J8.2026
G3 X14.9777 Z-0.7007 I0.0 J-1.5875
G2 X14.9767 Z-0.7 I-0.0037 J8.5854
G2 X13.3119 Y88.098 Z-1.982 I-0.0027 J8.5854
G2 X12.6391 Y88.2599 Z-2.5 I1.6386 J8.2908
G2 X10.5952 Y89.1464 I2.3114 J8.1289
G3 X10.5947 Y89.1467 I-0.8181 J-1.3604
G2 X7.5555 Y92.2609 I4.4172 J7.3509
G2 X6.4497 Y96.4618 I7.3773 J4.1878
G3 Y96.465 I-1.5875 J0.0025
G2 X6.6121 Y98.1308 I8.5854 J0.0037
G2 X7.6605 Y100.8475 I8.2908 J-1.6386
G3 X7.6608 Y100.848 I-1.3604 J0.8181
G2 X10.775 Y103.8872 I7.351 J-4.4172
G2 X12.637 Y104.6679 I4.1878 J-7.3773
G2 X14.9749 Y104.993 Z-0.7003 I2.3258 J-8.158
G2 X14.9759 Z-0.7011 I-0.0121 J-8.483
G3 X14.9784 Z-0.703 I0.0025 J1.5875
G2 X17.312 Y104.6675 Z-2.5 I0.0 J-8.5287
G2 X21.0091 Y102.495 I-2.3336 J-8.2032
G2 X23.5071 Y96.4643 I-6.0307 J-6.0307
G1 F500.0 Z-2.6
G2 F1000.0 X21.0091 Y90.4336 I-8.5287 J0.0
G2 X17.3141 Y88.2617 I-6.0307 J6.0307
G2 X14.9784 Y87.9356 Z-0.7013 I-2.3357 J8.2026
G3 X14.9777 Z-0.7008 I0.0 J-1.5875
G2 X14.9767 Z-0.7 I-0.0037 J8.5854
G2 X13.3119 Y88.098 Z-2.0532 I-0.0027 J8.5854
G2 X12.6391 Y88.2599 Z-2.6 I1.6386 J8.2908
G2 X10.5952 Y89.1464 I2.3114 J8.1289
G3 X10.5947 Y89.1467 I-0.8181 J-1.3604
G2 X7.5555 Y92.2609 I4.4172 J7.3509
G2 X6.4497 Y96.4618 I7.3773 J4.1878
G3 Y96.465 I-1.5875 J0.0025
G2 X6.6121 Y98.1308 I8.5854 J0.0037
G2 X7.6605 Y100.8475 I8.2908 J-1.6386
G3 X7.6608 Y100.848 I-1.3604 J0.8181
G2 X10.775 Y103.8872 I7.351 J-4.4172
G2 X12.637 Y104.6679 I4.1878 J-7.3773
G2 X14.9749 Y104.993 Z-0.7004 I2.3258 J-8.158
G2 X14.9759 Z-0.7012 I-0.0121 J-8.483
G3 X14.9784 Z-0.7032 I0.0025 J1.5875
G2 X17.312 Y104.6675 Z-2.6 I0.0 J-8.5287
G2 X21.0091 Y102.495 I-2.3336 J-8.2032
G2 X23.5071 Y96.4643 I-6.0307 J-6.0307
G1 F500.0 Z-2.7
G2 F1000.0 X21.0091 Y90.4336 I-8.5287 J0.0
G2 X17.3141 Y88.2617 I-6.0307 J6.0307
G2 X14.9784 Y87.9356 Z-0.7014 I-2.3357 J8.2026
G3 X14.9777 Z-0.7008 I0.0 J-1.5875
G2 X14.9767 Z-0.7 I-0.0037 J8.5854
G2 X13.3119 Y88.098 Z-2.1244 I-0.0027 J8.5854
G2 X12.6391 Y88.2599 Z-2.7 I1.6386 J8.2908
G2 X10.5952 Y89.1464 I2.3114 J8.1289
G3 X10.5947 Y89.1467 I-0.8181 J-1.3604
G2 X7.5555 Y92.2609 I4.4172 J7.3509
G2 X6.4497 Y96.4618 I7.3773 J4.1878
G3 Y96.465 I-1.5875 J0.0025
G2 X6.6121 Y98.1308 I8.5854 J0.0037
G2 X7.6605 Y100.8475 I8.2908 J-1.6386
G3 X7.6608 Y100.848 I-1.3604 J0.8181
G2 X10.775 Y103.8872 I7.351 J-4.4172
G2 X12.637 Y104.6679 I4.1878 J-7.3773
G2 X14.9749 Y104.993 Z-0.7004 I2.3258 J-8.158
G2 X14.9759 Z-0.7012 I-0.0121 J-8.483
G3 X14.9784 Z-0.7033 I0.0025 J1.5875
G2 X17.312 Y104.6675 Z-2.7 I0.0 J-8.5287
G2 X21.0091 Y102.495 I-2.3336 J-8.2032
G2 X23.5071 Y96.4643 I-6.0307 J-6.0307
G1 F500.0 Z-2.8
G2 F1000.0 X21.0091 Y90.4336 I-8.5287 J0.0
G2 X17.3141 Y88.2617 I-6.0307 J6.0307
G2 X14.9784 Y87.9356 Z-0.7015 I-2.3357 J8.2026
G3 X14.9777 Z-0.7009 I0.0 J-1.5875
G2 X14.9767 Z-0.7 I-0.0037 J8.5854
G2 X13.3119 Y88.098 Z-2.1956 I-0.0027 J8.5854
G2 X12.6391 Y88.2599 Z-2.8 I1.6386 J8.2908
G2 X10.5952 Y89.1464 I2.3114 J8.1289
G3 X10.5947 Y89.1467 I-0.8181 J-1.3604
G2 X7.5555 Y92.2609 I4.4172 J7.3509
G2 X6.4497 Y96.4618 I7.3773 J4.1878
G3 Y96.465 I-1.5875 J0.0025
G2 X6.6121 Y98.1308 I8.5854 J0.0037
G2 X7.6605 Y100.8475 I8.2908 J-1.6386
G3 X7.6608 Y100.848 I-1.3604 J0.8181
G2 X10.775 Y103.8872 I7.351 J-4.4172
G2 X12.637 Y104.6679 I4.1878 J-7.3773
G2 X14.9749 Y104.993 Z-0.7004 I2.3258 J-8.158
G2 X14.9759 Z-0.7013 I-0.0121 J-8.483
G3 X14.9784 Z-0.7035 I0.0025 J1.5875
G2 X17.312 Y104.6675 Z-2.8 I0.0 J-8.5287
G2 X21.0091 Y102.495 I-2.3336 J-8.2032
G2 X23.5071 Y96.4643 I-6.0307 J-6.0307
G1 F500.0 Z-2.9
G2 F1000.0 X21.0091 Y90.4336 I-8.5287 J0.0
G2 X17.3141 Y88.2617 I-6.0307 J6.0307
G2 X14.9784 Y87.9356 Z-0.7016 I-2.3357 J8.2026
G3 X14.9777 Z-0.7009 I0.0 J-1.5875
G2 X14.9767 Z-0.7 I-0.0037 J8.5854
G2 X13.3119 Y88.098 Z-2.2669 I-0.0027 J8.5854
G2 X12.6391 Y88.2599 Z-2.9 I1.6386 J8.2908
G2 X10.5952 Y89.1464 I2.3114 J8.1289
G3 X10.5947 Y89.1467 I-0.8181 J-1.3604
G2 X7.5555 Y92.2609 I4.4172 J7.3509
G2 X6.4497 Y96.4618 I7.3773 J4.1878
G3 Y96.465 I-1.5875 J0.0025
G2 X6.6121 Y98.1308 I8.5854 J0.0037
G2 X7.6605 Y100.8475 I8.2908 J-1.6386
G3 X7.6608 Y100.848 I-1.3604 J0.8181
G2 X10.775 Y103.8872 I7.351 J-4.4172
G2 X12.637 Y104.6679 I4.1878 J-7.3773
G2 X14.9749 Y104.993 Z-0.7004 I2.3258 J-8.158
G2 X14.9759 Z-0.7013 I-0.0121 J-8.483
G3 X14.9784 Z-0.7037 I0.0025 J1.5875
G2 X17.312 Y104.6675 Z-2.9 I0.0 J-8.5287
G2 X21.0091 Y102.495 I-2.3336 J-8.2032
G2 X23.5071 Y96.4643 I-6.0307 J-6.0307
G1 F500.0 Z-3.0
G2 F1000.0 X21.0091 Y90.4336 I-8.5287 J0.0
G2 X17.3141 Y88.2617 I-6.0307 J6.0307
G2 X14.9784 Y87.9356 Z-0.7016 I-2.3357 J8.2026
G3 X14.9777 Z-0.701 I0.0 J-1.5875
G2 X14.9767 Z-0.7 I-0.0037 J8.5854
G2 X13.3119 Y88.098 Z-2.3381 I-0.0027 J8.5854
G2 X12.6391 Y88.2599 Z-3.0 I1.6386 J8.2908
G2 X10.5952 Y89.1464 I2.3114 J8.1289
G3 X10.5947 Y89.1467 I-0.8181 J-1.3604
G2 X7.5555 Y92.2609 I4.4172 J7.3509
G2 X6.4497 Y96.4618 I7.3773 J4.1878
G3 Y96.465 I-1.5875 J0.0025
G2 X6.6121 Y98.1308 I8.5854 J0.0037
G2 X7.6605 Y100.8475 I8.2908 J-1.6386
G3 X7.6608 Y100.848 I-1.3604 J0.8181
G2 X10.775 Y103.8872 I7.351 J-4.4172
G2 X12.637 Y104.6679 I4.1878 J-7.3773
G2 X14.9749 Y104.993 Z-0.7004 I2.3258 J-8.158
G2 X14.9759 Z-0.7014 I-0.0121 J-8.483
G3 X14.9784 Z-0.7038 I0.0025 J1.5875
G2 X17.312 Y104.6675 Z-3.0 I0.0 J-8.5287
G2 X21.0091 Y102.495 I-2.3336 J-8.2032
G2 X23.5071 Y96.4643 I-6.0307 J-6.0307
G1 F500.0 Z-3.1
G2 F1000.0 X21.0091 Y90.4336 I-8.5287 J0.0
G2 X17.3141 Y88.2617 I-6.0307 J6.0307
G2 X14.9784 Y87.9356 Z-0.7017 I-2.3357 J8.2026
G3 X14.9777 Z-0.701 I0.0 J-1.5875
G2 X14.9767 Z-0.7 I-0.0037 J8.5854
G2 X13.3119 Y88.098 Z-2.4093 I-0.0027 J8.5854
G2 X12.6391 Y88.2599 Z-3.1 I1.6386 J8.2908
G2 X10.5952 Y89.1464 I2.3114 J8.1289
G3 X10.5947 Y89.1467 I-0.8181 J-1.3604
G2 X7.5555 Y92.2609 I4.4172 J7.3509
G2 X6.4497 Y96.4618 I7.3773 J4.1878
G3 Y96.465 I-1.5875 J0.0025
G2 X6.6121 Y98.1308 I8.5854 J0.0037
G2 X7.6605 Y100.8475 I8.2908 J-1.6386
G3 X7.6608 Y100.848 I-1.3604 J0.8181
G2 X10.775 Y103.8872 I7.351 J-4.4172
G2 X12.637 Y104.6679 I4.1878 J-7.3773
G2 X14.9749 Y104.993 Z-0.7005 I2.3258 J-8.158
G2 X14.9759 Z-0.7015 I-0.0121 J-8.483
G3 X14.9784 Z-0.704 I0.0025 J1.5875
G2 X17.312 Y104.6675 Z-3.1 I0.0 J-8.5287
G2 X21.0091 Y102.495 I-2.3336 J-8.2032
G2 X23.5071 Y96.4643 I-6.0307 J-6.0307
G1 F500.0 Z-3.2
G2 F1000.0 X21.0091 Y90.4336 I-8.5287 J0.0
G2 X17.3141 Y88.2617 I-6.0307 J6.0307
G2 X14.9784 Y87.9356 Z-0.7018 I-2.3357 J8.2026
G3 X14.9777 Z-0.701 I0.0 J-1.5875
G2 X14.9767 Z-0.7 I-0.0037 J8.5854
G2 X13.3119 Y88.098 Z-2.4805 I-0.0027 J8.5854
G2 X12.6391 Y88.2599 Z-3.2 I1.6386 J8.2908
G2 X10.5952 Y89.1464 I2.3114 J8.1289
G3 X10.5947 Y89.1467 I-0.8181 J-1.3604
G2 X7.5555 Y92.2609 I4.4172 J7.3509
G2 X6.4497 Y96.4618 I7.3773 J4.1878
G3 Y96.465 I-1.5875 J0.0025
G2 X6.6121 Y98.1308 I8.5854 J0.0037
G2 X7.6605 Y100.8475 I8.2908 J-1.6386
G3 X7.6608 Y100.848 I-1.3604 J0.8181
G2 X10.775 Y103.8872 I7.351 J-4.4172
G2 X12.637 Y104.6679 I4.1878 J-7.3773
G2 X14.9749 Y104.993 Z-0.7005 I2.3258 J-8.158
G2 X14.9759 Z-0.7015 I-0.0121 J-8.483
G3 X14.9784 Z-0.7042 I0.0025 J1.5875
G2 X17.312 Y104.6675 Z-3.2 I0.0 J-8.5287
G2 X21.0091 Y102.495 I-2.3336 J-8.2032
G2 X23.5071 Y96.4643 I-6.0307 J-6.0307
( holes )
S1000
G0 Z3.0
G0 X19.7711 Y125.4377
G0 Z3.0
G0 X19.7836 Y125.4377
G1 Z0.0
G2 F2000.0 X19.7648 Y125.4269 Z-0.0333 I-0.0125 J0.0
G2 Y125.4486 Z-0.0667 I0.0062 J0.0108
G2 X19.7836 Y125.4377 Z-0.1 I0.0063 J-0.0108
G2 X19.7648 Y125.4269 Z-0.1333 I-0.0125 J0.0
G2 Y125.4486 Z-0.1667 I0.0062 J0.0108
G2 X19.7836 Y125.4377 Z-0.2 I0.0063 J-0.0108
G2 X19.7648 Y125.4269 Z-0.2333 I-0.0125 J0.0
G2 Y125.4486 Z-0.2667 I0.0062 J0.0108
G2 X19.7836 Y125.4377 Z-0.3 I0.0063 J-0.0108
G2 X19.7648 Y125.4269 Z-0.3333 I-0.0125 J0.0
G2 Y125.4486 Z-0.3667 I0.0062 J0.0108
G2 X19.7836 Y125.4377 Z-0.4 I0.0063 J-0.0108
G2 X19.7648 Y125.4269 Z-0.4333 I-0.0125 J0.0
G2 Y125.4486 Z-0.4667 I0.0062 J0.0108
G2 X19.7836 Y125.4377 Z-0.5 I0.0063 J-0.0108
G2 X19.7648 Y125.4269 Z-0.5333 I-0.0125 J0.0
G2 Y125.4486 Z-0.5667 I0.0062 J0.0108
G2 X19.7836 Y125.4377 Z-0.6 I0.0063 J-0.0108
G2 X19.7648 Y125.4269 Z-0.6333 I-0.0125 J0.0
G2 Y125.4486 Z-0.6667 I0.0062 J0.0108
G2 X19.7836 Y125.4377 Z-0.7 I0.0063 J-0.0108
G2 X19.7648 Y125.4269 Z-0.7333 I-0.0125 J0.0
G2 Y125.4486 Z-0.7667 I0.0062 J0.0108
G2 X19.7836 Y125.4377 Z-0.8 I0.0063 J-0.0108
G2 X19.7648 Y125.4269 Z-0.8333 I-0.0125 J0.0
G2 Y125.4486 Z-0.8667 I0.0062 J0.0108
G2 X19.7836 Y125.4377 Z-0.9 I0.0063 J-0.0108
G2 X19.7648 Y125.4269 Z-0.9333 I-0.0125 J0.0
G2 Y125.4486 Z-0.9667 I0.0062 J0.0108
G2 X19.7836 Y125.4377 Z-1.0 I0.0063 J-0.0108
G2 X19.7648 Y125.4269 Z-1.0333 I-0.0125 J0.0
G2 Y125.4486 Z-1.0667 I0.0062 J0.0108
G2 X19.7836 Y125.4377 Z-1.1 I0.0063 J-0.0108
G2 X19.7648 Y125.4269 Z-1.1333 I-0.0125 J0.0
G2 Y125.4486 Z-1.1667 I0.0062 J0.0108
G2 X19.7836 Y125.4377 Z-1.2 I0.0063 J-0.0108
G2 X19.7648 Y125.4269 Z-1.2333 I-0.0125 J0.0
G2 Y125.4486 Z-1.2667 I0.0062 J0.0108
G2 X19.7836 Y125.4377 Z-1.3 I0.0063 J-0.0108
G2 X19.7648 Y125.4269 Z-1.3333 I-0.0125 J0.0
G2 Y125.4486 Z-1.3667 I0.0062 J0.0108
G2 X19.7836 Y125.4377 Z-1.4 I0.0063 J-0.0108
G2 X19.7648 Y125.4269 Z-1.4333 I-0.0125 J0.0
G2 Y125.4486 Z-1.4667 I0.0062 J0.0108
G2 X19.7836 Y125.4377 Z-1.5 I0.0063 J-0.0108
G2 X19.7648 Y125.4269 Z-1.5333 I-0.0125 J0.0
G2 Y125.4486 Z-1.5667 I0.0062 J0.0108
G2 X19.7836 Y125.4377 Z-1.6 I0.0063 J-0.0108
G2 X19.7648 Y125.4269 Z-1.6333 I-0.0125 J0.0
G2 Y125.4486 Z-1.6667 I0.0062 J0.0108
G2 X19.7836 Y125.4377 Z-1.7 I0.0063 J-0.0108
G2 X19.7648 Y125.4269 Z-1.7333 I-0.0125 J0.0
G2 Y125.4486 Z-1.7667 I0.0062 J0.0108
G2 X19.7836 Y125.4377 Z-1.8 I0.0063 J-0.0108
G2 X19.7648 Y125.4269 Z-1.8333 I-0.0125 J0.0
G2 Y125.4486 Z-1.8667 I0.0062 J0.0108
G2 X19.7836 Y125.4377 Z-1.9 I0.0063 J-0.0108
G2 X19.7648 Y125.4269 Z-1.9333 I-0.0125 J0.0
G2 Y125.4486 Z-1.9667 I0.0062 J0.0108
G2 X19.7836 Y125.4377 Z-2.0 I0.0063 J-0.0108
G2 X19.7648 Y125.4269 Z-2.0333 I-0.0125 J0.0
G2 Y125.4486 Z-2.0667 I0.0062 J0.0108
G2 X19.7836 Y125.4377 Z-2.1 I0.0063 J-0.0108
G2 X19.7648 Y125.4269 Z-2.1333 I-0.0125 J0.0
G2 Y125.4486 Z-2.1667 I0.0062 J0.0108
G2 X19.7836 Y125.4377 Z-2.2 I0.0063 J-0.0108
G2 X19.7648 Y125.4269 Z-2.2333 I-0.0125 J0.0
G2 Y125.4486 Z-2.2667 I0.0062 J0.0108
G2 X19.7836 Y125.4377 Z-2.3 I0.0063 J-0.0108
G2 X19.7648 Y125.4269 Z-2.3333 I-0.0125 J0.0
G2 Y125.4486 Z-2.3667 I0.0062 J0.0108
G2 X19.7836 Y125.4377 Z-2.4 I0.0063 J-0.0108
G2 X19.7648 Y125.4269 Z-2.4333 I-0.0125 J0.0
G2 Y125.4486 Z-2.4667 I0.0062 J0.0108
G2 X19.7836 Y125.4377 Z-2.5 I0.0063 J-0.0108
G2 X19.7648 Y125.4269 Z-2.5333 I-0.0125 J0.0
G2 Y125.4486 Z-2.5667 I0.0062 J0.0108
G2 X19.7836 Y125.4377 Z-2.6 I0.0063 J-0.0108
G2 X19.7648 Y125.4269 Z-2.6333 I-0.0125 J0.0
G2 Y125.4486 Z-2.6667 I0.0062 J0.0108
G2 X19.7836 Y125.4377 Z-2.7 I0.0063 J-0.0108
G2 X19.7648 Y125.4269 Z-2.7333 I-0.0125 J0.0
G2 Y125.4486 Z-2.7667 I0.0062 J0.0108
G2 X19.7836 Y125.4377 Z-2.8 I0.0063 J-0.0108
G2 X19.7648 Y125.4269 Z-2.8333 I-0.0125 J0.0
G2 Y125.4486 Z-2.8667 I0.0062 J0.0108
G2 X19.7836 Y125.4377 Z-2.9 I0.0063 J-0.0108
G2 X19.7648 Y125.4269 Z-2.9333 I-0.0125 J0.0
G2 Y125.4486 Z-2.9667 I0.0062 J0.0108
G2 X19.7836 Y125.4377 Z-3.0 I0.0063 J-0.0108
G2 X19.7648 Y125.4269 Z-3.0333 I-0.0125 J0.0
G2 Y125.4486 Z-3.0667 I0.0062 J0.0108
G2 X19.7836 Y125.4377 Z-3.1 I0.0063 J-0.0108
G2 X19.7648 Y125.4269 Z-3.1333 I-0.0125 J0.0
G2 Y125.4486 Z-3.1667 I0.0062 J0.0108
G2 X19.7836 Y125.4377 Z-3.2 I0.0063 J-0.0108
G2 X19.7648 Y125.4269 I-0.0125 J0.0
G2 Y125.4486 I0.0063 J0.0108
G2 X19.7836 Y125.4377 I0.0062 J-0.0108
G0 Z3.0
G0 X9.8463 Y78.2333
G1 F1000.0 Z0.0
G2 F2000.0 X9.8276 Y78.2225 Z-0.0333 I-0.0125 J0.0
G2 Y78.2441 Z-0.0667 I0.0062 J0.0108
G2 X9.8463 Y78.2333 Z-0.1 I0.0063 J-0.0108
G2 X9.8276 Y78.2225 Z-0.1333 I-0.0125 J0.0
G2 Y78.2441 Z-0.1667 I0.0062 J0.0108
G2 X9.8463 Y78.2333 Z-0.2 I0.0063 J-0.0108
G2 X9.8276 Y78.2225 Z-0.2333 I-0.0125 J0.0
G2 Y78.2441 Z-0.2667 I0.0062 J0.0108
G2 X9.8463 Y78.2333 Z-0.3 I0.0063 J-0.0108
G2 X9.8276 Y78.2225 Z-0.3333 I-0.0125 J0.0
G2 Y78.2441 Z-0.3667 I0.0062 J0.0108
G2 X9.8463 Y78.2333 Z-0.4 I0.0063 J-0.0108
G2 X9.8276 Y78.2225 Z-0.4333 I-0.0125 J0.0
G2 Y78.2441 Z-0.4667 I0.0062 J0.0108
G2 X9.8463 Y78.2333 Z-0.5 I0.0063 J-0.0108
G2 X9.8276 Y78.2225 Z-0.5333 I-0.0125 J0.0
G2 Y78.2441 Z-0.5667 I0.0062 J0.0108
G2 X9.8463 Y78.2333 Z-0.6 I0.0063 J-0.0108
G2 X9.8276 Y78.2225 Z-0.6333 I-0.0125 J0.0
G2 Y78.2441 Z-0.6667 I0.0062 J0.0108
G2 X9.8463 Y78.2333 Z-0.7 I0.0063 J-0.0108
G2 X9.8276 Y78.2225 Z-0.7333 I-0.0125 J0.0
G2 Y78.2441 Z-0.7667 I0.0062 J0.0108
G2 X9.8463 Y78.2333 Z-0.8 I0.0063 J-0.0108
G2 X9.8276 Y78.2225 Z-0.8333 I-0.0125 J0.0
G2 Y78.2441 Z-0.8667 I0.0062 J0.0108
G2 X9.8463 Y78.2333 Z-0.9 I0.0063 J-0.0108
G2 X9.8276 Y78.2225 Z-0.9333 I-0.0125 J0.0
G2 Y78.2441 Z-0.9667 I0.0062 J0.0108
G2 X9.8463 Y78.2333 Z-1.0 I0.0063 J-0.0108
G2 X9.8276 Y78.2225 Z-1.0333 I-0.0125 J0.0
G2 Y78.2441 Z-1.0667 I0.0062 J0.0108
G2 X9.8463 Y78.2333 Z-1.1 I0.0063 J-0.0108
G2 X9.8276 Y78.2225 Z-1.1333 I-0.0125 J0.0
G2 Y78.2441 Z-1.1667 I0.0062 J0.0108
G2 X9.8463 Y78.2333 Z-1.2 I0.0063 J-0.0108
G2 X9.8276 Y78.2225 Z-1.2333 I-0.0125 J0.0
G2 Y78.2441 Z-1.2667 I0.0062 J0.0108
G2 X9.8463 Y78.2333 Z-1.3 I0.0063 J-0.0108
G2 X9.8276 Y78.2225 Z-1.3333 I-0.0125 J0.0
G2 Y78.2441 Z-1.3667 I0.0062 J0.0108
G2 X9.8463 Y78.2333 Z-1.4 I0.0063 J-0.0108
G2 X9.8276 Y78.2225 Z-1.4333 I-0.0125 J0.0
G2 Y78.2441 Z-1.4667 I0.0062 J0.0108
G2 X9.8463 Y78.2333 Z-1.5 I0.0063 J-0.0108
G2 X9.8276 Y78.2225 Z-1.5333 I-0.0125 J0.0
G2 Y78.2441 Z-1.5667 I0.0062 J0.0108
G2 X9.8463 Y78.2333 Z-1.6 I0.0063 J-0.0108
G2 X9.8276 Y78.2225 Z-1.6333 I-0.0125 J0.0
G2 Y78.2441 Z-1.6667 I0.0062 J0.0108
G2 X9.8463 Y78.2333 Z-1.7 I0.0063 J-0.0108
G2 X9.8276 Y78.2225 Z-1.7333 I-0.0125 J0.0
G2 Y78.2441 Z-1.7667 I0.0062 J0.0108
G2 X9.8463 Y78.2333 Z-1.8 I0.0063 J-0.0108
G2 X9.8276 Y78.2225 Z-1.8333 I-0.0125 J0.0
G2 Y78.2441 Z-1.8667 I0.0062 J0.0108
G2 X9.8463 Y78.2333 Z-1.9 I0.0063 J-0.0108
G2 X9.8276 Y78.2225 Z-1.9333 I-0.0125 J0.0
G2 Y78.2441 Z-1.9667 I0.0062 J0.0108
G2 X9.8463 Y78.2333 Z-2.0 I0.0063 J-0.0108
G2 X9.8276 Y78.2225 Z-2.0333 I-0.0125 J0.0
G2 Y78.2441 Z-2.0667 I0.0062 J0.0108
G2 X9.8463 Y78.2333 Z-2.1 I0.0063 J-0.0108
G2 X9.8276 Y78.2225 Z-2.1333 I-0.0125 J0.0
G2 Y78.2441 Z-2.1667 I0.0062 J0.0108
G2 X9.8463 Y78.2333 Z-2.2 I0.0063 J-0.0108
G2 X9.8276 Y78.2225 Z-2.2333 I-0.0125 J0.0
G2 Y78.2441 Z-2.2667 I0.0062 J0.0108
G2 X9.8463 Y78.2333 Z-2.3 I0.0063 J-0.0108
G2 X9.8276 Y78.2225 Z-2.3333 I-0.0125 J0.0
G2 Y78.2441 Z-2.3667 I0.0062 J0.0108
G2 X9.8463 Y78.2333 Z-2.4 I0.0063 J-0.0108
G2 X9.8276 Y78.2225 Z-2.4333 I-0.0125 J0.0
G2 Y78.2441 Z-2.4667 I0.0062 J0.0108
G2 X9.8463 Y78.2333 Z-2.5 I0.0063 J-0.0108
G2 X9.8276 Y78.2225 Z-2.5333 I-0.0125 J0.0
G2 Y78.2441 Z-2.5667 I0.0062 J0.0108
G2 X9.8463 Y78.2333 Z-2.6 I0.0063 J-0.0108
G2 X9.8276 Y78.2225 Z-2.6333 I-0.0125 J0.0
G2 Y78.2441 Z-2.6667 I0.0062 J0.0108
G2 X9.8463 Y78.2333 Z-2.7 I0.0063 J-0.0108
G2 X9.8276 Y78.2225 Z-2.7333 I-0.0125 J0.0
G2 Y78.2441 Z-2.7667 I0.0062 J0.0108
G2 X9.8463 Y78.2333 Z-2.8 I0.0063 J-0.0108
G2 X9.8276 Y78.2225 Z-2.8333 I-0.0125 J0.0
G2 Y78.2441 Z-2.8667 I0.0062 J0.0108
G2 X9.8463 Y78.2333 Z-2.9 I0.0063 J-0.0108
G2 X9.8276 Y78.2225 Z-2.9333 I-0.0125 J0.0
G2 Y78.2441 Z-2.9667 I0.0062 J0.0108
G2 X9.8463 Y78.2333 Z-3.0 I0.0063 J-0.0108
G2 X9.8276 Y78.2225 Z-3.0333 I-0.0125 J0.0
G2 Y78.2441 Z-3.0667 I0.0062 J0.0108
G2 X9.8463 Y78.2333 Z-3.1 I0.0063 J-0.0108
G2 X9.8276 Y78.2225 Z-3.1333 I-0.0125 J0.0
G2 Y78.2441 Z-3.1667 I0.0063 J0.0108
G2 X9.8463 Y78.2333 Z-3.2 I0.0062 J-0.0108
G2 X9.8276 Y78.2225 I-0.0125 J0.0
G2 Y78.2441 I0.0063 J0.0108
G2 X9.8463 Y78.2333 I0.0062 J-0.0108
G0 Z3.0
G0 X21.1306 Y65.6098
G1 F1000.0 Z0.0
G2 F2000.0 X21.1119 Y65.5989 Z-0.0333 I-0.0125 J0.0
G2 Y65.6206 Z-0.0667 I0.0062 J0.0108
G2 X21.1306 Y65.6098 Z-0.1 I0.0063 J-0.0108
G2 X21.1119 Y65.5989 Z-0.1333 I-0.0125 J0.0
G2 Y65.6206 Z-0.1667 I0.0062 J0.0108
G2 X21.1306 Y65.6098 Z-0.2 I0.0063 J-0.0108
G2 X21.1119 Y65.5989 Z-0.2333 I-0.0125 J0.0
G2 Y65.6206 Z-0.2667 I0.0062 J0.0108
G2 X21.1306 Y65.6098 Z-0.3 I0.0063 J-0.0108
G2 X21.1119 Y65.5989 Z-0.3333 I-0.0125 J0.0
G2 Y65.6206 Z-0.3667 I0.0062 J0.0108
G2 X21.1306 Y65.6098 Z-0.4 I0.0063 J-0.0108
G2 X21.1119 Y65.5989 Z-0.4333 I-0.0125 J0.0
G2 Y65.6206 Z-0.4667 I0.0062 J0.0108
G2 X21.1306 Y65.6098 Z-0.5 I0.0063 J-0.0108
G2 X21.1119 Y65.5989 Z-0.5333 I-0.0125 J0.0
G2 Y65.6206 Z-0.5667 I0.0062 J0.0108
G2 X21.1306 Y65.6098 Z-0.6 I0.0063 J-0.0108
G2 X21.1119 Y65.5989 Z-0.6333 I-0.0125 J0.0
G2 Y65.6206 Z-0.6667 I0.0062 J0.0108
G2 X21.1306 Y65.6098 Z-0.7 I0.0063 J-0.0108
G2 X21.1119 Y65.5989 Z-0.7333 I-0.0125 J0.0
G2 Y65.6206 Z-0.7667 I0.0062 J0.0108
G2 X21.1306 Y65.6098 Z-0.8 I0.0063 J-0.0108
G2 X21.1119 Y65.5989 Z-0.8333 I-0.0125 J0.0
G2 Y65.6206 Z-0.8667 I0.0062 J0.0108
G2 X21.1306 Y65.6098 Z-0.9 I0.0063 J-0.0108
G2 X21.1119 Y65.5989 Z-0.9333 I-0.0125 J0.0
G2 Y65.6206 Z-0.9667 I0.0062 J0.0108
G2 X21.1306 Y65.6098 Z-1.0 I0.0063 J-0.0108
G2 X21.1119 Y65.5989 Z-1.0333 I-0.0125 J0.0
G2 Y65.6206 Z-1.0667 I0.0062 J0.0108
G2 X21.1306 Y65.6098 Z-1.1 I0.0063 J-0.0108
G2 X21.1119 Y65.5989 Z-1.1333 I-0.0125 J0.0
G2 Y65.6206 Z-1.1667 I0.0062 J0.0108
G2 X21.1306 Y65.6098 Z-1.2 I0.0063 J-0.0108
G2 X21.1119 Y65.5989 Z-1.2333 I-0.0125 J0.0
G2 Y65.6206 Z-1.2667 I0.0062 J0.0108
G2 X21.1306 Y65.6098 Z-1.3 I0.0063 J-0.0108
G2 X21.1119 Y65.5989 Z-1.3333 I-0.0125 J0.0
G2 Y65.6206 Z-1.3667 I0.0062 J0.0108
G2 X21.1306 Y65.6098 Z-1.4 I0.0063 J-0.0108
G2 X21.1119 Y65.5989 Z-1.4333 I-0.0125 J0.0
G2 Y65.6206 Z-1.4667 I0.0062 J0.0108
G2 X21.1306 Y65.6098 Z-1.5 I0.0063 J-0.0108
G2 X21.1119 Y65.5989 Z-1.5333 I-0.0125 J0.0
G2 Y65.6206 Z-1.5667 I0.0062 J0.0108
G2 X21.1306 Y65.6098 Z-1.6 I0.0063 J-0.0108
G2 X21.1119 Y65.5989 Z-1.6333 I-0.0125 J0.0
G2 Y65.6206 Z-1.6667 I0.0062 J0.0108
G2 X21.1306 Y65.6098 Z-1.7 I0.0063 J-0.0108
G2 X21.1119 Y65.5989 Z-1.7333 I-0.0125 J0.0
G2 Y65.6206 Z-1.7667 I0.0062 J0.0108
G2 X21.1306 Y65.6098 Z-1.8 I0.0063 J-0.0108
G2 X21.1119 Y65.5989 Z-1.8333 I-0.0125 J0.0
G2 Y65.6206 Z-1.8667 I0.0062 J0.0108
G2 X21.1306 Y65.6098 Z-1.9 I0.0063 J-0.0108
G2 X21.1119 Y65.5989 Z-1.9333 I-0.0125 J0.0
G2 Y65.6206 Z-1.9667 I0.0062 J0.0108
G2 X21.1306 Y65.6098 Z-2.0 I0.0063 J-0.0108
G2 X21.1119 Y65.5989 Z-2.0333 I-0.0125 J0.0
G2 Y65.6206 Z-2.0667 I0.0062 J0.0108
G2 X21.1306 Y65.6098 Z-2.1 I0.0063 J-0.0108
G2 X21.1119 Y65.5989 Z-2.1333 I-0.0125 J0.0
G2 Y65.6206 Z-2.1667 I0.0062 J0.0108
G2 X21.1306 Y65.6098 Z-2.2 I0.0063 J-0.0108
G2 X21.1119 Y65.5989 Z-2.2333 I-0.0125 J0.0
G2 Y65.6206 Z-2.2667 I0.0062 J0.0108
G2 X21.1306 Y65.6098 Z-2.3 I0.0063 J-0.0108
G2 X21.1119 Y65.5989 Z-2.3333 I-0.0125 J0.0
G2 Y65.6206 Z-2.3667 I0.0062 J0.0108
G2 X21.1306 Y65.6098 Z-2.4 I0.0063 J-0.0108
G2 X21.1119 Y65.5989 Z-2.4333 I-0.0125 J0.0
G2 Y65.6206 Z-2.4667 I0.0062 J0.0108
G2 X21.1306 Y65.6098 Z-2.5 I0.0063 J-0.0108
G2 X21.1119 Y65.5989 Z-2.5333 I-0.0125 J0.0
G2 Y65.6206 Z-2.5667 I0.0062 J0.0108
G2 X21.1306 Y65.6098 Z-2.6 I0.0063 J-0.0108
G2 X21.1119 Y65.5989 Z-2.6333 I-0.0125 J0.0
G2 Y65.6206 Z-2.6667 I0.0062 J0.0108
G2 X21.1306 Y65.6098 Z-2.7 I0.0063 J-0.0108
G2 X21.1119 Y65.5989 Z-2.7333 I-0.0125 J0.0
G2 Y65.6206 Z-2.7667 I0.0062 J0.0108
G2 X21.1306 Y65.6098 Z-2.8 I0.0063 J-0.0108
G2 X21.1119 Y65.5989 Z-2.8333 I-0.0125 J0.0
G2 Y65.6206 Z-2.8667 I0.0062 J0.0108
G2 X21.1306 Y65.6098 Z-2.9 I0.0063 J-0.0108
G2 X21.1119 Y65.5989 Z-2.9333 I-0.0125 J0.0
G2 Y65.6206 Z-2.9667 I0.0062 J0.0108
G2 X21.1306 Y65.6098 Z-3.0 I0.0063 J-0.0108
G2 X21.1119 Y65.5989 Z-3.0333 I-0.0125 J0.0
G2 Y65.6206 Z-3.0667 I0.0062 J0.0108
G2 X21.1306 Y65.6098 Z-3.1 I0.0063 J-0.0108
G2 X21.1119 Y65.5989 Z-3.1333 I-0.0125 J0.0
G2 Y65.6206 Z-3.1667 I0.0062 J0.0108
G2 X21.1306 Y65.6098 Z-3.2 I0.0063 J-0.0108
G2 X21.1119 Y65.5989 I-0.0125 J0.0
G2 Y65.6206 I0.0063 J0.0108
G2 X21.1306 Y65.6098 I0.0062 J-0.0108
G0 Z3.0
G0 X17.7407 Y48.0108
G1 F1000.0 Z0.0
G2 F2000.0 X17.722 Y48.0 Z-0.0333 I-0.0125 J0.0
G2 Y48.0216 Z-0.0667 I0.0063 J0.0108
G2 X17.7407 Y48.0108 Z-0.1 I0.0062 J-0.0108
G2 X17.722 Y48.0 Z-0.1333 I-0.0125 J0.0
G2 Y48.0216 Z-0.1667 I0.0063 J0.0108
G2 X17.7407 Y48.0108 Z-0.2 I0.0062 J-0.0108
G2 X17.722 Y48.0 Z-0.2333 I-0.0125 J0.0
G2 Y48.0216 Z-0.2667 I0.0063 J0.0108
G2 X17.7407 Y48.0108 Z-0.3 I0.0062 J-0.0108
G2 X17.722 Y48.0 Z-0.3333 I-0.0125 J0.0
G2 Y48.0216 Z-0.3667 I0.0063 J0.0108
G2 X17.7407 Y48.0108 Z-0.4 I0.0062 J-0.0108
G2 X17.722 Y48.0 Z-0.4333 I-0.0125 J0.0
G2 Y48.0216 Z-0.4667 I0.0063 J0.0108
G2 X17.7407 Y48.0108 Z-0.5 I0.0062 J-0.0108
G2 X17.722 Y48.0 Z-0.5333 I-0.0125 J0.0
G2 Y48.0216 Z-0.5667 I0.0063 J0.0108
G2 X17.7407 Y48.0108 Z-0.6 I0.0062 J-0.0108
G2 X17.722 Y48.0 Z-0.6333 I-0.0125 J0.0
G2 Y48.0216 Z-0.6667 I0.0063 J0.0108
G2 X17.7407 Y48.0108 Z-0.7 I0.0062 J-0.0108
G2 X17.722 Y48.0 Z-0.7333 I-0.0125 J0.0
G2 Y48.0216 Z-0.7667 I0.0063 J0.0108
G2 X17.7407 Y48.0108 Z-0.8 I0.0062 J-0.0108
G2 X17.722 Y48.0 Z-0.8333 I-0.0125 J0.0
G2 Y48.0216 Z-0.8667 I0.0063 J0.0108
G2 X17.7407 Y48.0108 Z-0.9 I0.0062 J-0.0108
G2 X17.722 Y48.0 Z-0.9333 I-0.0125 J0.0
G2 Y48.0216 Z-0.9667 I0.0063 J0.0108
G2 X17.7407 Y48.0108 Z-1.0 I0.0062 J-0.0108
G2 X17.722 Y48.0 Z-1.0333 I-0.0125 J0.0
G2 Y48.0216 Z-1.0667 I0.0063 J0.0108
G2 X17.7407 Y48.0108 Z-1.1 I0.0062 J-0.0108
G2 X17.722 Y48.0 Z-1.1333 I-0.0125 J0.0
G2 Y48.0216 Z-1.1667 I0.0063 J0.0108
G2 X17.7407 Y48.0108 Z-1.2 I0.0062 J-0.0108
G2 X17.722 Y48.0 Z-1.2333 I-0.0125 J0.0
G2 Y48.0216 Z-1.2667 I0.0063 J0.0108
G2 X17.7407 Y48.0108 Z-1.3 I0.0062 J-0.0108
G2 X17.722 Y48.0 Z-1.3333 I-0.0125 J0.0
G2 Y48.0216 Z-1.3667 I0.0063 J0.0108
G2 X17.7407 Y48.0108 Z-1.4 I0.0062 J-0.0108
G2 X17.722 Y48.0 Z-1.4333 I-0.0125 J0.0
G2 Y48.0216 Z-1.4667 I0.0063 J0.0108
G2 X17.7407 Y48.0108 Z-1.5 I0.0062 J-0.0108
G2 X17.722 Y48.0 Z-1.5333 I-0.0125 J0.0
G2 Y48.0216 Z-1.5667 I0.0063 J0.0108
G2 X17.7407 Y48.0108 Z-1.6 I0.0062 J-0.0108
G2 X17.722 Y48.0 Z-1.6333 I-0.0125 J0.0
G2 Y48.0216 Z-1.6667 I0.0063 J0.0108
G2 X17.7407 Y48.0108 Z-1.7 I0.0062 J-0.0108
G2 X17.722 Y48.0 Z-1.7333 I-0.0125 J0.0
G2 Y48.0216 Z-1.7667 I0.0063 J0.0108
G2 X17.7407 Y48.0108 Z-1.8 I0.0062 J-0.0108
G2 X17.722 Y48.0 Z-1.8333 I-0.0125 J0.0
G2 Y48.0216 Z-1.8667 I0.0063 J0.0108
G2 X17.7407 Y48.0108 Z-1.9 I0.0062 J-0.0108
G2 X17.722 Y48.0 Z-1.9333 I-0.0125 J0.0
G2 Y48.0216 Z-1.9667 I0.0063 J0.0108
G2 X17.7407 Y48.0108 Z-2.0 I0.0062 J-0.0108
G2 X17.722 Y48.0 Z-2.0333 I-0.0125 J0.0
G2 Y48.0216 Z-2.0667 I0.0063 J0.0108
G2 X17.7407 Y48.0108 Z-2.1 I0.0062 J-0.0108
G2 X17.722 Y48.0 Z-2.1333 I-0.0125 J0.0
G2 Y48.0216 Z-2.1667 I0.0063 J0.0108
G2 X17.7407 Y48.0108 Z-2.2 I0.0062 J-0.0108
G2 X17.722 Y48.0 Z-2.2333 I-0.0125 J0.0
G2 Y48.0216 Z-2.2667 I0.0063 J0.0108
G2 X17.7407 Y48.0108 Z-2.3 I0.0062 J-0.0108
G2 X17.722 Y48.0 Z-2.3333 I-0.0125 J0.0
G2 Y48.0216 Z-2.3667 I0.0063 J0.0108
G2 X17.7407 Y48.0108 Z-2.4 I0.0062 J-0.0108
G2 X17.722 Y48.0 Z-2.4333 I-0.0125 J0.0
G2 Y48.0216 Z-2.4667 I0.0063 J0.0108
G2 X17.7407 Y48.0108 Z-2.5 I0.0062 J-0.0108
G2 X17.722 Y48.0 Z-2.5333 I-0.0125 J0.0
G2 Y48.0216 Z-2.5667 I0.0063 J0.0108
G2 X17.7407 Y48.0108 Z-2.6 I0.0062 J-0.0108
G2 X17.722 Y48.0 Z-2.6333 I-0.0125 J0.0
G2 Y48.0216 Z-2.6667 I0.0063 J0.0108
G2 X17.7407 Y48.0108 Z-2.7 I0.0062 J-0.0108
G2 X17.722 Y48.0 Z-2.7333 I-0.0125 J0.0
G2 Y48.0216 Z-2.7667 I0.0063 J0.0108
G2 X17.7407 Y48.0108 Z-2.8 I0.0062 J-0.0108
G2 X17.722 Y48.0 Z-2.8333 I-0.0125 J0.0
G2 Y48.0216 Z-2.8667 I0.0063 J0.0108
G2 X17.7407 Y48.0108 Z-2.9 I0.0062 J-0.0108
G2 X17.722 Y48.0 Z-2.9333 I-0.0125 J0.0
G2 Y48.0216 Z-2.9667 I0.0063 J0.0108
G2 X17.7407 Y48.0108 Z-3.0 I0.0062 J-0.0108
G2 X17.722 Y48.0 Z-3.0333 I-0.0125 J0.0
G2 Y48.0216 Z-3.0667 I0.0063 J0.0108
G2 X17.7407 Y48.0108 Z-3.1 I0.0062 J-0.0108
G2 X17.722 Y48.0 Z-3.1333 I-0.0125 J0.0
G2 Y48.0216 Z-3.1667 I0.0063 J0.0108
G2 X17.7407 Y48.0108 Z-3.2 I0.0062 J-0.0108
G2 X17.722 Y48.0 I-0.0125 J0.0
G2 Y48.0216 I0.0063 J0.0108
G2 X17.7407 Y48.0108 I0.0062 J-0.0108
G0 Z3.0
G0 X9.8511 Y24.5758
G1 F1000.0 Z0.0
G2 F2000.0 X9.8324 Y24.5649 Z-0.0333 I-0.0125 J0.0
G2 Y24.5866 Z-0.0667 I0.0062 J0.0108
G2 X9.8511 Y24.5758 Z-0.1 I0.0062 J-0.0108
G2 X9.8324 Y24.5649 Z-0.1333 I-0.0125 J0.0
G2 Y24.5866 Z-0.1667 I0.0062 J0.0108
G2 X9.8511 Y24.5758 Z-0.2 I0.0062 J-0.0108
G2 X9.8324 Y24.5649 Z-0.2333 I-0.0125 J0.0
G2 Y24.5866 Z-0.2667 I0.0062 J0.0108
G2 X9.8511 Y24.5758 Z-0.3 I0.0062 J-0.0108
G2 X9.8324 Y24.5649 Z-0.3333 I-0.0125 J0.0
G2 Y24.5866 Z-0.3667 I0.0062 J0.0108
G2 X9.8511 Y24.5758 Z-0.4 I0.0062 J-0.0108
G2 X9.8324 Y24.5649 Z-0.4333 I-0.0125 J0.0
G2 Y24.5866 Z-0.4667 I0.0062 J0.0108
G2 X9.8511 Y24.5758 Z-0.5 I0.0062 J-0.0108
G2 X9.8324 Y24.5649 Z-0.5333 I-0.0125 J0.0
G2 Y24.5866 Z-0.5667 I0.0062 J0.0108
G2 X9.8511 Y24.5758 Z-0.6 I0.0062 J-0.0108
G2 X9.8324 Y24.5649 Z-0.6333 I-0.0125 J0.0
G2 Y24.5866 Z-0.6667 I0.0062 J0.0108
G2 X9.8511 Y24.5758 Z-0.7 I0.0062 J-0.0108
G2 X9.8324 Y24.5649 Z-0.7333 I-0.0125 J0.0
G2 Y24.5866 Z-0.7667 I0.0062 J0.0108
G2 X9.8511 Y24.5758 Z-0.8 I0.0062 J-0.0108
G2 X9.8324 Y24.5649 Z-0.8333 I-0.0125 J0.0
G2 Y24.5866 Z-0.8667 I0.0062 J0.0108
G2 X9.8511 Y24.5758 Z-0.9 I0.0062 J-0.0108
G2 X9.8324 Y24.5649 Z-0.9333 I-0.0125 J0.0
G2 Y24.5866 Z-0.9667 I0.0062 J0.0108
G2 X9.8511 Y24.5758 Z-1.0 I0.0062 J-0.0108
G2 X9.8324 Y24.5649 Z-1.0333 I-0.0125 J0.0
G2 Y24.5866 Z-1.0667 I0.0062 J0.0108
G2 X9.8511 Y24.5758 Z-1.1 I0.0062 J-0.0108
G2 X9.8324 Y24.5649 Z-1.1333 I-0.0125 J0.0
G2 Y24.5866 Z-1.1667 I0.0062 J0.0108
G2 X9.8511 Y24.5758 Z-1.2 I0.0063 J-0.0108
G2 X9.8324 Y24.5649 Z-1.2333 I-0.0125 J0.0
G2 Y24.5866 Z-1.2667 I0.0062 J0.0108
G2 X9.8511 Y24.5758 Z-1.3 I0.0063 J-0.0108
G2 X9.8324 Y24.5649 Z-1.3333 I-0.0125 J0.0
G2 Y24.5866 Z-1.3667 I0.0062 J0.0108
G2 X9.8511 Y24.5758 Z-1.4 I0.0063 J-0.0108
G2 X9.8324 Y24.5649 Z-1.4333 I-0.0125 J0.0
G2 Y24.5866 Z-1.4667 I0.0062 J0.0108
G2 X9.8511 Y24.5758 Z-1.5 I0.0063 J-0.0108
G2 X9.8324 Y24.5649 Z-1.5333 I-0.0125 J0.0
G2 Y24.5866 Z-1.5667 I0.0062 J0.0108
G2 X9.8511 Y24.5758 Z-1.6 I0.0063 J-0.0108
G2 X9.8324 Y24.5649 Z-1.6333 I-0.0125 J0.0
G2 Y24.5866 Z-1.6667 I0.0062 J0.0108
G2 X9.8511 Y24.5758 Z-1.7 I0.0063 J-0.0108
G2 X9.8324 Y24.5649 Z-1.7333 I-0.0125 J0.0
G2 Y24.5866 Z-1.7667 I0.0062 J0.0108
G2 X9.8511 Y24.5758 Z-1.8 I0.0063 J-0.0108
G2 X9.8324 Y24.5649 Z-1.8333 I-0.0125 J0.0
G2 Y24.5866 Z-1.8667 I0.0062 J0.0108
G2 X9.8511 Y24.5758 Z-1.9 I0.0063 J-0.0108
G2 X9.8324 Y24.5649 Z-1.9333 I-0.0125 J0.0
G2 Y24.5866 Z-1.9667 I0.0062 J0.0108
G2 X9.8511 Y24.5758 Z-2.0 I0.0063 J-0.0108
G2 X9.8324 Y24.5649 Z-2.0333 I-0.0125 J0.0
G2 Y24.5866 Z-2.0667 I0.0062 J0.0108
G2 X9.8511 Y24.5758 Z-2.1 I0.0063 J-0.0108
G2 X9.8324 Y24.5649 Z-2.1333 I-0.0125 J0.0
G2 Y24.5866 Z-2.1667 I0.0062 J0.0108
G2 X9.8511 Y24.5758 Z-2.2 I0.0063 J-0.0108
G2 X9.8324 Y24.5649 Z-2.2333 I-0.0125 J0.0
G2 Y24.5866 Z-2.2667 I0.0062 J0.0108
G2 X9.8511 Y24.5758 Z-2.3 I0.0062 J-0.0108
G2 X9.8324 Y24.5649 Z-2.3333 I-0.0125 J0.0
G2 Y24.5866 Z-2.3667 I0.0062 J0.0108
G2 X9.8511 Y24.5758 Z-2.4 I0.0062 J-0.0108
G2 X9.8324 Y24.5649 Z-2.4333 I-0.0125 J0.0
G2 Y24.5866 Z-2.4667 I0.0062 J0.0108
G2 X9.8511 Y24.5758 Z-2.5 I0.0062 J-0.0108
G2 X9.8324 Y24.5649 Z-2.5333 I-0.0125 J0.0
G2 Y24.5866 Z-2.5667 I0.0062 J0.0108
G2 X9.8511 Y24.5758 Z-2.6 I0.0062 J-0.0108
G2 X9.8324 Y24.5649 Z-2.6333 I-0.0125 J0.0
G2 Y24.5866 Z-2.6667 I0.0063 J0.0108
G2 X9.8511 Y24.5758 Z-2.7 I0.0062 J-0.0108
G2 X9.8324 Y24.5649 Z-2.7333 I-0.0125 J0.0
G2 Y24.5866 Z-2.7667 I0.0063 J0.0108
G2 X9.8511 Y24.5758 Z-2.8 I0.0062 J-0.0108
G2 X9.8324 Y24.5649 Z-2.8333 I-0.0125 J0.0
G2 Y24.5866 Z-2.8667 I0.0063 J0.0108
G2 X9.8511 Y24.5758 Z-2.9 I0.0062 J-0.0108
G2 X9.8324 Y24.5649 Z-2.9333 I-0.0125 J0.0
G2 Y24.5866 Z-2.9667 I0.0063 J0.0108
G2 X9.8511 Y24.5758 Z-3.0 I0.0062 J-0.0108
G2 X9.8324 Y24.5649 Z-3.0333 I-0.0125 J0.0
G2 Y24.5866 Z-3.0667 I0.0063 J0.0108
G2 X9.8511 Y24.5758 Z-3.1 I0.0062 J-0.0108
G2 X9.8324 Y24.5649 Z-3.1333 I-0.0125 J0.0
G2 Y24.5866 Z-3.1667 I0.0063 J0.0108
G2 X9.8511 Y24.5758 Z-3.2 I0.0062 J-0.0108
G2 X9.8324 Y24.5649 I-0.0125 J0.0
G2 Y24.5866 I0.0063 J0.0108
G2 X9.8511 Y24.5758 I0.0062 J-0.0108
G0 Z3.0
G0 X7.8879 Y3.6348
G1 F1000.0 Z0.0
G2 F2000.0 X7.8691 Y3.624 Z-0.0333 I-0.0125 J0.0
G2 Y3.6456 Z-0.0667 I0.0062 J0.0108
G2 X7.8879 Y3.6348 Z-0.1 I0.0063 J-0.0108
G2 X7.8691 Y3.624 Z-0.1333 I-0.0125 J0.0
G2 Y3.6456 Z-0.1667 I0.0062 J0.0108
G2 X7.8879 Y3.6348 Z-0.2 I0.0063 J-0.0108
G2 X7.8691 Y3.624 Z-0.2333 I-0.0125 J0.0
G2 Y3.6456 Z-0.2667 I0.0062 J0.0108
G2 X7.8879 Y3.6348 Z-0.3 I0.0063 J-0.0108
G2 X7.8691 Y3.624 Z-0.3333 I-0.0125 J0.0
G2 Y3.6456 Z-0.3667 I0.0063 J0.0108
G2 X7.8879 Y3.6348 Z-0.4 I0.0062 J-0.0108
G2 X7.8691 Y3.624 Z-0.4333 I-0.0125 J0.0
G2 Y3.6456 Z-0.4667 I0.0063 J0.0108
G2 X7.8879 Y3.6348 Z-0.5 I0.0062 J-0.0108
G2 X7.8691 Y3.624 Z-0.5333 I-0.0125 J0.0
G2 Y3.6456 Z-0.5667 I0.0063 J0.0108
G2 X7.8879 Y3.6348 Z-0.6 I0.0062 J-0.0108
G2 X7.8691 Y3.624 Z-0.6333 I-0.0125 J0.0
G2 Y3.6456 Z-0.6667 I0.0062 J0.0108
G2 X7.8879 Y3.6348 Z-0.7 I0.0063 J-0.0108
G2 X7.8691 Y3.624 Z-0.7333 I-0.0125 J0.0
G2 Y3.6456 Z-0.7667 I0.0062 J0.0108
G2 X7.8879 Y3.6348 Z-0.8 I0.0063 J-0.0108
G2 X7.8691 Y3.624 Z-0.8333 I-0.0125 J0.0
G2 Y3.6456 Z-0.8667 I0.0062 J0.0108
G2 X7.8879 Y3.6348 Z-0.9 I0.0063 J-0.0108
G2 X7.8691 Y3.624 Z-0.9333 I-0.0125 J0.0
G2 Y3.6456 Z-0.9667 I0.0062 J0.0108
G2 X7.8879 Y3.6348 Z-1.0 I0.0063 J-0.0108
G2 X7.8691 Y3.624 Z-1.0333 I-0.0125 J0.0
G2 Y3.6456 Z-1.0667 I0.0062 J0.0108
G2 X7.8879 Y3.6348 Z-1.1 I0.0063 J-0.0108
G2 X7.8691 Y3.624 Z-1.1333 I-0.0125 J0.0
G2 Y3.6456 Z-1.1667 I0.0062 J0.0108
G2 X7.8879 Y3.6348 Z-1.2 I0.0063 J-0.0108
G2 X7.8691 Y3.624 Z-1.2333 I-0.0125 J0.0
G2 Y3.6456 Z-1.2667 I0.0062 J0.0108
G2 X7.8879 Y3.6348 Z-1.3 I0.0063 J-0.0108
G2 X7.8691 Y3.624 Z-1.3333 I-0.0125 J0.0
G2 Y3.6456 Z-1.3667 I0.0062 J0.0108
G2 X7.8879 Y3.6348 Z-1.4 I0.0063 J-0.0108
G2 X7.8691 Y3.624 Z-1.4333 I-0.0125 J0.0
G2 Y3.6456 Z-1.4667 I0.0062 J0.0108
G2 X7.8879 Y3.6348 Z-1.5 I0.0063 J-0.0108
G2 X7.8691 Y3.624 Z-1.5333 I-0.0125 J0.0
G2 Y3.6456 Z-1.5667 I0.0062 J0.0108
G2 X7.8879 Y3.6348 Z-1.6 I0.0063 J-0.0108
G2 X7.8691 Y3.624 Z-1.6333 I-0.0125 J0.0
G2 Y3.6456 Z-1.6667 I0.0062 J0.0108
G2 X7.8879 Y3.6348 Z-1.7 I0.0063 J-0.0108
G2 X7.8691 Y3.624 Z-1.7333 I-0.0125 J0.0
G2 Y3.6456 Z-1.7667 I0.0062 J0.0108
G2 X7.8879 Y3.6348 Z-1.8 I0.0063 J-0.0108
G2 X7.8691 Y3.624 Z-1.8333 I-0.0125 J0.0
G2 Y3.6456 Z-1.8667 I0.0062 J0.0108
G2 X7.8879 Y3.6348 Z-1.9 I0.0063 J-0.0108
G2 X7.8691 Y3.624 Z-1.9333 I-0.0125 J0.0
G2 Y3.6456 Z-1.9667 I0.0062 J0.0108
G2 X7.8879 Y3.6348 Z-2.0 I0.0063 J-0.0108
G2 X7.8691 Y3.624 Z-2.0333 I-0.0125 J0.0
G2 Y3.6456 Z-2.0667 I0.0062 J0.0108
G2 X7.8879 Y3.6348 Z-2.1 I0.0063 J-0.0108
G2 X7.8691 Y3.624 Z-2.1333 I-0.0125 J0.0
G2 Y3.6456 Z-2.1667 I0.0062 J0.0108
G2 X7.8879 Y3.6348 Z-2.2 I0.0063 J-0.0108
G2 X7.8691 Y3.624 Z-2.2333 I-0.0125 J0.0
G2 Y3.6456 Z-2.2667 I0.0062 J0.0108
G2 X7.8879 Y3.6348 Z-2.3 I0.0063 J-0.0108
G2 X7.8691 Y3.624 Z-2.3333 I-0.0125 J0.0
G2 Y3.6456 Z-2.3667 I0.0063 J0.0108
G2 X7.8879 Y3.6348 Z-2.4 I0.0062 J-0.0108
G2 X7.8691 Y3.624 Z-2.4333 I-0.0125 J0.0
G2 Y3.6456 Z-2.4667 I0.0063 J0.0108
G2 X7.8879 Y3.6348 Z-2.5 I0.0062 J-0.0108
G2 X7.8691 Y3.624 Z-2.5333 I-0.0125 J0.0
G2 Y3.6456 Z-2.5667 I0.0063 J0.0108
G2 X7.8879 Y3.6348 Z-2.6 I0.0062 J-0.0108
G2 X7.8691 Y3.624 Z-2.6333 I-0.0125 J0.0
G2 Y3.6456 Z-2.6667 I0.0063 J0.0108
G2 X7.8879 Y3.6348 Z-2.7 I0.0062 J-0.0108
G2 X7.8691 Y3.624 Z-2.7333 I-0.0125 J0.0
G2 Y3.6456 Z-2.7667 I0.0063 J0.0108
G2 X7.8879 Y3.6348 Z-2.8 I0.0062 J-0.0108
G2 X7.8691 Y3.624 Z-2.8333 I-0.0125 J0.0
G2 Y3.6456 Z-2.8667 I0.0063 J0.0108
G2 X7.8879 Y3.6348 Z-2.9 I0.0062 J-0.0108
G2 X7.8691 Y3.624 Z-2.9333 I-0.0125 J0.0
G2 Y3.6456 Z-2.9667 I0.0063 J0.0108
G2 X7.8879 Y3.6348 Z-3.0 I0.0062 J-0.0108
G2 X7.8691 Y3.624 Z-3.0333 I-0.0125 J0.0
G2 Y3.6456 Z-3.0667 I0.0063 J0.0108
G2 X7.8879 Y3.6348 Z-3.1 I0.0062 J-0.0108
G2 X7.8691 Y3.624 Z-3.1333 I-0.0125 J0.0
G2 Y3.6456 Z-3.1667 I0.0063 J0.0108
G2 X7.8879 Y3.6348 Z-3.2 I0.0062 J-0.0108
G2 X7.8691 Y3.624 I-0.0125 J0.0
G2 Y3.6456 I0.0063 J0.0108
G2 X7.8879 Y3.6348 I0.0062 J-0.0108
( cutout )
S1000
G0 Z3.0
G0 X10.6457 Y-1.5821
G1 F1000.0 Z-0.1
G1 F2000.0 X0.0056
G2 X-1.5819 Y0.0054 I0.0 J1.5875
G1 Y128.6776
G2 X0.0056 Y130.2651 I1.5875 J0.0
G1 X29.4673
G2 X31.0548 Y128.6776 I0.0 J-1.5875
G1 Y0.0054
G2 X29.4673 Y-1.5821 I-1.5875 J0.0
G1 X10.6457
G1 F1000.0 Z-0.2
G1 F2000.0 X0.0056
G2 X-1.5819 Y0.0054 I0.0 J1.5875
G1 Y128.6776
G2 X0.0056 Y130.2651 I1.5875 J0.0
G1 X29.4673
G2 X31.0548 Y128.6776 I0.0 J-1.5875
G1 Y0.0054
G2 X29.4673 Y-1.5821 I-1.5875 J0.0
G1 X10.6457
G1 F1000.0 Z-0.3
G1 F2000.0 X0.0056
G2 X-1.5819 Y0.0054 I0.0 J1.5875
G1 Y128.6776
G2 X0.0056 Y130.2651 I1.5875 J0.0
G1 X29.4673
G2 X31.0548 Y128.6776 I0.0 J-1.5875
G1 Y0.0054
G2 X29.4673 Y-1.5821 I-1.5875 J0.0
G1 X10.6457
G1 F1000.0 Z-0.4
G1 F2000.0 X0.0056
G2 X-1.5819 Y0.0054 I0.0 J1.5875
G1 Y128.6776
G2 X0.0056 Y130.2651 I1.5875 J0.0
G1 X29.4673
G2 X31.0548 Y128.6776 I0.0 J-1.5875
G1 Y0.0054
G2 X29.4673 Y-1.5821 I-1.5875 J0.0
G1 X10.6457
G1 F1000.0 Z-0.5
G1 F2000.0 X0.0056
G2 X-1.5819 Y0.0054 I0.0 J1.5875
G1 Y128.6776
G2 X0.0056 Y130.2651 I1.5875 J0.0
G1 X29.4673
G2 X31.0548 Y128.6776 I0.0 J-1.5875
G1 Y0.0054
G2 X29.4673 Y-1.5821 I-1.5875 J0.0
G1 X10.6457
G1 F1000.0 Z-0.6
G1 F2000.0 X0.0056
G2 X-1.5819 Y0.0054 I0.0 J1.5875
G1 Y128.6776
G2 X0.0056 Y130.2651 I1.5875 J0.0
G1 X29.4673
G2 X31.0548 Y128.6776 I0.0 J-1.5875
G1 Y0.0054
G2 X29.4673 Y-1.5821 I-1.5875 J0.0
G1 X10.6457
G1 F1000.0 Z-0.7
G1 F2000.0 X0.0056
G2 X-1.5819 Y0.0054 I0.0 J1.5875
G1 Y128.6776
G2 X0.0056 Y130.2651 I1.5875 J0.0
G1 X29.4673
G2 X31.0548 Y128.6776 I0.0 J-1.5875
G1 Y0.0054
G2 X29.4673 Y-1.5821 I-1.5875 J0.0
G1 X10.6457
G1 F1000.0 Z-0.8
G1 F2000.0 X0.0056
G2 X-1.5819 Y0.0054 I0.0 J1.5875
G1 Y128.6776
G2 X0.0056 Y130.2651 I1.5875 J0.0
G1 X29.4673
G2 X31.0548 Y128.6776 I0.0 J-1.5875
G1 Y0.0054
G2 X29.4673 Y-1.5821 I-1.5875 J0.0
G1 X10.6457
G1 F1000.0 Z-0.9
G1 F2000.0 X0.0056
G2 X-1.5819 Y0.0054 I0.0 J1.5875
G1 Y128.6776
G2 X0.0056 Y130.2651 I1.5875 J0.0
G1 X29.4673
G2 X31.0548 Y128.6776 I0.0 J-1.5875
G1 Y0.0054
G2 X29.4673 Y-1.5821 I-1.5875 J0.0
G1 X10.6457
G1 F1000.0 Z-1.0
G1 F2000.0 X0.0056
G2 X-1.5819 Y0.0054 I0.0 J1.5875
G1 Y128.6776
G2 X0.0056 Y130.2651 I1.5875 J0.0
G1 X29.4673
G2 X31.0548 Y128.6776 I0.0 J-1.5875
G1 Y0.0054
G2 X29.4673 Y-1.5821 I-1.5875 J0.0
G1 X10.6457
G1 F1000.0 Z-1.1
G1 F2000.0 X0.0056
G2 X-1.5819 Y0.0054 I0.0 J1.5875
G1 Y128.6776
G2 X0.0056 Y130.2651 I1.5875 J0.0
G1 X29.4673
G2 X31.0548 Y128.6776 I0.0 J-1.5875
G1 Y0.0054
G2 X29.4673 Y-1.5821 I-1.5875 J0.0
G1 X10.6457
G1 F1000.0 Z-1.2
G1 F2000.0 X0.0056
G2 X-1.5819 Y0.0054 I0.0 J1.5875
G1 Y128.6776
G2 X0.0056 Y130.2651 I1.5875 J0.0
G1 X29.4673
G2 X31.0548 Y128.6776 I0.0 J-1.5875
G1 Y0.0054
G2 X29.4673 Y-1.5821 I-1.5875 J0.0
G1 X10.6457
G1 F1000.0 Z-1.3
G1 F2000.0 X0.0056
G2 X-1.5819 Y0.0054 I0.0 J1.5875
G1 Y128.6776
G2 X0.0056 Y130.2651 I1.5875 J0.0
G1 X29.4673
G2 X31.0548 Y128.6776 I0.0 J-1.5875
G1 Y0.0054
G2 X29.4673 Y-1.5821 I-1.5875 J0.0
G1 X10.6457
G1 F1000.0 Z-1.4
G1 F2000.0 X0.0056
G2 X-1.5819 Y0.0054 I0.0 J1.5875
G1 Y128.6776
G2 X0.0056 Y130.2651 I1.5875 J0.0
G1 X29.4673
G2 X31.0548 Y128.6776 I0.0 J-1.5875
G1 Y0.0054
G2 X29.4673 Y-1.5821 I-1.5875 J0.0
G1 X10.6457
G1 F1000.0 Z-1.5
G1 F2000.0 X0.0056
G2 X-1.5819 Y0.0054 I0.0 J1.5875
G1 Y128.6776
G2 X0.0056 Y130.2651 I1.5875 J0.0
G1 X29.4673
G2 X31.0548 Y128.6776 I0.0 J-1.5875
G1 Y0.0054
G2 X29.4673 Y-1.5821 I-1.5875 J0.0
G1 X10.6457
G1 F1000.0 Z-1.6
G1 F2000.0 X0.0056
G2 X-1.5819 Y0.0054 I0.0 J1.5875
G1 Y128.6776
G2 X0.0056 Y130.2651 I1.5875 J0.0
G1 X29.4673
G2 X31.0548 Y128.6776 I0.0 J-1.5875
G1 Y0.0054
G2 X29.4673 Y-1.5821 I-1.5875 J0.0
G1 X10.6457
G1 F1000.0 Z-1.7
G1 F2000.0 X0.0056
G2 X-1.5819 Y0.0054 I0.0 J1.5875
G1 Y128.6776
G2 X0.0056 Y130.2651 I1.5875 J0.0
G1 X29.4673
G2 X31.0548 Y128.6776 I0.0 J-1.5875
G1 Y0.0054
G2 X29.4673 Y-1.5821 I-1.5875 J0.0
G1 X10.6457
G1 F1000.0 Z-1.8
G1 F2000.0 X0.0056
G2 X-1.5819 Y0.0054 I0.0 J1.5875
G1 Y128.6776
G2 X0.0056 Y130.2651 I1.5875 J0.0
G1 X29.4673
G2 X31.0548 Y128.6776 I0.0 J-1.5875
G1 Y0.0054
G2 X29.4673 Y-1.5821 I-1.5875 J0.0
G1 X10.6457
G1 F1000.0 Z-1.9
G1 F2000.0 X0.0056
G2 X-1.5819 Y0.0054 I0.0 J1.5875
G1 Y128.6776
G2 X0.0056 Y130.2651 I1.5875 J0.0
G1 X29.4673
G2 X31.0548 Y128.6776 I0.0 J-1.5875
G1 Y0.0054
G2 X29.4673 Y-1.5821 I-1.5875 J0.0
G1 X10.6457
G1 F1000.0 Z-2.0
G1 F2000.0 X0.0056
G2 X-1.5819 Y0.0054 I0.0 J1.5875
G1 Y128.6776
G2 X0.0056 Y130.2651 I1.5875 J0.0
G1 X29.4673
G2 X31.0548 Y128.6776 I0.0 J-1.5875
G1 Y0.0054
G2 X29.4673 Y-1.5821 I-1.5875 J0.0
G1 X10.6457
G1 F1000.0 Z-2.1
G1 F2000.0 X0.0056
G2 X-1.5819 Y0.0054 I0.0 J1.5875
G1 Y128.6776
G2 X0.0056 Y130.2651 I1.5875 J0.0
G1 X29.4673
G2 X31.0548 Y128.6776 I0.0 J-1.5875
G1 Y0.0054
G2 X29.4673 Y-1.5821 I-1.5875 J0.0
G1 X10.6457
G1 F1000.0 Z-2.2
G1 F2000.0 X0.0056
G2 X-1.5819 Y0.0054 I0.0 J1.5875
G1 Y128.6776
G2 X0.0056 Y130.2651 I1.5875 J0.0
G1 X29.4673
G2 X31.0548 Y128.6776 I0.0 J-1.5875
G1 Y0.0054
G2 X29.4673 Y-1.5821 I-1.5875 J0.0
G1 X10.6457
G1 F1000.0 Z-2.3
G1 F2000.0 X0.0056
G2 X-1.5819 Y0.0054 I0.0 J1.5875
G1 Y128.6776
G2 X0.0056 Y130.2651 I1.5875 J0.0
G1 X29.4673
G2 X31.0548 Y128.6776 I0.0 J-1.5875
G1 Y0.0054
G2 X29.4673 Y-1.5821 I-1.5875 J0.0
G1 X10.6457
G1 F1000.0 Z-2.4
G1 F2000.0 X0.0056
G2 X-1.5819 Y0.0054 I0.0 J1.5875
G1 Y128.6776
G2 X0.0056 Y130.2651 I1.5875 J0.0
G1 X29.4673
G2 X31.0548 Y128.6776 I0.0 J-1.5875
G1 Y0.0054
G2 X29.4673 Y-1.5821 I-1.5875 J0.0
G1 X10.6457
G1 F1000.0 Z-2.5
G1 F2000.0 X0.0056
G2 X-1.5819 Y0.0054 I0.0 J1.5875
G1 Y128.6776
G2 X0.0056 Y130.2651 I1.5875 J0.0
G1 X29.4673
G2 X31.0548 Y128.6776 I0.0 J-1.5875
G1 Y0.0054
G2 X29.4673 Y-1.5821 I-1.5875 J0.0
G1 X10.6457
G1 F1000.0 Z-2.6
G1 F2000.0 X0.0056
G2 X-1.5819 Y0.0054 I0.0 J1.5875
G1 Y128.6776
G2 X0.0056 Y130.2651 I1.5875 J0.0
G1 X29.4673
G2 X31.0548 Y128.6776 I0.0 J-1.5875
G1 Y0.0054
G2 X29.4673 Y-1.5821 I-1.5875 J0.0
G1 X10.6457
G1 F1000.0 Z-2.7
G1 F2000.0 X0.0056
G2 X-1.5819 Y0.0054 I0.0 J1.5875
G1 Y128.6776
G2 X0.0056 Y130.2651 I1.5875 J0.0
G1 X29.4673
G2 X31.0548 Y128.6776 I0.0 J-1.5875
G1 Y0.0054
G2 X29.4673 Y-1.5821 I-1.5875 J0.0
G1 X10.6457
G1 F1000.0 Z-2.8
G1 F2000.0 X0.0056
G2 X-1.5819 Y0.0054 I0.0 J1.5875
G1 Y128.6776
G2 X0.0056 Y130.2651 I1.5875 J0.0
G1 X29.4673
G2 X31.0548 Y128.6776 I0.0 J-1.5875
G1 Y0.0054
G2 X29.4673 Y-1.5821 I-1.5875 J0.0
G1 X10.6457
G1 F1000.0 Z-2.9
G1 F2000.0 X0.0056
G2 X-1.5819 Y0.0054 I0.0 J1.5875
G1 Y128.6776
G2 X0.0056 Y130.2651 I1.5875 J0.0
G1 X29.4673
G2 X31.0548 Y128.6776 I0.0 J-1.5875
G1 Y0.0054
G2 X29.4673 Y-1.5821 I-1.5875 J0.0
G1 X10.6457
G1 F1000.0 Z-3.0
G1 F2000.0 X0.0056
G2 X-1.5819 Y0.0054 I0.0 J1.5875
G1 Y128.6776
G2 X0.0056 Y130.2651 I1.5875 J0.0
G1 X29.4673
G2 X31.0548 Y128.6776 I0.0 J-1.5875
G1 Y0.0054
G2 X29.4673 Y-1.5821 I-1.5875 J0.0
G1 X10.6457
G1 F1000.0 Z-3.1
G1 F2000.0 X0.0056
G2 X-1.5819 Y0.0054 I0.0 J1.5875
G1 Y128.6776
G2 X0.0056 Y130.2651 I1.5875 J0.0
G1 X29.4673
G2 X31.0548 Y128.6776 I0.0 J-1.5875
G1 Y0.0054
G2 X29.4673 Y-1.5821 I-1.5875 J0.0
G1 X10.6457
G1 F1000.0 Z-3.2
G1 F2000.0 X0.0056
G2 X-1.5819 Y0.0054 I0.0 J1.5875
G1 Y128.6776
G2 X0.0056 Y130.2651 I1.5875 J0.0
G1 X29.4673
G2 X31.0548 Y128.6776 I0.0 J-1.5875
G1 Y0.0054
G2 X29.4673 Y-1.5821 I-1.5875 J0.0
G1 X10.6457
G0 Z3.0
M5
M30
