(.../pcb-gcode-3.6.2.4/pcb-gcode.ulp)
(Copyright 2005 - 2012 by John Johnson)
(See readme.txt for licensing terms.)
(This file generated from the board:)
(.../eagle/atmega_midi_SP0256-AL2.brd)
(Current profile is .../pcb-gcode-3.6.2.4/profiles/mach.pp  )
(This file generated 9/14/16 10:49 PM)
(Settings from pcb-machine.h)
(spindle on time = 0.0000)
(spindle speed = 15000.0000)
(milling depth = -0.0730)
(tool change at 0.0000  0.0000  1.5000  )
(feed rate xy = F10    )
(feed rate z  = F5     )
(Z Axis Settings)
(  High     Up        Down     Drill)
(0.2500  	0.0500  	-0.0035 	-0.0710 )
(Settings from pcb-defaults.h)
(isolate min = 0.0040)
(isolate max = 0.0200)
(isolate step = 0.0025)
(Generated bottom outlines, bottom drill, )
(Unit of measure: inch)
(Inch Mode)
G20
(Absolute Coordinates)
G90
S15000
G00 Z0.2500  
G00 X0.0000  Y0.0000  
M03
G04 P0.000000
G00 Z0.0500  
G00 X0.0000  Y-0.0400 
G01 Z-0.0730 F5     
G01 X-3.6000 Y-0.0400 F10    
G01 X-3.6500 Y0.0100  
G01 X-3.6500 Y2.5500  
G01 X-3.6000 Y2.6000  
G01 X-0.0100 Y2.6000  
G01 X0.0400  Y2.5500  
G01 X0.0400  Y0.0000  
G01 X0.0000  Y-0.0400 
G00 Z0.0500  
G00 X-0.9000 Y0.7000  
G01 Z-0.0730 F5     
G01 X-0.9000 Y0.7700  F10    
G01 X-0.9700 Y0.7700  
G01 X-0.9700 Y0.7000  
G01 X-0.9000 Y0.7000  
G00 Z0.0500  
G00 X-0.1700 Y2.4000  
G01 Z-0.0730 F5     
G01 X-0.1000 Y2.4000  F10    
G01 X-0.1000 Y2.4700  
G01 X-0.1700 Y2.4700  
G01 X-0.1700 Y2.4000  
G00 Z0.0500  
G00 X-3.4400 Y2.4000  
G01 Z-0.0730 F5     
G01 X-3.4400 Y2.4700  F10    
G01 X-3.5100 Y2.4700  
G01 X-3.5100 Y2.4000  
G01 X-3.4400 Y2.4000  
G00 Z0.0500  
G00 X-3.4100 Y0.9400  
G01 Z-0.0730 F5     
G01 X-3.4100 Y0.8700  F10    
G01 X-3.4800 Y0.8700  
G01 X-3.4800 Y0.9400  
G01 X-3.4100 Y0.9400  
G00 Z0.2500  
M05
M02
