(.../pcb-gcode-3.6.2.4/pcb-gcode.ulp)
(Copyright 2005 - 2012 by John Johnson)
(See readme.txt for licensing terms.)
(This file generated from the board:)
(.../eagle/atmega_midi_SP0256-AL2.brd)
(Current profile is .../pcb-gcode-3.6.2.4/profiles/mach.pp  )
(This file generated 11/26/16 5:00 PM)
(Settings from pcb-machine.h)
(spindle on time = 0.0000)
(spindle speed = 15000.0000)
(milling depth = -0.0730)
(tool change at 0.0000  0.0000  1.5000  )
(feed rate xy = F10    )
(feed rate z  = F5     )
(Z Axis Settings)
(  High     Up        Down     Drill)
(0.2500  	0.0500  	-0.0035 	-0.0710 )
(Settings from pcb-defaults.h)
(isolate min = 0.0040)
(isolate max = 0.0200)
(isolate step = 0.0025)
(Generated bottom outlines, bottom drill, )
(Unit of measure: inch)
(Inch Mode)
G20
(Absolute Coordinates)
G90
S15000
G00 Z0.2500  
G00 X0.0000  Y0.0000  
M03
G04 P0.000000
G00 Z0.0500  
G00 X-0.0100 Y-0.0300 
G01 Z-0.0730 F5     
G01 X-3.5800 Y-0.0300 F10    
G01 X-3.6500 Y0.0500  
G01 X-3.6500 Y2.5000  
G01 X-3.5900 Y2.5600  
G01 X-0.0300 Y2.5600  
G01 X0.0300  Y2.5000  
G01 X0.0300  Y0.0200  
G01 X-0.0100 Y-0.0300 
G00 Z0.0500  
G00 X-0.0800 Y0.1300  
G01 Z-0.0730 F5     
G01 X-0.1600 Y0.1300  F10    
G01 X-0.1600 Y0.2100  
G01 X-0.0800 Y0.2100  
G01 X-0.0800 Y0.1300  
G00 Z0.0500  
G00 X-1.3800 Y0.2400  
G01 Z-0.0730 F5     
G01 X-1.4600 Y0.2400  F10    
G01 X-1.4600 Y0.3200  
G01 X-1.3800 Y0.3200  
G01 X-1.3800 Y0.2400  
G00 Z0.0500  
G00 X-3.4300 Y0.1900  
G01 Z-0.0730 F5     
G01 X-3.5100 Y0.1900  F10    
G01 X-3.5100 Y0.1100  
G01 X-3.4300 Y0.1100  
G01 X-3.4300 Y0.1900  
G00 Z0.0500  
G00 X-3.4400 Y2.3600  
G01 Z-0.0730 F5     
G01 X-3.5200 Y2.3600  F10    
G01 X-3.5200 Y2.4400  
G01 X-3.4400 Y2.4400  
G01 X-3.4400 Y2.3600  
G00 Z0.0500  
G00 X-0.1700 Y2.3600  
G01 Z-0.0730 F5     
G01 X-0.1700 Y2.4400  F10    
G01 X-0.0900 Y2.4400  
G01 X-0.0900 Y2.3600  
G01 X-0.1700 Y2.3600  
G00 Z0.2500  
M05
M02
