(.../pcb-gcode-3.6.2.4/pcb-gcode.ulp)
(Copyright 2005 - 2012 by John Johnson)
(See readme.txt for licensing terms.)
(This file generated from the board:)
(.../eagle/atmega_midi_SP0256-AL2.brd)
(Current profile is .../pcb-gcode-3.6.2.4/profiles/mach.pp  )
(This file generated 9/14/16 10:37 PM)
(Settings from pcb-machine.h)
(spindle on time = 0.0000)
(  Tool Size)
(0.0030  )
(spindle speed = 30000.0000)
(tool change at 0.0000  0.0000  1.5000  )
(feed rate xy = F20    )
(feed rate z  = F10    )
(Z Axis Settings)
(  High     Up        Down     Drill)
(0.2500  	0.0500  	-0.0035 	-0.0710 )
(Settings from pcb-defaults.h)
(isolate min = 0.0040)
(isolate max = 0.0200)
(isolate step = 0.0025)
(Generated bottom outlines, bottom drill, )
(Unit of measure: inch)
(Inch Mode)
G20
(Absolute Coordinates)
G90
S30000
G00 Z0.2500  
G00 X0.0000  Y0.0000  
M03
G04 P0.000000
G00 Z0.0500  
G00 X-0.0079 Y0.2416  
G01 Z-0.0035 F10    
G01 X-0.0079 Y0.2417  F20    
G01 X-0.0064 Y0.2442  
G01 X-0.0051 Y0.2465  
G01 X-0.0050 Y0.2466  
G01 X-0.0043 Y0.2493  
G01 X-0.0035 Y0.2519  
G01 X-0.0035 Y0.2521  
G01 X-0.0035 Y0.2522  
G01 X-0.0035 Y0.2549  
G01 X-0.0035 Y0.2576  
G01 X-0.0035 Y0.2577  
G01 X-0.0035 Y1.6028  
G01 X-0.0050 Y1.6083  
G01 X-0.0078 Y1.6132  
G01 X-0.0593 Y1.6647  
G01 X-0.0608 Y1.6664  
G01 X-0.0613 Y1.6667  
G01 X-0.0618 Y1.6672  
G01 X-0.0637 Y1.6683  
G01 X-0.0655 Y1.6695  
G01 X-0.0661 Y1.6697  
G01 X-0.0667 Y1.6700  
G01 X-0.0688 Y1.6706  
G01 X-0.1399 Y1.6943  
G01 X-0.2130 Y1.7491  
G01 X-0.2130 Y1.7536  
G01 X-0.2144 Y1.7608  
G01 X-0.2172 Y1.7675  
G01 X-0.2213 Y1.7736  
G01 X-0.2264 Y1.7787  
G01 X-0.2325 Y1.7828  
G01 X-0.2392 Y1.7856  
G01 X-0.2464 Y1.7870  
G01 X-0.2536 Y1.7870  
G01 X-0.2608 Y1.7856  
G01 X-0.2675 Y1.7828  
G01 X-0.2736 Y1.7787  
G01 X-0.2755 Y1.7768  
G01 X-0.3974 Y1.7362  
G01 X-0.4665 Y1.7707  
G01 X-0.4665 Y2.0695  
G01 X-0.4296 Y2.0695  
G01 X-0.4176 Y2.0575  
G01 X-0.3824 Y2.0575  
G01 X-0.3704 Y2.0695  
G01 X-0.3296 Y2.0695  
G01 X-0.3176 Y2.0575  
G01 X-0.2824 Y2.0575  
G01 X-0.2575 Y2.0824  
G01 X-0.2575 Y2.1176  
G01 X-0.2695 Y2.1296  
G01 X-0.2695 Y2.1704  
G01 X-0.2575 Y2.1824  
G01 X-0.2575 Y2.2176  
G01 X-0.2824 Y2.2425  
G01 X-0.3176 Y2.2425  
G01 X-0.3296 Y2.2305  
G01 X-0.3704 Y2.2305  
G01 X-0.3824 Y2.2425  
G01 X-0.4176 Y2.2425  
G01 X-0.4296 Y2.2305  
G01 X-0.4704 Y2.2305  
G01 X-0.4824 Y2.2425  
G01 X-0.4954 Y2.2425  
G01 X-0.6771 Y2.5514  
G01 X-0.6774 Y2.5521  
G01 X-0.6784 Y2.5536  
G01 X-0.6793 Y2.5551  
G01 X-0.6798 Y2.5556  
G01 X-0.6802 Y2.5563  
G01 X-0.6815 Y2.5575  
G01 X-0.6826 Y2.5588  
G01 X-0.6832 Y2.5593  
G01 X-0.6837 Y2.5598  
G01 X-0.6852 Y2.5608  
G01 X-0.6866 Y2.5619  
G01 X-0.6873 Y2.5622  
G01 X-0.6879 Y2.5626  
G01 X-0.6896 Y2.5633  
G01 X-0.6912 Y2.5641  
G01 X-0.6919 Y2.5642  
G01 X-0.6926 Y2.5645  
G01 X-0.6943 Y2.5649  
G01 X-0.6960 Y2.5653  
G01 X-0.6968 Y2.5654  
G01 X-0.6975 Y2.5655  
G01 X-0.6993 Y2.5655  
G01 X-0.7010 Y2.5656  
G01 X-0.7018 Y2.5655  
G01 X-2.7990 Y2.5655  
G01 X-2.8004 Y2.5656  
G01 X-2.8015 Y2.5655  
G01 X-2.9732 Y2.5655  
G01 X-2.9739 Y2.5656  
G01 X-2.9757 Y2.5655  
G01 X-2.9775 Y2.5655  
G01 X-2.9782 Y2.5654  
G01 X-2.9790 Y2.5653  
G01 X-2.9807 Y2.5649  
G01 X-2.9824 Y2.5645  
G01 X-2.9831 Y2.5642  
G01 X-2.9838 Y2.5641  
G01 X-2.9854 Y2.5633  
G01 X-2.9871 Y2.5626  
G01 X-2.9877 Y2.5622  
G01 X-2.9883 Y2.5619  
G01 X-2.9898 Y2.5608  
G01 X-2.9913 Y2.5598  
G01 X-2.9918 Y2.5593  
G01 X-2.9924 Y2.5588  
G01 X-2.9935 Y2.5575  
G01 X-2.9948 Y2.5563  
G01 X-2.9952 Y2.5556  
G01 X-2.9957 Y2.5551  
G01 X-2.9966 Y2.5536  
G01 X-2.9976 Y2.5521  
G01 X-2.9979 Y2.5514  
G01 X-2.9982 Y2.5508  
G01 X-2.9988 Y2.5491  
G01 X-2.9995 Y2.5474  
G01 X-2.9997 Y2.5467  
G01 X-3.0678 Y2.3514  
G01 X-3.0699 Y2.3500  
G01 X-3.0743 Y2.3457  
G01 X-3.0777 Y2.3405  
G01 X-3.0800 Y2.3349  
G01 X-3.0812 Y2.3288  
G01 X-3.0812 Y2.3255  
G01 X-3.2833 Y2.3255  
G01 X-3.2842 Y2.3256  
G01 X-3.2858 Y2.3255  
G01 X-3.2875 Y2.3255  
G01 X-3.2883 Y2.3253  
G01 X-3.2892 Y2.3253  
G01 X-3.2908 Y2.3248  
G01 X-3.2924 Y2.3245  
G01 X-3.2932 Y2.3242  
G01 X-3.2940 Y2.3240  
G01 X-3.2955 Y2.3232  
G01 X-3.2971 Y2.3226  
G01 X-3.2978 Y2.3221  
G01 X-3.2985 Y2.3218  
G01 X-3.2999 Y2.3207  
G01 X-3.3013 Y2.3198  
G01 X-3.3019 Y2.3192  
G01 X-3.3025 Y2.3187  
G01 X-3.3036 Y2.3174  
G01 X-3.3048 Y2.3163  
G01 X-3.3053 Y2.3156  
G01 X-3.3058 Y2.3149  
G01 X-3.3067 Y2.3135  
G01 X-3.3076 Y2.3121  
G01 X-3.3079 Y2.3113  
G01 X-3.3083 Y2.3106  
G01 X-3.3089 Y2.3090  
G01 X-3.3095 Y2.3074  
G01 X-3.3097 Y2.3066  
G01 X-3.4078 Y2.0172  
G01 X-3.4580 Y1.9515  
G01 X-3.4630 Y1.9515  
G01 X-3.4815 Y1.9330  
G01 X-3.4815 Y1.9260  
G01 X-3.5157 Y1.8952  
G01 X-3.5163 Y1.8948  
G01 X-3.5176 Y1.8935  
G01 X-3.5189 Y1.8923  
G01 X-3.5193 Y1.8917  
G01 X-3.5198 Y1.8913  
G01 X-3.5208 Y1.8897  
G01 X-3.5219 Y1.8882  
G01 X-3.5222 Y1.8876  
G01 X-3.5226 Y1.8871  
G01 X-3.5233 Y1.8854  
G01 X-3.5241 Y1.8837  
G01 X-3.5243 Y1.8831  
G01 X-3.5245 Y1.8824  
G01 X-3.5249 Y1.8806  
G01 X-3.5253 Y1.8788  
G01 X-3.5254 Y1.8782  
G01 X-3.5255 Y1.8775  
G01 X-3.5255 Y1.8757  
G01 X-3.5256 Y1.8738  
G01 X-3.5255 Y1.8732  
G01 X-3.5255 Y1.8190  
G01 X-3.5315 Y1.8130  
G01 X-3.5315 Y1.7870  
G01 X-3.5255 Y1.7810  
G01 X-3.5255 Y1.6040  
G01 X-3.5315 Y1.5980  
G01 X-3.5315 Y1.5720  
G01 X-3.5233 Y1.5637  
G01 X-3.5156 Y1.4941  
G01 X-3.5156 Y1.4935  
G01 X-3.5153 Y1.4916  
G01 X-3.5151 Y1.4897  
G01 X-3.5149 Y1.4891  
G01 X-3.5148 Y1.4885  
G01 X-3.5141 Y1.4867  
G01 X-3.5135 Y1.4849  
G01 X-3.5133 Y1.4844  
G01 X-3.5131 Y1.4838  
G01 X-3.5121 Y1.4822  
G01 X-3.5111 Y1.4805  
G01 X-3.5107 Y1.4800  
G01 X-3.5104 Y1.4795  
G01 X-3.5091 Y1.4781  
G01 X-3.5079 Y1.4767  
G01 X-3.5074 Y1.4763  
G01 X-3.5070 Y1.4759  
G01 X-3.5055 Y1.4747  
G01 X-3.5040 Y1.4735  
G01 X-3.5034 Y1.4732  
G01 X-3.3675 Y1.3744  
G01 X-3.3675 Y1.3717  
G01 X-3.3665 Y1.3650  
G01 X-3.3644 Y1.3587  
G01 X-3.3613 Y1.3527  
G01 X-3.3574 Y1.3473  
G01 X-3.3527 Y1.3426  
G01 X-3.3473 Y1.3387  
G01 X-3.3413 Y1.3356  
G01 X-3.3350 Y1.3335  
G01 X-3.3283 Y1.3325  
G01 X-3.3217 Y1.3325  
G01 X-3.3150 Y1.3335  
G01 X-3.3087 Y1.3356  
G01 X-3.3027 Y1.3387  
G01 X-3.2973 Y1.3426  
G01 X-3.2926 Y1.3473  
G01 X-3.2887 Y1.3527  
G01 X-3.2856 Y1.3587  
G01 X-3.2835 Y1.3650  
G01 X-3.2825 Y1.3717  
G01 X-3.2825 Y1.3736  
G01 X-3.0612 Y1.5285  
G01 X-3.0505 Y1.5285  
G01 X-3.0505 Y0.6975  
G01 X-3.0495 Y0.6926  
G01 X-3.0476 Y0.6879  
G01 X-3.0448 Y0.6837  
G01 X-3.0413 Y0.6802  
G01 X-3.0371 Y0.6774  
G01 X-3.0324 Y0.6755  
G01 X-3.0275 Y0.6745  
G01 X-3.0225 Y0.6745  
G01 X-3.0176 Y0.6755  
G01 X-3.0129 Y0.6774  
G01 X-3.0113 Y0.6785  
G01 X-2.4276 Y0.6785  
G01 X-2.4273 Y0.6784  
G01 X-2.4248 Y0.6785  
G01 X-2.4222 Y0.6785  
G01 X-2.4219 Y0.6786  
G01 X-2.4217 Y0.6786  
G01 X-2.4192 Y0.6793  
G01 X-2.4167 Y0.6800  
G01 X-2.4165 Y0.6801  
G01 X-2.4162 Y0.6802  
G01 X-2.4140 Y0.6815  
G01 X-2.4118 Y0.6828  
G01 X-2.4116 Y0.6830  
G01 X-2.3204 Y0.7385  
G01 X-2.2970 Y0.7385  
G01 X-2.2785 Y0.7570  
G01 X-2.2785 Y0.7830  
G01 X-2.2970 Y0.8015  
G01 X-2.3230 Y0.8015  
G01 X-2.3415 Y0.7830  
G01 X-2.3415 Y0.7760  
G01 X-2.4310 Y0.7215  
G01 X-2.9995 Y0.7215  
G01 X-2.9995 Y1.5285  
G01 X-2.5513 Y1.5285  
G01 X-2.5498 Y1.5283  
G01 X-2.5485 Y1.5285  
G01 X-2.5472 Y1.5285  
G01 X-2.5457 Y1.5289  
G01 X-2.5442 Y1.5291  
G01 X-2.5430 Y1.5296  
G01 X-2.5417 Y1.5300  
G01 X-2.5404 Y1.5307  
G01 X-2.5390 Y1.5313  
G01 X-2.5379 Y1.5321  
G01 X-2.5368 Y1.5328  
G01 X-2.5357 Y1.5339  
G01 X-2.5345 Y1.5348  
G01 X-2.5337 Y1.5359  
G01 X-2.5328 Y1.5368  
G01 X-2.5320 Y1.5381  
G01 X-2.4587 Y1.6359  
G01 X-2.4516 Y1.6430  
G01 X-2.4469 Y1.6430  
G01 X-2.4409 Y1.6442  
G01 X-2.4352 Y1.6466  
G01 X-2.4301 Y1.6500  
G01 X-2.4257 Y1.6543  
G01 X-2.4223 Y1.6595  
G01 X-2.4200 Y1.6651  
G01 X-2.4188 Y1.6712  
G01 X-2.4188 Y1.7288  
G01 X-2.4200 Y1.7349  
G01 X-2.4223 Y1.7405  
G01 X-2.4257 Y1.7457  
G01 X-2.4301 Y1.7500  
G01 X-2.4352 Y1.7534  
G01 X-2.4409 Y1.7558  
G01 X-2.4469 Y1.7570  
G01 X-2.4531 Y1.7570  
G01 X-2.4591 Y1.7558  
G01 X-2.4648 Y1.7534  
G01 X-2.4699 Y1.7500  
G01 X-2.4743 Y1.7457  
G01 X-2.4777 Y1.7405  
G01 X-2.4800 Y1.7349  
G01 X-2.4812 Y1.7288  
G01 X-2.4812 Y1.6742  
G01 X-2.4893 Y1.6661  
G01 X-2.4905 Y1.6652  
G01 X-2.4913 Y1.6641  
G01 X-2.4922 Y1.6632  
G01 X-2.4930 Y1.6619  
G01 X-2.5607 Y1.5715  
G01 X-3.0113 Y1.5715  
G01 X-3.0129 Y1.5726  
G01 X-3.0176 Y1.5745  
G01 X-3.0225 Y1.5755  
G01 X-3.0275 Y1.5755  
G01 X-3.0324 Y1.5745  
G01 X-3.0371 Y1.5726  
G01 X-3.0387 Y1.5715  
G01 X-3.0613 Y1.5715  
G01 X-3.0634 Y1.5729  
G01 X-3.0681 Y1.5747  
G01 X-3.0730 Y1.5755  
G01 X-3.0781 Y1.5754  
G01 X-3.0830 Y1.5744  
G01 X-3.0876 Y1.5723  
G01 X-3.3118 Y1.4154  
G01 X-3.3150 Y1.4165  
G01 X-3.3217 Y1.4175  
G01 X-3.3283 Y1.4175  
G01 X-3.3350 Y1.4165  
G01 X-3.3375 Y1.4156  
G01 X-3.4659 Y1.5090  
G01 X-3.4725 Y1.5680  
G01 X-3.4685 Y1.5720  
G01 X-3.4685 Y1.5980  
G01 X-3.4745 Y1.6040  
G01 X-3.4745 Y1.7810  
G01 X-3.4685 Y1.7870  
G01 X-3.4685 Y1.8130  
G01 X-3.4745 Y1.8190  
G01 X-3.4745 Y1.8636  
G01 X-3.4469 Y1.8885  
G01 X-3.4370 Y1.8885  
G01 X-3.4185 Y1.9070  
G01 X-3.4185 Y1.9192  
G01 X-3.3653 Y1.9888  
G01 X-3.3642 Y1.9901  
G01 X-3.3637 Y1.9908  
G01 X-3.3632 Y1.9915  
G01 X-3.3625 Y1.9930  
G01 X-3.3617 Y1.9944  
G01 X-3.3614 Y1.9952  
G01 X-3.3610 Y1.9960  
G01 X-3.3606 Y1.9976  
G01 X-3.2667 Y2.2745  
G01 X-3.0812 Y2.2745  
G01 X-3.0812 Y2.2712  
G01 X-3.0800 Y2.2651  
G01 X-3.0777 Y2.2595  
G01 X-3.0743 Y2.2543  
G01 X-3.0699 Y2.2500  
G01 X-3.0648 Y2.2466  
G01 X-3.0591 Y2.2442  
G01 X-3.0531 Y2.2430  
G01 X-3.0469 Y2.2430  
G01 X-3.0409 Y2.2442  
G01 X-3.0352 Y2.2466  
G01 X-3.0301 Y2.2500  
G01 X-3.0257 Y2.2543  
G01 X-3.0223 Y2.2595  
G01 X-3.0200 Y2.2651  
G01 X-3.0188 Y2.2712  
G01 X-3.0188 Y2.3288  
G01 X-3.0198 Y2.3341  
G01 X-2.9569 Y2.5145  
G01 X-2.8150 Y2.5145  
G01 X-2.7815 Y2.4542  
G01 X-2.7815 Y2.4370  
G01 X-2.7630 Y2.4185  
G01 X-2.7370 Y2.4185  
G01 X-2.7185 Y2.4370  
G01 X-2.7185 Y2.4630  
G01 X-2.7370 Y2.4815  
G01 X-2.7383 Y2.4815  
G01 X-2.7567 Y2.5145  
G01 X-0.7146 Y2.5145  
G01 X-0.5409 Y2.2192  
G01 X-0.5425 Y2.2176  
G01 X-0.5425 Y2.1824  
G01 X-0.5305 Y2.1704  
G01 X-0.5305 Y2.1296  
G01 X-0.5425 Y2.1176  
G01 X-0.5425 Y2.0824  
G01 X-0.5335 Y2.0734  
G01 X-0.5335 Y1.7639  
G01 X-0.5590 Y1.7383  
G01 X-0.6745 Y1.7768  
G01 X-0.6847 Y1.7870  
G01 X-0.7153 Y1.7870  
G01 X-0.7370 Y1.7653  
G01 X-0.7370 Y1.7612  
G01 X-0.8155 Y1.7255  
G01 X-1.0732 Y1.7255  
G01 X-1.0847 Y1.7370  
G01 X-1.1153 Y1.7370  
G01 X-1.1268 Y1.7255  
G01 X-1.2310 Y1.7255  
G01 X-1.2370 Y1.7315  
G01 X-1.2630 Y1.7315  
G01 X-1.2815 Y1.7130  
G01 X-1.2815 Y1.6870  
G01 X-1.2630 Y1.6685  
G01 X-1.2370 Y1.6685  
G01 X-1.2310 Y1.6745  
G01 X-1.1268 Y1.6745  
G01 X-1.1255 Y1.6732  
G01 X-1.1255 Y1.6190  
G01 X-1.1269 Y1.6184  
G01 X-1.1284 Y1.6169  
G01 X-1.1292 Y1.6148  
G01 X-1.1292 Y1.5652  
G01 X-1.1284 Y1.5631  
G01 X-1.1269 Y1.5616  
G01 X-1.1248 Y1.5608  
G01 X-1.0752 Y1.5608  
G01 X-1.0731 Y1.5616  
G01 X-1.0716 Y1.5631  
G01 X-1.0708 Y1.5652  
G01 X-1.0708 Y1.6148  
G01 X-1.0716 Y1.6169  
G01 X-1.0731 Y1.6184  
G01 X-1.0745 Y1.6190  
G01 X-1.0745 Y1.6732  
G01 X-1.0732 Y1.6745  
G01 X-0.9665 Y1.6745  
G01 X-0.9665 Y1.5478  
G01 X-0.9665 Y1.5450  
G01 X-0.9665 Y1.5422  
G01 X-0.9658 Y1.5395  
G01 X-0.9650 Y1.5367  
G01 X-0.9636 Y1.5343  
G01 X-0.9622 Y1.5318  
G01 X-0.9603 Y1.5299  
G01 X-0.9582 Y1.5278  
G01 X-0.9558 Y1.5264  
G01 X-0.9533 Y1.5250  
G01 X-0.6651 Y1.3589  
G01 X-0.6215 Y1.2935  
G01 X-0.6215 Y1.0365  
G01 X-0.6677 Y1.0057  
G01 X-0.6719 Y1.0065  
G01 X-0.7301 Y1.0065  
G01 X-0.7362 Y1.0053  
G01 X-0.7419 Y1.0029  
G01 X-0.7471 Y0.9995  
G01 X-0.7515 Y0.9951  
G01 X-0.7549 Y0.9899  
G01 X-0.7573 Y0.9842  
G01 X-0.7585 Y0.9781  
G01 X-0.7585 Y0.9719  
G01 X-0.7584 Y0.9715  
G01 X-1.0036 Y0.9715  
G01 X-1.0301 Y0.9980  
G01 X-1.0699 Y0.9980  
G01 X-1.0980 Y0.9699  
G01 X-1.0980 Y0.9500  
G01 X-1.1363 Y0.9309  
G01 X-1.1370 Y0.9315  
G01 X-1.1630 Y0.9315  
G01 X-1.1815 Y0.9130  
G01 X-1.1815 Y0.8870  
G01 X-1.1630 Y0.8685  
G01 X-1.1370 Y0.8685  
G01 X-1.1185 Y0.8870  
G01 X-1.1185 Y0.8917  
G01 X-1.0792 Y0.9113  
G01 X-1.0699 Y0.9020  
G01 X-1.0301 Y0.9020  
G01 X-1.0036 Y0.9285  
G01 X-0.7522 Y0.9285  
G01 X-0.7515 Y0.9284  
G01 X-0.7494 Y0.9285  
G01 X-0.7472 Y0.9285  
G01 X-0.7465 Y0.9287  
G01 X-0.7459 Y0.9287  
G01 X-0.7438 Y0.9294  
G01 X-0.7417 Y0.9300  
G01 X-0.7411 Y0.9303  
G01 X-0.7015 Y0.9435  
G01 X-0.6719 Y0.9435  
G01 X-0.6658 Y0.9447  
G01 X-0.6601 Y0.9471  
G01 X-0.6549 Y0.9505  
G01 X-0.6505 Y0.9549  
G01 X-0.6471 Y0.9601  
G01 X-0.6447 Y0.9658  
G01 X-0.6439 Y0.9699  
G01 X-0.5887 Y1.0067  
G01 X-0.5868 Y1.0078  
G01 X-0.5863 Y1.0083  
G01 X-0.5857 Y1.0087  
G01 X-0.5843 Y1.0103  
G01 X-0.5828 Y1.0118  
G01 X-0.5824 Y1.0124  
G01 X-0.5820 Y1.0129  
G01 X-0.5810 Y1.0148  
G01 X-0.5800 Y1.0167  
G01 X-0.5798 Y1.0174  
G01 X-0.5795 Y1.0180  
G01 X-0.5791 Y1.0201  
G01 X-0.5785 Y1.0222  
G01 X-0.5785 Y1.0229  
G01 X-0.5784 Y1.0236  
G01 X-0.5785 Y1.0257  
G01 X-0.5785 Y1.2979  
G01 X-0.5784 Y1.2986  
G01 X-0.5785 Y1.3007  
G01 X-0.5785 Y1.3028  
G01 X-0.5787 Y1.3035  
G01 X-0.5787 Y1.3042  
G01 X-0.5794 Y1.3062  
G01 X-0.5800 Y1.3083  
G01 X-0.5803 Y1.3089  
G01 X-0.5805 Y1.3096  
G01 X-0.5817 Y1.3113  
G01 X-0.5828 Y1.3132  
G01 X-0.5833 Y1.3137  
G01 X-0.6317 Y1.3864  
G01 X-0.6328 Y1.3882  
G01 X-0.6333 Y1.3887  
G01 X-0.6337 Y1.3893  
G01 X-0.6353 Y1.3907  
G01 X-0.6368 Y1.3922  
G01 X-0.6374 Y1.3926  
G01 X-0.6379 Y1.3930  
G01 X-0.6399 Y1.3940  
G01 X-0.9235 Y1.5574  
G01 X-0.9235 Y1.6745  
G01 X-0.8121 Y1.6745  
G01 X-0.8116 Y1.6744  
G01 X-0.8096 Y1.6745  
G01 X-0.8075 Y1.6745  
G01 X-0.8071 Y1.6746  
G01 X-0.8066 Y1.6746  
G01 X-0.8046 Y1.6751  
G01 X-0.8026 Y1.6755  
G01 X-0.8022 Y1.6756  
G01 X-0.8017 Y1.6757  
G01 X-0.7998 Y1.6766  
G01 X-0.7979 Y1.6774  
G01 X-0.7976 Y1.6776  
G01 X-0.7167 Y1.7144  
G01 X-0.7153 Y1.7130  
G01 X-0.6949 Y1.7130  
G01 X-0.5639 Y1.6693  
G01 X-0.5630 Y1.6685  
G01 X-0.5615 Y1.6685  
G01 X-0.5598 Y1.6678  
G01 X-0.5586 Y1.6676  
G01 X-0.5575 Y1.6672  
G01 X-0.5554 Y1.6669  
G01 X-0.5533 Y1.6665  
G01 X-0.5521 Y1.6665  
G01 X-0.5509 Y1.6664  
G01 X-0.5488 Y1.6665  
G01 X-0.5467 Y1.6665  
G01 X-0.5455 Y1.6667  
G01 X-0.5443 Y1.6668  
G01 X-0.5423 Y1.6674  
G01 X-0.5402 Y1.6678  
G01 X-0.5391 Y1.6682  
G01 X-0.5382 Y1.6685  
G01 X-0.5370 Y1.6685  
G01 X-0.5359 Y1.6696  
G01 X-0.5341 Y1.6703  
G01 X-0.5331 Y1.6710  
G01 X-0.5321 Y1.6715  
G01 X-0.5304 Y1.6728  
G01 X-0.5286 Y1.6740  
G01 X-0.5278 Y1.6748  
G01 X-0.5269 Y1.6756  
G01 X-0.5255 Y1.6772  
G01 X-0.4934 Y1.7092  
G01 X-0.4179 Y1.6715  
G01 X-0.4142 Y1.6696  
G01 X-0.4130 Y1.6685  
G01 X-0.4118 Y1.6685  
G01 X-0.4057 Y1.6668  
G01 X-0.3991 Y1.6664  
G01 X-0.3925 Y1.6672  
G01 X-0.3886 Y1.6685  
G01 X-0.3870 Y1.6685  
G01 X-0.3861 Y1.6693  
G01 X-0.2545 Y1.7132  
G01 X-0.2536 Y1.7130  
G01 X-0.2464 Y1.7130  
G01 X-0.2392 Y1.7144  
G01 X-0.2387 Y1.7146  
G01 X-0.1646 Y1.6591  
G01 X-0.1642 Y1.6586  
G01 X-0.1624 Y1.6574  
G01 X-0.1606 Y1.6561  
G01 X-0.1600 Y1.6559  
G01 X-0.1595 Y1.6555  
G01 X-0.1574 Y1.6548  
G01 X-0.1554 Y1.6540  
G01 X-0.1547 Y1.6539  
G01 X-0.0866 Y1.6312  
G01 X-0.0465 Y1.5911  
G01 X-0.0465 Y0.2676  
G01 X-0.2699 Y0.1416  
G01 X-0.2799 Y0.1516  
G01 X-0.3201 Y0.1516  
G01 X-0.3485 Y0.1232  
G01 X-0.3485 Y0.1215  
G01 X-0.3515 Y0.1215  
G01 X-0.3515 Y0.1232  
G01 X-0.3799 Y0.1516  
G01 X-0.4201 Y0.1516  
G01 X-0.4462 Y0.1255  
G01 X-0.5538 Y0.1255  
G01 X-0.5799 Y0.1516  
G01 X-0.6201 Y0.1516  
G01 X-0.6485 Y0.1232  
G01 X-0.6485 Y0.1215  
G01 X-0.6515 Y0.1215  
G01 X-0.6515 Y0.1232  
G01 X-0.6799 Y0.1516  
G01 X-0.7201 Y0.1516  
G01 X-0.7462 Y0.1255  
G01 X-1.1047 Y0.1255  
G01 X-1.1057 Y0.1275  
G01 X-1.1108 Y0.1346  
G01 X-1.1170 Y0.1408  
G01 X-1.1241 Y0.1459  
G01 X-1.1318 Y0.1499  
G01 X-1.1402 Y0.1526  
G01 X-1.1488 Y0.1539  
G01 X-1.2575 Y0.1539  
G01 X-1.2661 Y0.1526  
G01 X-1.2745 Y0.1499  
G01 X-1.2822 Y0.1459  
G01 X-1.2893 Y0.1408  
G01 X-1.2895 Y0.1406  
G01 X-1.6791 Y0.2749  
G01 X-1.6806 Y0.2751  
G01 X-1.6870 Y0.2815  
G01 X-1.7130 Y0.2815  
G01 X-1.7228 Y0.2717  
G01 X-2.1741 Y0.1888  
G01 X-2.1777 Y0.1915  
G01 X-2.1845 Y0.1949  
G01 X-2.1918 Y0.1973  
G01 X-2.1993 Y0.1985  
G01 X-2.2070 Y0.1985  
G01 X-2.2145 Y0.1973  
G01 X-2.2218 Y0.1949  
G01 X-2.2286 Y0.1915  
G01 X-2.2347 Y0.1870  
G01 X-2.2401 Y0.1816  
G01 X-2.2446 Y0.1754  
G01 X-2.2481 Y0.1686  
G01 X-2.2505 Y0.1614  
G01 X-2.2516 Y0.1538  
G01 X-2.2516 Y0.1462  
G01 X-2.2505 Y0.1387  
G01 X-2.3137 Y0.0755  
G01 X-2.6475 Y0.0755  
G01 X-2.6500 Y0.0755  
G01 X-2.6525 Y0.0755  
G01 X-3.0954 Y0.0739  
G01 X-3.1976 Y0.0989  
G01 X-3.1976 Y0.1028  
G01 X-3.1990 Y0.1114  
G01 X-3.2017 Y0.1197  
G01 X-3.2057 Y0.1275  
G01 X-3.2108 Y0.1346  
G01 X-3.2170 Y0.1408  
G01 X-3.2241 Y0.1459  
G01 X-3.2318 Y0.1499  
G01 X-3.2402 Y0.1526  
G01 X-3.2488 Y0.1539  
G01 X-3.3575 Y0.1539  
G01 X-3.3661 Y0.1526  
G01 X-3.3745 Y0.1499  
G01 X-3.3822 Y0.1459  
G01 X-3.3893 Y0.1408  
G01 X-3.3955 Y0.1346  
G01 X-3.4006 Y0.1275  
G01 X-3.4046 Y0.1197  
G01 X-3.4073 Y0.1114  
G01 X-3.4086 Y0.1028  
G01 X-3.4086 Y0.0941  
G01 X-3.4073 Y0.0854  
G01 X-3.4046 Y0.0771  
G01 X-3.4006 Y0.0693  
G01 X-3.3955 Y0.0623  
G01 X-3.3893 Y0.0561  
G01 X-3.3822 Y0.0510  
G01 X-3.3745 Y0.0470  
G01 X-3.3661 Y0.0443  
G01 X-3.3575 Y0.0429  
G01 X-3.2488 Y0.0429  
G01 X-3.2402 Y0.0443  
G01 X-3.2318 Y0.0470  
G01 X-3.2241 Y0.0510  
G01 X-3.2221 Y0.0524  
G01 X-3.1063 Y0.0241  
G01 X-3.1058 Y0.0239  
G01 X-3.1039 Y0.0235  
G01 X-3.1020 Y0.0231  
G01 X-3.1014 Y0.0230  
G01 X-3.1008 Y0.0229  
G01 X-3.0989 Y0.0229  
G01 X-3.0970 Y0.0228  
G01 X-3.0964 Y0.0229  
G01 X-2.6500 Y0.0245  
G01 X-2.3006 Y0.0245  
G01 X-2.2957 Y0.0255  
G01 X-2.2911 Y0.0274  
G01 X-2.2869 Y0.0302  
G01 X-2.2144 Y0.1027  
G01 X-2.2070 Y0.1015  
G01 X-2.1993 Y0.1015  
G01 X-2.1918 Y0.1027  
G01 X-2.1845 Y0.1051  
G01 X-2.1777 Y0.1085  
G01 X-2.1716 Y0.1130  
G01 X-2.1662 Y0.1184  
G01 X-2.1617 Y0.1246  
G01 X-2.1582 Y0.1314  
G01 X-2.1558 Y0.1386  
G01 X-2.1556 Y0.1404  
G01 X-1.7157 Y0.2212  
G01 X-1.7130 Y0.2185  
G01 X-1.6870 Y0.2185  
G01 X-1.6831 Y0.2224  
G01 X-1.3085 Y0.0932  
G01 X-1.3073 Y0.0854  
G01 X-1.3046 Y0.0771  
G01 X-1.3006 Y0.0693  
G01 X-1.2955 Y0.0623  
G01 X-1.2893 Y0.0561  
G01 X-1.2822 Y0.0510  
G01 X-1.2745 Y0.0470  
G01 X-1.2661 Y0.0443  
G01 X-1.2575 Y0.0429  
G01 X-1.1488 Y0.0429  
G01 X-1.1402 Y0.0443  
G01 X-1.1318 Y0.0470  
G01 X-1.1241 Y0.0510  
G01 X-1.1170 Y0.0561  
G01 X-1.1108 Y0.0623  
G01 X-1.1057 Y0.0693  
G01 X-1.1031 Y0.0745  
G01 X-0.7399 Y0.0745  
G01 X-0.7201 Y0.0546  
G01 X-0.6799 Y0.0546  
G01 X-0.6561 Y0.0785  
G01 X-0.6439 Y0.0785  
G01 X-0.6201 Y0.0546  
G01 X-0.5799 Y0.0546  
G01 X-0.5601 Y0.0745  
G01 X-0.4399 Y0.0745  
G01 X-0.4201 Y0.0546  
G01 X-0.3799 Y0.0546  
G01 X-0.3561 Y0.0785  
G01 X-0.3439 Y0.0785  
G01 X-0.3201 Y0.0546  
G01 X-0.2799 Y0.0546  
G01 X-0.2515 Y0.0831  
G01 X-0.2515 Y0.1027  
G01 X-0.0168 Y0.2349  
G01 X-0.0167 Y0.2350  
G01 X-0.0143 Y0.2363  
G01 X-0.0120 Y0.2377  
G01 X-0.0118 Y0.2378  
G01 X-0.0099 Y0.2397  
G01 X-0.0079 Y0.2416  
G00 Z0.0500  
G00 X-0.0702 Y0.2837  
G01 Z-0.0035 F10    
G01 X-0.0674 Y0.2879  F20    
G01 X-0.0655 Y0.2926  
G01 X-0.0645 Y0.2975  
G01 X-0.0645 Y1.5264  
G01 X-0.0628 Y1.5288  
G01 X-0.0597 Y1.5349  
G01 X-0.0576 Y1.5414  
G01 X-0.0565 Y1.5482  
G01 X-0.0565 Y1.5550  
G01 X-0.0576 Y1.5618  
G01 X-0.0597 Y1.5683  
G01 X-0.0628 Y1.5744  
G01 X-0.0668 Y1.5799  
G01 X-0.0717 Y1.5848  
G01 X-0.0772 Y1.5888  
G01 X-0.0833 Y1.5919  
G01 X-0.0898 Y1.5940  
G01 X-0.0966 Y1.5951  
G01 X-0.1034 Y1.5951  
G01 X-0.1102 Y1.5940  
G01 X-0.1167 Y1.5919  
G01 X-0.1228 Y1.5888  
G01 X-0.1283 Y1.5848  
G01 X-0.1332 Y1.5799  
G01 X-0.1352 Y1.5771  
G01 X-0.1410 Y1.5771  
G01 X-0.2130 Y1.6491  
G01 X-0.2130 Y1.6653  
G01 X-0.2347 Y1.6870  
G01 X-0.2653 Y1.6870  
G01 X-0.2870 Y1.6653  
G01 X-0.2870 Y1.6491  
G01 X-0.3106 Y1.6255  
G01 X-0.3810 Y1.6255  
G01 X-0.3870 Y1.6315  
G01 X-0.4130 Y1.6315  
G01 X-0.4315 Y1.6130  
G01 X-0.4315 Y1.5870  
G01 X-0.4130 Y1.5685  
G01 X-0.3870 Y1.5685  
G01 X-0.3810 Y1.5745  
G01 X-0.2975 Y1.5745  
G01 X-0.2926 Y1.5755  
G01 X-0.2879 Y1.5774  
G01 X-0.2837 Y1.5802  
G01 X-0.2509 Y1.6130  
G01 X-0.2491 Y1.6130  
G01 X-0.1678 Y1.5318  
G01 X-0.1637 Y1.5290  
G01 X-0.1590 Y1.5271  
G01 X-0.1541 Y1.5261  
G01 X-0.1352 Y1.5261  
G01 X-0.1332 Y1.5232  
G01 X-0.1283 Y1.5184  
G01 X-0.1228 Y1.5144  
G01 X-0.1167 Y1.5113  
G01 X-0.1155 Y1.5109  
G01 X-0.1155 Y0.3255  
G01 X-1.5699 Y0.3255  
G01 X-1.7712 Y0.4098  
G01 X-1.9264 Y0.7348  
G01 X-1.9268 Y0.7358  
G01 X-1.9275 Y0.7370  
G01 X-1.9281 Y0.7383  
G01 X-1.9288 Y0.7392  
G01 X-1.9293 Y0.7402  
G01 X-1.9303 Y0.7412  
G01 X-1.9311 Y0.7423  
G01 X-1.9319 Y0.7430  
G01 X-1.9327 Y0.7439  
G01 X-1.9338 Y0.7447  
G01 X-1.9348 Y0.7456  
G01 X-1.9358 Y0.7462  
G01 X-2.0197 Y0.8092  
G01 X-2.0221 Y0.8149  
G01 X-2.0255 Y0.8201  
G01 X-2.0299 Y0.8245  
G01 X-2.0351 Y0.8279  
G01 X-2.0408 Y0.8303  
G01 X-2.0469 Y0.8315  
G01 X-2.0531 Y0.8315  
G01 X-2.0592 Y0.8303  
G01 X-2.0649 Y0.8279  
G01 X-2.0701 Y0.8245  
G01 X-2.0745 Y0.8201  
G01 X-2.0766 Y0.8169  
G01 X-2.1909 Y0.7955  
G01 X-2.1970 Y0.8015  
G01 X-2.2230 Y0.8015  
G01 X-2.2415 Y0.7830  
G01 X-2.2415 Y0.7570  
G01 X-2.2230 Y0.7385  
G01 X-2.1970 Y0.7385  
G01 X-2.1821 Y0.7534  
G01 X-2.0687 Y0.7746  
G01 X-2.0649 Y0.7721  
G01 X-2.0592 Y0.7697  
G01 X-2.0531 Y0.7685  
G01 X-2.0505 Y0.7685  
G01 X-1.9703 Y0.7084  
G01 X-1.8133 Y0.3797  
G01 X-1.8126 Y0.3780  
G01 X-1.8122 Y0.3774  
G01 X-1.8119 Y0.3767  
G01 X-1.8109 Y0.3753  
G01 X-1.8099 Y0.3738  
G01 X-1.8094 Y0.3733  
G01 X-1.8089 Y0.3727  
G01 X-1.8076 Y0.3715  
G01 X-1.8063 Y0.3703  
G01 X-1.8057 Y0.3698  
G01 X-1.8052 Y0.3694  
G01 X-1.8036 Y0.3684  
G01 X-1.8022 Y0.3674  
G01 X-1.8015 Y0.3672  
G01 X-1.8009 Y0.3668  
G01 X-1.7992 Y0.3662  
G01 X-1.5871 Y0.2774  
G01 X-1.5848 Y0.2765  
G01 X-1.5825 Y0.2755  
G01 X-1.5800 Y0.2750  
G01 X-1.5776 Y0.2745  
G01 X-1.5750 Y0.2745  
G01 X-1.5726 Y0.2745  
G01 X-0.0875 Y0.2745  
G01 X-0.0826 Y0.2755  
G01 X-0.0779 Y0.2774  
G01 X-0.0737 Y0.2802  
G01 X-0.0702 Y0.2837  
G00 Z0.0500  
G00 X-0.1554 Y0.4752  
G01 Z-0.0035 F10    
G01 X-0.1554 Y0.5154  F20    
G01 X-0.1838 Y0.5438  
G01 X-0.2240 Y0.5438  
G01 X-0.2524 Y0.5154  
G01 X-0.2524 Y0.4752  
G01 X-0.2240 Y0.4468  
G01 X-0.1838 Y0.4468  
G01 X-0.1554 Y0.4752  
G00 Z0.0500  
G00 X-0.2515 Y0.5712  
G01 Z-0.0035 F10    
G01 X-0.2515 Y0.6114  F20    
G01 X-0.2799 Y0.6398  
G01 X-0.3201 Y0.6398  
G01 X-0.3384 Y0.6215  
G01 X-0.3892 Y0.6215  
G01 X-0.4535 Y0.7072  
G01 X-0.4535 Y0.8235  
G01 X-0.4292 Y0.9935  
G01 X-0.4090 Y1.0340  
G01 X-0.3860 Y1.0455  
G01 X-0.3842 Y1.0447  
G01 X-0.3781 Y1.0435  
G01 X-0.3271 Y1.0435  
G01 X-0.2665 Y1.0314  
G01 X-0.2570 Y1.0031  
G01 X-0.2574 Y1.0027  
G01 X-0.2613 Y0.9973  
G01 X-0.2644 Y0.9913  
G01 X-0.2665 Y0.9850  
G01 X-0.2675 Y0.9783  
G01 X-0.2675 Y0.9717  
G01 X-0.2665 Y0.9650  
G01 X-0.2644 Y0.9587  
G01 X-0.2613 Y0.9527  
G01 X-0.2574 Y0.9473  
G01 X-0.2527 Y0.9426  
G01 X-0.2473 Y0.9387  
G01 X-0.2413 Y0.9356  
G01 X-0.2350 Y0.9335  
G01 X-0.2283 Y0.9325  
G01 X-0.2217 Y0.9325  
G01 X-0.2150 Y0.9335  
G01 X-0.2087 Y0.9356  
G01 X-0.2027 Y0.9387  
G01 X-0.1973 Y0.9426  
G01 X-0.1926 Y0.9473  
G01 X-0.1887 Y0.9527  
G01 X-0.1856 Y0.9587  
G01 X-0.1835 Y0.9650  
G01 X-0.1825 Y0.9717  
G01 X-0.1825 Y0.9783  
G01 X-0.1835 Y0.9850  
G01 X-0.1856 Y0.9913  
G01 X-0.1887 Y0.9973  
G01 X-0.1926 Y1.0027  
G01 X-0.1973 Y1.0074  
G01 X-0.2027 Y1.0113  
G01 X-0.2087 Y1.0144  
G01 X-0.2150 Y1.0165  
G01 X-0.2162 Y1.0166  
G01 X-0.2287 Y1.0542  
G01 X-0.2296 Y1.0568  
G01 X-0.2305 Y1.0595  
G01 X-0.2321 Y1.0619  
G01 X-0.2336 Y1.0642  
G01 X-0.2358 Y1.0661  
G01 X-0.2379 Y1.0680  
G01 X-0.2404 Y1.0693  
G01 X-0.2429 Y1.0705  
G01 X-0.2458 Y1.0711  
G01 X-0.2485 Y1.0716  
G01 X-0.2919 Y1.0803  
G01 X-0.2927 Y1.0842  
G01 X-0.2951 Y1.0899  
G01 X-0.2985 Y1.0951  
G01 X-0.3029 Y1.0995  
G01 X-0.3081 Y1.1029  
G01 X-0.3138 Y1.1053  
G01 X-0.3199 Y1.1065  
G01 X-0.3781 Y1.1065  
G01 X-0.3842 Y1.1053  
G01 X-0.3899 Y1.1029  
G01 X-0.3951 Y1.0995  
G01 X-0.3995 Y1.0951  
G01 X-0.4029 Y1.0899  
G01 X-0.4053 Y1.0842  
G01 X-0.4054 Y1.0839  
G01 X-0.4332 Y1.0699  
G01 X-0.4345 Y1.0695  
G01 X-0.4358 Y1.0687  
G01 X-0.4371 Y1.0680  
G01 X-0.4381 Y1.0671  
G01 X-0.4392 Y1.0664  
G01 X-0.4402 Y1.0652  
G01 X-0.4414 Y1.0642  
G01 X-0.4421 Y1.0631  
G01 X-0.4430 Y1.0621  
G01 X-0.4437 Y1.0608  
G01 X-0.4445 Y1.0595  
G01 X-0.4449 Y1.0582  
G01 X-0.4683 Y1.0116  
G01 X-0.4687 Y1.0110  
G01 X-0.4695 Y1.0090  
G01 X-0.4705 Y1.0071  
G01 X-0.4706 Y1.0064  
G01 X-0.4709 Y1.0058  
G01 X-0.4712 Y1.0037  
G01 X-0.4716 Y1.0015  
G01 X-0.4716 Y1.0009  
G01 X-0.4961 Y0.8293  
G01 X-0.4965 Y0.8278  
G01 X-0.4965 Y0.8265  
G01 X-0.4967 Y0.8252  
G01 X-0.4965 Y0.8237  
G01 X-0.4965 Y0.7015  
G01 X-0.4967 Y0.7002  
G01 X-0.4965 Y0.6987  
G01 X-0.4965 Y0.6972  
G01 X-0.4962 Y0.6959  
G01 X-0.4960 Y0.6946  
G01 X-0.4954 Y0.6932  
G01 X-0.4950 Y0.6917  
G01 X-0.4944 Y0.6906  
G01 X-0.4939 Y0.6894  
G01 X-0.4930 Y0.6881  
G01 X-0.4922 Y0.6868  
G01 X-0.4913 Y0.6859  
G01 X-0.4180 Y0.5881  
G01 X-0.4172 Y0.5868  
G01 X-0.4163 Y0.5859  
G01 X-0.4155 Y0.5848  
G01 X-0.4143 Y0.5839  
G01 X-0.4132 Y0.5828  
G01 X-0.4121 Y0.5821  
G01 X-0.4110 Y0.5813  
G01 X-0.4096 Y0.5807  
G01 X-0.4083 Y0.5800  
G01 X-0.4070 Y0.5796  
G01 X-0.4058 Y0.5791  
G01 X-0.4043 Y0.5789  
G01 X-0.4028 Y0.5785  
G01 X-0.4015 Y0.5785  
G01 X-0.4002 Y0.5783  
G01 X-0.3987 Y0.5785  
G01 X-0.3485 Y0.5785  
G01 X-0.3485 Y0.5712  
G01 X-0.3201 Y0.5428  
G01 X-0.2799 Y0.5428  
G01 X-0.2515 Y0.5712  
G00 Z0.0500  
G00 X-0.4661 Y0.5672  
G01 Z-0.0035 F10    
G01 X-0.4710 Y0.5722  F20    
G01 X-0.4767 Y0.5763  
G01 X-0.4829 Y0.5795  
G01 X-0.4896 Y0.5816  
G01 X-0.4965 Y0.5827  
G01 X-0.5035 Y0.5827  
G01 X-0.5104 Y0.5816  
G01 X-0.5171 Y0.5795  
G01 X-0.5233 Y0.5763  
G01 X-0.5290 Y0.5722  
G01 X-0.5339 Y0.5672  
G01 X-0.5381 Y0.5615  
G01 X-0.5412 Y0.5553  
G01 X-0.5434 Y0.5486  
G01 X-0.5445 Y0.5417  
G01 X-0.5445 Y0.4567  
G01 X-0.5434 Y0.4498  
G01 X-0.5412 Y0.4431  
G01 X-0.5381 Y0.4369  
G01 X-0.5339 Y0.4312  
G01 X-0.5290 Y0.4263  
G01 X-0.5233 Y0.4222  
G01 X-0.5171 Y0.4190  
G01 X-0.5104 Y0.4168  
G01 X-0.5035 Y0.4157  
G01 X-0.4965 Y0.4157  
G01 X-0.4896 Y0.4168  
G01 X-0.4829 Y0.4190  
G01 X-0.4767 Y0.4222  
G01 X-0.4710 Y0.4263  
G01 X-0.4661 Y0.4312  
G01 X-0.4619 Y0.4369  
G01 X-0.4588 Y0.4431  
G01 X-0.4566 Y0.4498  
G01 X-0.4555 Y0.4567  
G01 X-0.4555 Y0.5417  
G01 X-0.4566 Y0.5486  
G01 X-0.4588 Y0.5553  
G01 X-0.4619 Y0.5615  
G01 X-0.4661 Y0.5672  
G00 Z0.0500  
G00 X-0.6515 Y0.5712  
G01 Z-0.0035 F10    
G01 X-0.6515 Y0.6114  F20    
G01 X-0.6785 Y0.6384  
G01 X-0.6785 Y0.7270  
G01 X-0.6685 Y0.7370  
G01 X-0.6685 Y0.7630  
G01 X-0.6870 Y0.7815  
G01 X-0.7130 Y0.7815  
G01 X-0.7315 Y0.7630  
G01 X-0.7315 Y0.7370  
G01 X-0.7215 Y0.7270  
G01 X-0.7215 Y0.6384  
G01 X-0.7485 Y0.6114  
G01 X-0.7485 Y0.5712  
G01 X-0.7201 Y0.5428  
G01 X-0.6799 Y0.5428  
G01 X-0.6515 Y0.5712  
G00 Z0.0500  
G00 X-0.7799 Y0.5438  
G01 Z-0.0035 F10    
G01 X-0.8201 Y0.5438  F20    
G01 X-0.8485 Y0.5154  
G01 X-0.8485 Y0.4752  
G01 X-0.8201 Y0.4468  
G01 X-0.7799 Y0.4468  
G01 X-0.7515 Y0.4752  
G01 X-0.7515 Y0.5154  
G01 X-0.7799 Y0.5438  
G00 Z0.0500  
G00 X-0.6255 Y0.4005  
G01 Z-0.0035 F10    
G01 X-1.4644 Y0.4005  F20    
G01 X-1.5337 Y0.4698  
G01 X-1.5379 Y0.4726  
G01 X-1.5426 Y0.4745  
G01 X-1.5475 Y0.4755  
G01 X-1.6810 Y0.4755  
G01 X-1.6870 Y0.4815  
G01 X-1.6954 Y0.4815  
G01 X-1.7189 Y0.5049  
G01 X-1.7197 Y0.5092  
G01 X-1.7221 Y0.5149  
G01 X-1.7255 Y0.5201  
G01 X-1.7299 Y0.5245  
G01 X-1.7351 Y0.5279  
G01 X-1.7408 Y0.5303  
G01 X-1.7469 Y0.5315  
G01 X-1.7531 Y0.5315  
G01 X-1.7592 Y0.5303  
G01 X-1.7649 Y0.5279  
G01 X-1.7701 Y0.5245  
G01 X-1.7745 Y0.5201  
G01 X-1.7779 Y0.5149  
G01 X-1.7803 Y0.5092  
G01 X-1.7815 Y0.5031  
G01 X-1.7815 Y0.4969  
G01 X-1.7803 Y0.4908  
G01 X-1.7779 Y0.4851  
G01 X-1.7745 Y0.4799  
G01 X-1.7701 Y0.4755  
G01 X-1.7649 Y0.4721  
G01 X-1.7592 Y0.4697  
G01 X-1.7549 Y0.4689  
G01 X-1.7315 Y0.4454  
G01 X-1.7315 Y0.4370  
G01 X-1.7130 Y0.4185  
G01 X-1.6870 Y0.4185  
G01 X-1.6810 Y0.4245  
G01 X-1.5606 Y0.4245  
G01 X-1.4948 Y0.3587  
G01 X-1.4913 Y0.3552  
G01 X-1.4871 Y0.3524  
G01 X-1.4824 Y0.3505  
G01 X-1.4775 Y0.3495  
G01 X-0.5975 Y0.3495  
G01 X-0.5926 Y0.3505  
G01 X-0.5879 Y0.3524  
G01 X-0.5837 Y0.3552  
G01 X-0.5802 Y0.3587  
G01 X-0.5774 Y0.3629  
G01 X-0.5755 Y0.3676  
G01 X-0.5745 Y0.3725  
G01 X-0.5745 Y0.8690  
G01 X-0.4529 Y1.1122  
G01 X-0.4524 Y1.1129  
G01 X-0.4518 Y1.1144  
G01 X-0.4511 Y1.1158  
G01 X-0.4508 Y1.1167  
G01 X-0.4505 Y1.1176  
G01 X-0.4502 Y1.1191  
G01 X-0.4497 Y1.1207  
G01 X-0.4497 Y1.1216  
G01 X-0.4495 Y1.1225  
G01 X-0.4495 Y1.1241  
G01 X-0.4494 Y1.1257  
G01 X-0.4495 Y1.1266  
G01 X-0.4495 Y1.5275  
G01 X-0.4505 Y1.5324  
G01 X-0.4524 Y1.5371  
G01 X-0.4552 Y1.5413  
G01 X-0.5185 Y1.6046  
G01 X-0.5185 Y1.6130  
G01 X-0.5370 Y1.6315  
G01 X-0.5630 Y1.6315  
G01 X-0.5690 Y1.6255  
G01 X-0.6722 Y1.6255  
G01 X-0.6713 Y1.6264  
G01 X-0.6672 Y1.6325  
G01 X-0.6644 Y1.6392  
G01 X-0.6630 Y1.6464  
G01 X-0.6630 Y1.6536  
G01 X-0.6644 Y1.6608  
G01 X-0.6672 Y1.6675  
G01 X-0.6713 Y1.6736  
G01 X-0.6764 Y1.6787  
G01 X-0.6825 Y1.6828  
G01 X-0.6892 Y1.6856  
G01 X-0.6964 Y1.6870  
G01 X-0.7036 Y1.6870  
G01 X-0.7108 Y1.6856  
G01 X-0.7175 Y1.6828  
G01 X-0.7236 Y1.6787  
G01 X-0.7287 Y1.6736  
G01 X-0.7328 Y1.6675  
G01 X-0.7356 Y1.6608  
G01 X-0.7370 Y1.6536  
G01 X-0.7370 Y1.6464  
G01 X-0.7356 Y1.6392  
G01 X-0.7328 Y1.6325  
G01 X-0.7287 Y1.6264  
G01 X-0.7278 Y1.6255  
G01 X-0.8136 Y1.6255  
G01 X-0.8168 Y1.6299  
G01 X-0.8217 Y1.6348  
G01 X-0.8272 Y1.6388  
G01 X-0.8333 Y1.6419  
G01 X-0.8398 Y1.6440  
G01 X-0.8466 Y1.6451  
G01 X-0.8534 Y1.6451  
G01 X-0.8602 Y1.6440  
G01 X-0.8667 Y1.6419  
G01 X-0.8728 Y1.6388  
G01 X-0.8783 Y1.6348  
G01 X-0.8832 Y1.6299  
G01 X-0.8872 Y1.6244  
G01 X-0.8903 Y1.6183  
G01 X-0.8924 Y1.6118  
G01 X-0.8935 Y1.6050  
G01 X-0.8935 Y1.5982  
G01 X-0.8924 Y1.5914  
G01 X-0.8903 Y1.5849  
G01 X-0.8872 Y1.5788  
G01 X-0.8832 Y1.5732  
G01 X-0.8783 Y1.5684  
G01 X-0.8728 Y1.5644  
G01 X-0.8667 Y1.5613  
G01 X-0.8602 Y1.5591  
G01 X-0.8534 Y1.5581  
G01 X-0.8466 Y1.5581  
G01 X-0.8398 Y1.5591  
G01 X-0.8333 Y1.5613  
G01 X-0.8272 Y1.5644  
G01 X-0.8217 Y1.5684  
G01 X-0.8168 Y1.5732  
G01 X-0.8159 Y1.5745  
G01 X-0.5690 Y1.5745  
G01 X-0.5630 Y1.5685  
G01 X-0.5546 Y1.5685  
G01 X-0.5005 Y1.5144  
G01 X-0.5005 Y1.1310  
G01 X-0.6221 Y0.8878  
G01 X-0.6226 Y0.8871  
G01 X-0.6232 Y0.8856  
G01 X-0.6239 Y0.8842  
G01 X-0.6242 Y0.8833  
G01 X-0.6245 Y0.8824  
G01 X-0.6248 Y0.8809  
G01 X-0.6253 Y0.8793  
G01 X-0.6253 Y0.8784  
G01 X-0.6255 Y0.8775  
G01 X-0.6255 Y0.8759  
G01 X-0.6256 Y0.8743  
G01 X-0.6255 Y0.8734  
G01 X-0.6255 Y0.4005  
G00 Z0.0500  
G00 X-0.4130 Y0.7185  
G01 Z-0.0035 F10    
G01 X-0.3870 Y0.7185  F20    
G01 X-0.3685 Y0.7370  
G01 X-0.1441 Y0.8043  
G01 X-0.1417 Y0.8050  
G01 X-0.1414 Y0.8051  
G01 X-0.1411 Y0.8052  
G01 X-0.1390 Y0.8065  
G01 X-0.1368 Y0.8078  
G01 X-0.1366 Y0.8080  
G01 X-0.1363 Y0.8082  
G01 X-0.1346 Y0.8100  
G01 X-0.1328 Y0.8118  
G01 X-0.1326 Y0.8121  
G01 X-0.1324 Y0.8123  
G01 X-0.1312 Y0.8145  
G01 X-0.1300 Y0.8167  
G01 X-0.1299 Y0.8170  
G01 X-0.1297 Y0.8173  
G01 X-0.1291 Y0.8197  
G01 X-0.1285 Y0.8222  
G01 X-0.1285 Y0.8225  
G01 X-0.1284 Y0.8228  
G01 X-0.1285 Y0.8253  
G01 X-0.1285 Y1.1244  
G01 X-0.1284 Y1.1265  
G01 X-0.1285 Y1.1272  
G01 X-0.1285 Y1.1278  
G01 X-0.1291 Y1.1299  
G01 X-0.1295 Y1.1321  
G01 X-0.1298 Y1.1327  
G01 X-0.1300 Y1.1333  
G01 X-0.1311 Y1.1352  
G01 X-0.1893 Y1.2518  
G01 X-0.1887 Y1.2527  
G01 X-0.1856 Y1.2587  
G01 X-0.1835 Y1.2650  
G01 X-0.1825 Y1.2717  
G01 X-0.1825 Y1.2783  
G01 X-0.1835 Y1.2850  
G01 X-0.1856 Y1.2913  
G01 X-0.1887 Y1.2973  
G01 X-0.1926 Y1.3027  
G01 X-0.1973 Y1.3074  
G01 X-0.2027 Y1.3113  
G01 X-0.2087 Y1.3144  
G01 X-0.2150 Y1.3165  
G01 X-0.2217 Y1.3175  
G01 X-0.2283 Y1.3175  
G01 X-0.2350 Y1.3165  
G01 X-0.2413 Y1.3144  
G01 X-0.2473 Y1.3113  
G01 X-0.2527 Y1.3074  
G01 X-0.2574 Y1.3027  
G01 X-0.2613 Y1.2973  
G01 X-0.2644 Y1.2913  
G01 X-0.2665 Y1.2850  
G01 X-0.2675 Y1.2783  
G01 X-0.2675 Y1.2717  
G01 X-0.2665 Y1.2650  
G01 X-0.2644 Y1.2587  
G01 X-0.2613 Y1.2527  
G01 X-0.2607 Y1.2518  
G01 X-0.2883 Y1.1965  
G01 X-0.3000 Y1.1965  
G01 X-0.3029 Y1.1995  
G01 X-0.3081 Y1.2029  
G01 X-0.3138 Y1.2053  
G01 X-0.3199 Y1.2065  
G01 X-0.3781 Y1.2065  
G01 X-0.3842 Y1.2053  
G01 X-0.3899 Y1.2029  
G01 X-0.3951 Y1.1995  
G01 X-0.3995 Y1.1951  
G01 X-0.4029 Y1.1899  
G01 X-0.4053 Y1.1842  
G01 X-0.4065 Y1.1781  
G01 X-0.4065 Y1.1719  
G01 X-0.4053 Y1.1658  
G01 X-0.4029 Y1.1601  
G01 X-0.3995 Y1.1549  
G01 X-0.3951 Y1.1505  
G01 X-0.3899 Y1.1471  
G01 X-0.3842 Y1.1447  
G01 X-0.3781 Y1.1435  
G01 X-0.3199 Y1.1435  
G01 X-0.3138 Y1.1447  
G01 X-0.3081 Y1.1471  
G01 X-0.3029 Y1.1505  
G01 X-0.3000 Y1.1535  
G01 X-0.2772 Y1.1535  
G01 X-0.2765 Y1.1534  
G01 X-0.2744 Y1.1535  
G01 X-0.2722 Y1.1535  
G01 X-0.2715 Y1.1537  
G01 X-0.2709 Y1.1537  
G01 X-0.2688 Y1.1544  
G01 X-0.2667 Y1.1550  
G01 X-0.2661 Y1.1553  
G01 X-0.2655 Y1.1555  
G01 X-0.2637 Y1.1567  
G01 X-0.2618 Y1.1578  
G01 X-0.2613 Y1.1583  
G01 X-0.2608 Y1.1586  
G01 X-0.2593 Y1.1603  
G01 X-0.2578 Y1.1618  
G01 X-0.2575 Y1.1624  
G01 X-0.2570 Y1.1629  
G01 X-0.2561 Y1.1648  
G01 X-0.2550 Y1.1667  
G01 X-0.2548 Y1.1673  
G01 X-0.2250 Y1.2269  
G01 X-0.1715 Y1.1199  
G01 X-0.1715 Y0.8410  
G01 X-0.3830 Y0.7775  
G01 X-0.3870 Y0.7815  
G01 X-0.4130 Y0.7815  
G01 X-0.4315 Y0.7630  
G01 X-0.4315 Y0.7370  
G01 X-0.4130 Y0.7185  
G00 Z0.0500  
G00 X-0.3951 Y0.9505  
G01 Z-0.0035 F10    
G01 X-0.3899 Y0.9471  F20    
G01 X-0.3842 Y0.9447  
G01 X-0.3781 Y0.9435  
G01 X-0.3199 Y0.9435  
G01 X-0.3138 Y0.9447  
G01 X-0.3081 Y0.9471  
G01 X-0.3029 Y0.9505  
G01 X-0.2985 Y0.9549  
G01 X-0.2951 Y0.9601  
G01 X-0.2927 Y0.9658  
G01 X-0.2915 Y0.9719  
G01 X-0.2915 Y0.9781  
G01 X-0.2927 Y0.9842  
G01 X-0.2951 Y0.9899  
G01 X-0.2985 Y0.9951  
G01 X-0.3029 Y0.9995  
G01 X-0.3081 Y1.0029  
G01 X-0.3138 Y1.0053  
G01 X-0.3199 Y1.0065  
G01 X-0.3781 Y1.0065  
G01 X-0.3842 Y1.0053  
G01 X-0.3899 Y1.0029  
G01 X-0.3951 Y0.9995  
G01 X-0.3995 Y0.9951  
G01 X-0.4029 Y0.9899  
G01 X-0.4053 Y0.9842  
G01 X-0.4065 Y0.9781  
G01 X-0.4065 Y0.9719  
G01 X-0.4053 Y0.9658  
G01 X-0.4029 Y0.9601  
G01 X-0.3995 Y0.9549  
G01 X-0.3951 Y0.9505  
G00 Z0.0500  
G00 X-0.3951 Y1.2505  
G01 Z-0.0035 F10    
G01 X-0.3899 Y1.2471  F20    
G01 X-0.3842 Y1.2447  
G01 X-0.3781 Y1.2435  
G01 X-0.3199 Y1.2435  
G01 X-0.3138 Y1.2447  
G01 X-0.3081 Y1.2471  
G01 X-0.3029 Y1.2505  
G01 X-0.2985 Y1.2549  
G01 X-0.2951 Y1.2601  
G01 X-0.2927 Y1.2658  
G01 X-0.2915 Y1.2719  
G01 X-0.2915 Y1.2781  
G01 X-0.2927 Y1.2842  
G01 X-0.2951 Y1.2899  
G01 X-0.2985 Y1.2951  
G01 X-0.3029 Y1.2995  
G01 X-0.3081 Y1.3029  
G01 X-0.3138 Y1.3053  
G01 X-0.3199 Y1.3065  
G01 X-0.3781 Y1.3065  
G01 X-0.3842 Y1.3053  
G01 X-0.3899 Y1.3029  
G01 X-0.3951 Y1.2995  
G01 X-0.3995 Y1.2951  
G01 X-0.4029 Y1.2899  
G01 X-0.4053 Y1.2842  
G01 X-0.4065 Y1.2781  
G01 X-0.4065 Y1.2719  
G01 X-0.4053 Y1.2658  
G01 X-0.4029 Y1.2601  
G01 X-0.3995 Y1.2549  
G01 X-0.3951 Y1.2505  
G00 Z0.0500  
G00 X-0.6505 Y1.2549  
G01 Z-0.0035 F10    
G01 X-0.6471 Y1.2601  F20    
G01 X-0.6447 Y1.2658  
G01 X-0.6435 Y1.2719  
G01 X-0.6435 Y1.2781  
G01 X-0.6447 Y1.2842  
G01 X-0.6471 Y1.2899  
G01 X-0.6505 Y1.2951  
G01 X-0.6549 Y1.2995  
G01 X-0.6601 Y1.3029  
G01 X-0.6658 Y1.3053  
G01 X-0.6719 Y1.3065  
G01 X-0.7229 Y1.3065  
G01 X-0.7894 Y1.3198  
G01 X-0.8185 Y1.3489  
G01 X-0.8185 Y1.3630  
G01 X-0.8370 Y1.3815  
G01 X-0.8511 Y1.3815  
G01 X-0.9185 Y1.4489  
G01 X-0.9185 Y1.4630  
G01 X-0.9370 Y1.4815  
G01 X-0.9630 Y1.4815  
G01 X-0.9649 Y1.4796  
G01 X-1.1591 Y1.5248  
G01 X-1.3045 Y1.5601  
G01 X-1.3045 Y1.7601  
G01 X-1.2646 Y1.7701  
G01 X-1.2630 Y1.7685  
G01 X-1.2370 Y1.7685  
G01 X-1.2185 Y1.7870  
G01 X-1.2185 Y1.7954  
G01 X-1.1944 Y1.8196  
G01 X-1.1365 Y1.7939  
G01 X-1.1356 Y1.7892  
G01 X-1.1328 Y1.7825  
G01 X-1.1287 Y1.7764  
G01 X-1.1236 Y1.7713  
G01 X-1.1175 Y1.7672  
G01 X-1.1108 Y1.7644  
G01 X-1.1036 Y1.7630  
G01 X-1.0964 Y1.7630  
G01 X-1.0892 Y1.7644  
G01 X-1.0825 Y1.7672  
G01 X-1.0764 Y1.7713  
G01 X-1.0713 Y1.7764  
G01 X-1.0672 Y1.7825  
G01 X-1.0644 Y1.7892  
G01 X-1.0630 Y1.7964  
G01 X-1.0630 Y1.8036  
G01 X-1.0644 Y1.8108  
G01 X-1.0672 Y1.8175  
G01 X-1.0713 Y1.8236  
G01 X-1.0764 Y1.8287  
G01 X-1.0825 Y1.8328  
G01 X-1.0892 Y1.8356  
G01 X-1.0964 Y1.8370  
G01 X-1.1036 Y1.8370  
G01 X-1.1066 Y1.8364  
G01 X-1.1745 Y1.8666  
G01 X-1.1745 Y2.0663  
G01 X-1.1717 Y2.0684  
G01 X-1.1668 Y2.0732  
G01 X-1.1628 Y2.0788  
G01 X-1.1597 Y2.0849  
G01 X-1.1576 Y2.0914  
G01 X-1.1565 Y2.0982  
G01 X-1.1565 Y2.1050  
G01 X-1.1576 Y2.1118  
G01 X-1.1597 Y2.1183  
G01 X-1.1628 Y2.1244  
G01 X-1.1668 Y2.1299  
G01 X-1.1717 Y2.1348  
G01 X-1.1772 Y2.1388  
G01 X-1.1833 Y2.1419  
G01 X-1.1898 Y2.1440  
G01 X-1.1966 Y2.1451  
G01 X-1.2034 Y2.1451  
G01 X-1.2102 Y2.1440  
G01 X-1.2125 Y2.1433  
G01 X-1.6328 Y2.4889  
G01 X-1.6337 Y2.4898  
G01 X-1.6348 Y2.4905  
G01 X-1.6357 Y2.4913  
G01 X-1.6369 Y2.4919  
G01 X-1.6379 Y2.4926  
G01 X-1.6391 Y2.4931  
G01 X-1.6402 Y2.4937  
G01 X-1.6414 Y2.4940  
G01 X-1.6426 Y2.4945  
G01 X-1.6438 Y2.4948  
G01 X-1.6450 Y2.4951  
G01 X-1.6462 Y2.4953  
G01 X-1.6475 Y2.4955  
G01 X-1.6487 Y2.4955  
G01 X-1.6500 Y2.4956  
G01 X-1.6512 Y2.4955  
G01 X-2.3739 Y2.4955  
G01 X-2.3753 Y2.4956  
G01 X-2.3764 Y2.4955  
G01 X-2.3775 Y2.4955  
G01 X-2.3789 Y2.4952  
G01 X-2.3803 Y2.4951  
G01 X-2.3814 Y2.4947  
G01 X-2.3824 Y2.4945  
G01 X-2.3838 Y2.4940  
G01 X-2.3851 Y2.4935  
G01 X-2.3861 Y2.4930  
G01 X-2.3871 Y2.4926  
G01 X-2.3883 Y2.4918  
G01 X-2.3895 Y2.4911  
G01 X-2.3904 Y2.4904  
G01 X-2.3913 Y2.4898  
G01 X-2.3923 Y2.4888  
G01 X-2.3934 Y2.4879  
G01 X-2.3940 Y2.4870  
G01 X-2.3948 Y2.4863  
G01 X-2.3956 Y2.4851  
G01 X-2.3965 Y2.4839  
G01 X-2.3970 Y2.4830  
G01 X-2.3976 Y2.4821  
G01 X-2.3981 Y2.4808  
G01 X-2.4464 Y2.3874  
G01 X-2.5288 Y2.4698  
G01 X-2.5330 Y2.4726  
G01 X-2.5376 Y2.4745  
G01 X-2.5426 Y2.4755  
G01 X-2.6310 Y2.4755  
G01 X-2.6370 Y2.4815  
G01 X-2.6630 Y2.4815  
G01 X-2.6815 Y2.4630  
G01 X-2.6815 Y2.4370  
G01 X-2.6630 Y2.4185  
G01 X-2.6370 Y2.4185  
G01 X-2.6310 Y2.4245  
G01 X-2.5556 Y2.4245  
G01 X-2.4753 Y2.3441  
G01 X-2.4777 Y2.3405  
G01 X-2.4800 Y2.3349  
G01 X-2.4812 Y2.3288  
G01 X-2.4812 Y2.2712  
G01 X-2.4801 Y2.2654  
G01 X-2.4968 Y2.2152  
G01 X-2.6048 Y2.1288  
G01 X-2.9245 Y2.2430  
G01 X-2.9245 Y2.2562  
G01 X-2.9223 Y2.2595  
G01 X-2.9200 Y2.2651  
G01 X-2.9188 Y2.2712  
G01 X-2.9188 Y2.3288  
G01 X-2.9200 Y2.3349  
G01 X-2.9223 Y2.3405  
G01 X-2.9257 Y2.3457  
G01 X-2.9301 Y2.3500  
G01 X-2.9352 Y2.3534  
G01 X-2.9409 Y2.3558  
G01 X-2.9469 Y2.3570  
G01 X-2.9531 Y2.3570  
G01 X-2.9591 Y2.3558  
G01 X-2.9648 Y2.3534  
G01 X-2.9699 Y2.3500  
G01 X-2.9743 Y2.3457  
G01 X-2.9777 Y2.3405  
G01 X-2.9800 Y2.3349  
G01 X-2.9812 Y2.3288  
G01 X-2.9812 Y2.2712  
G01 X-2.9800 Y2.2651  
G01 X-2.9777 Y2.2595  
G01 X-2.9755 Y2.2562  
G01 X-2.9755 Y2.2269  
G01 X-2.9756 Y2.2262  
G01 X-2.9755 Y2.2244  
G01 X-2.9755 Y2.2225  
G01 X-2.9754 Y2.2219  
G01 X-2.9753 Y2.2212  
G01 X-2.9749 Y2.2194  
G01 X-2.9745 Y2.2176  
G01 X-2.9743 Y2.2170  
G01 X-2.9741 Y2.2164  
G01 X-2.9733 Y2.2147  
G01 X-2.9726 Y2.2129  
G01 X-2.9722 Y2.2124  
G01 X-2.9720 Y2.2118  
G01 X-2.9709 Y2.2103  
G01 X-2.9698 Y2.2087  
G01 X-2.9694 Y2.2083  
G01 X-2.9690 Y2.2078  
G01 X-2.9676 Y2.2065  
G01 X-2.9663 Y2.2052  
G01 X-2.9657 Y2.2048  
G01 X-2.9653 Y2.2044  
G01 X-2.9636 Y2.2034  
G01 X-2.9621 Y2.2024  
G01 X-2.9615 Y2.2022  
G01 X-2.9609 Y2.2018  
G01 X-2.9592 Y2.2012  
G01 X-2.9574 Y2.2005  
G01 X-2.9568 Y2.2004  
G01 X-2.6232 Y2.0812  
G01 X-2.5778 Y1.7404  
G01 X-2.5800 Y1.7349  
G01 X-2.5812 Y1.7288  
G01 X-2.5812 Y1.6712  
G01 X-2.5806 Y1.6679  
G01 X-2.6115 Y1.6215  
G01 X-2.6885 Y1.6215  
G01 X-2.7194 Y1.6679  
G01 X-2.7188 Y1.6712  
G01 X-2.7188 Y1.7288  
G01 X-2.7200 Y1.7349  
G01 X-2.7223 Y1.7405  
G01 X-2.7257 Y1.7457  
G01 X-2.7301 Y1.7500  
G01 X-2.7352 Y1.7534  
G01 X-2.7409 Y1.7558  
G01 X-2.7469 Y1.7570  
G01 X-2.7531 Y1.7570  
G01 X-2.7591 Y1.7558  
G01 X-2.7648 Y1.7534  
G01 X-2.7699 Y1.7500  
G01 X-2.7743 Y1.7457  
G01 X-2.7777 Y1.7405  
G01 X-2.7800 Y1.7349  
G01 X-2.7812 Y1.7288  
G01 X-2.7812 Y1.6712  
G01 X-2.7800 Y1.6651  
G01 X-2.7777 Y1.6595  
G01 X-2.7743 Y1.6543  
G01 X-2.7699 Y1.6500  
G01 X-2.7648 Y1.6466  
G01 X-2.7591 Y1.6442  
G01 X-2.7547 Y1.6433  
G01 X-2.7183 Y1.5887  
G01 X-2.7172 Y1.5868  
G01 X-2.7167 Y1.5863  
G01 X-2.7163 Y1.5857  
G01 X-2.7147 Y1.5843  
G01 X-2.7132 Y1.5828  
G01 X-2.7126 Y1.5824  
G01 X-2.7121 Y1.5820  
G01 X-2.7102 Y1.5810  
G01 X-2.7083 Y1.5800  
G01 X-2.7076 Y1.5798  
G01 X-2.7070 Y1.5795  
G01 X-2.7049 Y1.5791  
G01 X-2.7028 Y1.5785  
G01 X-2.7021 Y1.5785  
G01 X-2.7014 Y1.5784  
G01 X-2.6993 Y1.5785  
G01 X-2.6007 Y1.5785  
G01 X-2.5986 Y1.5784  
G01 X-2.5979 Y1.5785  
G01 X-2.5972 Y1.5785  
G01 X-2.5951 Y1.5791  
G01 X-2.5930 Y1.5795  
G01 X-2.5924 Y1.5798  
G01 X-2.5917 Y1.5800  
G01 X-2.5898 Y1.5810  
G01 X-2.5879 Y1.5820  
G01 X-2.5874 Y1.5824  
G01 X-2.5868 Y1.5828  
G01 X-2.5853 Y1.5843  
G01 X-2.5837 Y1.5857  
G01 X-2.5833 Y1.5863  
G01 X-2.5828 Y1.5868  
G01 X-2.5817 Y1.5887  
G01 X-2.5453 Y1.6433  
G01 X-2.5409 Y1.6442  
G01 X-2.5352 Y1.6466  
G01 X-2.5301 Y1.6500  
G01 X-2.5257 Y1.6543  
G01 X-2.5223 Y1.6595  
G01 X-2.5200 Y1.6651  
G01 X-2.5188 Y1.6712  
G01 X-2.5188 Y1.7288  
G01 X-2.5200 Y1.7349  
G01 X-2.5223 Y1.7405  
G01 X-2.5257 Y1.7457  
G01 X-2.5272 Y1.7472  
G01 X-2.5728 Y2.0891  
G01 X-2.4592 Y2.1800  
G01 X-2.4574 Y2.1814  
G01 X-2.4573 Y2.1815  
G01 X-2.4571 Y2.1817  
G01 X-2.4556 Y2.1834  
G01 X-2.4541 Y2.1852  
G01 X-2.4540 Y2.1854  
G01 X-2.4539 Y2.1855  
G01 X-2.4528 Y2.1875  
G01 X-2.4516 Y2.1896  
G01 X-2.4515 Y2.1897  
G01 X-2.4515 Y2.1899  
G01 X-2.4507 Y2.1921  
G01 X-2.4319 Y2.2488  
G01 X-2.4301 Y2.2500  
G01 X-2.4257 Y2.2543  
G01 X-2.4223 Y2.2595  
G01 X-2.4200 Y2.2651  
G01 X-2.4188 Y2.2712  
G01 X-2.4188 Y2.3288  
G01 X-2.4189 Y2.3296  
G01 X-2.4183 Y2.3308  
G01 X-2.4178 Y2.3317  
G01 X-2.4172 Y2.3326  
G01 X-2.4167 Y2.3340  
G01 X-2.3595 Y2.4445  
G01 X-1.6591 Y2.4445  
G01 X-1.2435 Y2.1028  
G01 X-1.2435 Y2.0982  
G01 X-1.2424 Y2.0914  
G01 X-1.2403 Y2.0849  
G01 X-1.2372 Y2.0788  
G01 X-1.2332 Y2.0732  
G01 X-1.2283 Y2.0684  
G01 X-1.2255 Y2.0663  
G01 X-1.2255 Y1.8606  
G01 X-1.2546 Y1.8315  
G01 X-1.2630 Y1.8315  
G01 X-1.2744 Y1.8202  
G01 X-1.3356 Y1.8049  
G01 X-1.3374 Y1.8045  
G01 X-1.3380 Y1.8043  
G01 X-1.3386 Y1.8041  
G01 X-1.3403 Y1.8033  
G01 X-1.3421 Y1.8026  
G01 X-1.3426 Y1.8023  
G01 X-1.3432 Y1.8020  
G01 X-1.3447 Y1.8009  
G01 X-1.3463 Y1.7998  
G01 X-1.3467 Y1.7994  
G01 X-1.3472 Y1.7990  
G01 X-1.3485 Y1.7976  
G01 X-1.3498 Y1.7963  
G01 X-1.3502 Y1.7957  
G01 X-1.3506 Y1.7953  
G01 X-1.3515 Y1.7937  
G01 X-1.3526 Y1.7921  
G01 X-1.3528 Y1.7915  
G01 X-1.3532 Y1.7910  
G01 X-1.3538 Y1.7892  
G01 X-1.3545 Y1.7874  
G01 X-1.3546 Y1.7868  
G01 X-1.3549 Y1.7862  
G01 X-1.3551 Y1.7844  
G01 X-1.3555 Y1.7825  
G01 X-1.3555 Y1.7819  
G01 X-1.3556 Y1.7813  
G01 X-1.3555 Y1.7794  
G01 X-1.3555 Y1.5405  
G01 X-1.3556 Y1.5385  
G01 X-1.3555 Y1.5380  
G01 X-1.3555 Y1.5375  
G01 X-1.3551 Y1.5355  
G01 X-1.3548 Y1.5336  
G01 X-1.3546 Y1.5331  
G01 X-1.3545 Y1.5326  
G01 X-1.3538 Y1.5307  
G01 X-1.3531 Y1.5289  
G01 X-1.3528 Y1.5284  
G01 X-1.3526 Y1.5279  
G01 X-1.3515 Y1.5263  
G01 X-1.3505 Y1.5246  
G01 X-1.3501 Y1.5242  
G01 X-1.3498 Y1.5237  
G01 X-1.3484 Y1.5223  
G01 X-1.3471 Y1.5209  
G01 X-1.3466 Y1.5206  
G01 X-1.3463 Y1.5202  
G01 X-1.3446 Y1.5191  
G01 X-1.3430 Y1.5179  
G01 X-1.3425 Y1.5177  
G01 X-1.3421 Y1.5174  
G01 X-1.3402 Y1.5166  
G01 X-1.3384 Y1.5158  
G01 X-1.3379 Y1.5157  
G01 X-1.3374 Y1.5155  
G01 X-1.3355 Y1.5151  
G01 X-1.1733 Y1.4758  
G01 X-1.1732 Y1.4757  
G01 X-1.1709 Y1.4752  
G01 X-1.1686 Y1.4746  
G01 X-1.1684 Y1.4746  
G01 X-0.9833 Y1.4316  
G01 X-1.0397 Y1.3188  
G01 X-1.2316 Y1.2761  
G01 X-1.2370 Y1.2815  
G01 X-1.2630 Y1.2815  
G01 X-1.2730 Y1.2715  
G01 X-1.9448 Y1.2715  
G01 X-1.9475 Y1.2715  
G01 X-1.9476 Y1.2715  
G01 X-1.9478 Y1.2715  
G01 X-1.9504 Y1.2708  
G01 X-1.9530 Y1.2702  
G01 X-1.9531 Y1.2701  
G01 X-1.9533 Y1.2700  
G01 X-1.9556 Y1.2687  
G01 X-1.9579 Y1.2674  
G01 X-1.9580 Y1.2673  
G01 X-1.9582 Y1.2672  
G01 X-1.9601 Y1.2653  
G01 X-1.9620 Y1.2635  
G01 X-1.9621 Y1.2633  
G01 X-1.9622 Y1.2632  
G01 X-1.9635 Y1.2609  
G01 X-1.9924 Y1.2128  
G01 X-1.9930 Y1.2121  
G01 X-1.9939 Y1.2104  
G01 X-1.9949 Y1.2086  
G01 X-1.9951 Y1.2078  
G01 X-1.9954 Y1.2072  
G01 X-1.9969 Y1.2075  
G01 X-2.0031 Y1.2075  
G01 X-2.0092 Y1.2063  
G01 X-2.0149 Y1.2039  
G01 X-2.0201 Y1.2005  
G01 X-2.0245 Y1.1961  
G01 X-2.0279 Y1.1909  
G01 X-2.0303 Y1.1852  
G01 X-2.0315 Y1.1791  
G01 X-2.0315 Y1.1209  
G01 X-2.0303 Y1.1148  
G01 X-2.0279 Y1.1091  
G01 X-2.0245 Y1.1039  
G01 X-2.0201 Y1.0995  
G01 X-2.0149 Y1.0961  
G01 X-2.0092 Y1.0937  
G01 X-2.0031 Y1.0925  
G01 X-1.9969 Y1.0925  
G01 X-1.9908 Y1.0937  
G01 X-1.9851 Y1.0961  
G01 X-1.9799 Y1.0995  
G01 X-1.9755 Y1.1039  
G01 X-1.9721 Y1.1091  
G01 X-1.9697 Y1.1148  
G01 X-1.9685 Y1.1209  
G01 X-1.9685 Y1.1649  
G01 X-1.9561 Y1.1896  
G01 X-1.9328 Y1.2285  
G01 X-1.2730 Y1.2285  
G01 X-1.2630 Y1.2185  
G01 X-1.2370 Y1.2185  
G01 X-1.2210 Y1.2344  
G01 X-1.0220 Y1.2786  
G01 X-1.0209 Y1.2787  
G01 X-1.0193 Y1.2793  
G01 X-1.0176 Y1.2796  
G01 X-1.0166 Y1.2801  
G01 X-1.0155 Y1.2805  
G01 X-1.0141 Y1.2814  
G01 X-1.0126 Y1.2822  
G01 X-1.0117 Y1.2830  
G01 X-1.0108 Y1.2836  
G01 X-1.0096 Y1.2849  
G01 X-1.0084 Y1.2861  
G01 X-1.0078 Y1.2870  
G01 X-1.0070 Y1.2879  
G01 X-1.0063 Y1.2894  
G01 X-1.0053 Y1.2908  
G01 X-1.0050 Y1.2919  
G01 X-0.9441 Y1.4137  
G01 X-0.8815 Y1.3511  
G01 X-0.8815 Y1.3370  
G01 X-0.8630 Y1.3185  
G01 X-0.8489 Y1.3185  
G01 X-0.8167 Y1.2863  
G01 X-0.8163 Y1.2857  
G01 X-0.8147 Y1.2843  
G01 X-0.8132 Y1.2828  
G01 X-0.8126 Y1.2824  
G01 X-0.8121 Y1.2820  
G01 X-0.8102 Y1.2810  
G01 X-0.8083 Y1.2800  
G01 X-0.8076 Y1.2798  
G01 X-0.8070 Y1.2795  
G01 X-0.8049 Y1.2791  
G01 X-0.8028 Y1.2785  
G01 X-0.8021 Y1.2785  
G01 X-0.7581 Y1.2697  
G01 X-0.7573 Y1.2658  
G01 X-0.7549 Y1.2601  
G01 X-0.7515 Y1.2549  
G01 X-0.7471 Y1.2505  
G01 X-0.7419 Y1.2471  
G01 X-0.7362 Y1.2447  
G01 X-0.7301 Y1.2435  
G01 X-0.6719 Y1.2435  
G01 X-0.6658 Y1.2447  
G01 X-0.6601 Y1.2471  
G01 X-0.6549 Y1.2505  
G01 X-0.6505 Y1.2549  
G00 Z0.0500  
G00 X-0.6549 Y1.1995  
G01 Z-0.0035 F10    
G01 X-0.6601 Y1.2029  F20    
G01 X-0.6658 Y1.2053  
G01 X-0.6719 Y1.2065  
G01 X-0.7301 Y1.2065  
G01 X-0.7362 Y1.2053  
G01 X-0.7419 Y1.2029  
G01 X-0.7471 Y1.1995  
G01 X-0.7515 Y1.1951  
G01 X-0.7549 Y1.1899  
G01 X-0.7573 Y1.1842  
G01 X-0.7585 Y1.1781  
G01 X-0.7585 Y1.1719  
G01 X-0.7573 Y1.1658  
G01 X-0.7549 Y1.1601  
G01 X-0.7515 Y1.1549  
G01 X-0.7471 Y1.1505  
G01 X-0.7419 Y1.1471  
G01 X-0.7362 Y1.1447  
G01 X-0.7301 Y1.1435  
G01 X-0.6719 Y1.1435  
G01 X-0.6658 Y1.1447  
G01 X-0.6601 Y1.1471  
G01 X-0.6549 Y1.1505  
G01 X-0.6505 Y1.1549  
G01 X-0.6471 Y1.1601  
G01 X-0.6447 Y1.1658  
G01 X-0.6435 Y1.1719  
G01 X-0.6435 Y1.1781  
G01 X-0.6447 Y1.1842  
G01 X-0.6471 Y1.1899  
G01 X-0.6505 Y1.1951  
G01 X-0.6549 Y1.1995  
G00 Z0.0500  
G00 X-0.6549 Y1.0995  
G01 Z-0.0035 F10    
G01 X-0.6601 Y1.1029  F20    
G01 X-0.6658 Y1.1053  
G01 X-0.6719 Y1.1065  
G01 X-0.7301 Y1.1065  
G01 X-0.7362 Y1.1053  
G01 X-0.7419 Y1.1029  
G01 X-0.7471 Y1.0995  
G01 X-0.7515 Y1.0951  
G01 X-0.7549 Y1.0899  
G01 X-0.7569 Y1.0850  
G01 X-0.8300 Y1.0746  
G01 X-0.8370 Y1.0815  
G01 X-0.8630 Y1.0815  
G01 X-0.8730 Y1.0715  
G01 X-1.4161 Y1.0715  
G01 X-1.4685 Y1.1239  
G01 X-1.4685 Y1.1791  
G01 X-1.4697 Y1.1852  
G01 X-1.4721 Y1.1909  
G01 X-1.4755 Y1.1961  
G01 X-1.4799 Y1.2005  
G01 X-1.4851 Y1.2039  
G01 X-1.4908 Y1.2063  
G01 X-1.4969 Y1.2075  
G01 X-1.5031 Y1.2075  
G01 X-1.5092 Y1.2063  
G01 X-1.5149 Y1.2039  
G01 X-1.5201 Y1.2005  
G01 X-1.5245 Y1.1961  
G01 X-1.5279 Y1.1909  
G01 X-1.5303 Y1.1852  
G01 X-1.5315 Y1.1791  
G01 X-1.5315 Y1.1209  
G01 X-1.5303 Y1.1148  
G01 X-1.5279 Y1.1091  
G01 X-1.5245 Y1.1039  
G01 X-1.5201 Y1.0995  
G01 X-1.5149 Y1.0961  
G01 X-1.5092 Y1.0937  
G01 X-1.5031 Y1.0925  
G01 X-1.4979 Y1.0925  
G01 X-1.4422 Y1.0368  
G01 X-1.4382 Y1.0328  
G01 X-1.4333 Y1.0300  
G01 X-1.4278 Y1.0285  
G01 X-0.8730 Y1.0285  
G01 X-0.8630 Y1.0185  
G01 X-0.8370 Y1.0185  
G01 X-0.8234 Y1.0321  
G01 X-0.7357 Y1.0446  
G01 X-0.7301 Y1.0435  
G01 X-0.6719 Y1.0435  
G01 X-0.6658 Y1.0447  
G01 X-0.6601 Y1.0471  
G01 X-0.6549 Y1.0505  
G01 X-0.6505 Y1.0549  
G01 X-0.6471 Y1.0601  
G01 X-0.6447 Y1.0658  
G01 X-0.6435 Y1.0719  
G01 X-0.6435 Y1.0781  
G01 X-0.6447 Y1.0842  
G01 X-0.6471 Y1.0899  
G01 X-0.6505 Y1.0951  
G01 X-0.6549 Y1.0995  
G00 Z0.0500  
G00 X-0.9185 Y1.1370  
G01 Z-0.0035 F10    
G01 X-0.9185 Y1.1630  F20    
G01 X-0.9370 Y1.1815  
G01 X-0.9630 Y1.1815  
G01 X-0.9730 Y1.1715  
G01 X-1.0036 Y1.1715  
G01 X-1.0301 Y1.1980  
G01 X-1.0699 Y1.1980  
G01 X-1.0964 Y1.1715  
G01 X-1.3685 Y1.1715  
G01 X-1.3685 Y1.1791  
G01 X-1.3697 Y1.1852  
G01 X-1.3721 Y1.1909  
G01 X-1.3755 Y1.1961  
G01 X-1.3799 Y1.2005  
G01 X-1.3851 Y1.2039  
G01 X-1.3908 Y1.2063  
G01 X-1.3969 Y1.2075  
G01 X-1.4031 Y1.2075  
G01 X-1.4092 Y1.2063  
G01 X-1.4149 Y1.2039  
G01 X-1.4201 Y1.2005  
G01 X-1.4245 Y1.1961  
G01 X-1.4279 Y1.1909  
G01 X-1.4303 Y1.1852  
G01 X-1.4315 Y1.1791  
G01 X-1.4315 Y1.1209  
G01 X-1.4303 Y1.1148  
G01 X-1.4279 Y1.1091  
G01 X-1.4245 Y1.1039  
G01 X-1.4201 Y1.0995  
G01 X-1.4149 Y1.0961  
G01 X-1.4092 Y1.0937  
G01 X-1.4031 Y1.0925  
G01 X-1.3969 Y1.0925  
G01 X-1.3908 Y1.0937  
G01 X-1.3851 Y1.0961  
G01 X-1.3799 Y1.0995  
G01 X-1.3755 Y1.1039  
G01 X-1.3721 Y1.1091  
G01 X-1.3697 Y1.1148  
G01 X-1.3685 Y1.1209  
G01 X-1.3685 Y1.1285  
G01 X-1.0964 Y1.1285  
G01 X-1.0699 Y1.1020  
G01 X-1.0301 Y1.1020  
G01 X-1.0036 Y1.1285  
G01 X-0.9730 Y1.1285  
G01 X-0.9630 Y1.1185  
G01 X-0.9370 Y1.1185  
G01 X-0.9185 Y1.1370  
G00 Z0.0500  
G00 X-1.0716 Y1.3731  
G01 Z-0.0035 F10    
G01 X-1.0708 Y1.3752  F20    
G01 X-1.0708 Y1.4248  
G01 X-1.0716 Y1.4269  
G01 X-1.0731 Y1.4284  
G01 X-1.0752 Y1.4292  
G01 X-1.1248 Y1.4292  
G01 X-1.1269 Y1.4284  
G01 X-1.1284 Y1.4269  
G01 X-1.1292 Y1.4248  
G01 X-1.1292 Y1.4171  
G01 X-1.2367 Y1.3813  
G01 X-1.2370 Y1.3815  
G01 X-1.2630 Y1.3815  
G01 X-1.2690 Y1.3755  
G01 X-1.9745 Y1.3755  
G01 X-1.9745 Y1.4055  
G01 X-1.9721 Y1.4091  
G01 X-1.9697 Y1.4148  
G01 X-1.9685 Y1.4209  
G01 X-1.9685 Y1.4791  
G01 X-1.9697 Y1.4852  
G01 X-1.9721 Y1.4909  
G01 X-1.9755 Y1.4961  
G01 X-1.9799 Y1.5005  
G01 X-1.9851 Y1.5039  
G01 X-1.9908 Y1.5063  
G01 X-1.9969 Y1.5075  
G01 X-2.0031 Y1.5075  
G01 X-2.0092 Y1.5063  
G01 X-2.0149 Y1.5039  
G01 X-2.0201 Y1.5005  
G01 X-2.0245 Y1.4961  
G01 X-2.0279 Y1.4909  
G01 X-2.0303 Y1.4852  
G01 X-2.0315 Y1.4791  
G01 X-2.0315 Y1.4209  
G01 X-2.0303 Y1.4148  
G01 X-2.0279 Y1.4091  
G01 X-2.0255 Y1.4055  
G01 X-2.0255 Y1.3699  
G01 X-2.1031 Y1.3505  
G01 X-2.9025 Y1.3505  
G01 X-2.9074 Y1.3495  
G01 X-2.9121 Y1.3476  
G01 X-2.9163 Y1.3448  
G01 X-2.9698 Y1.2913  
G01 X-2.9726 Y1.2871  
G01 X-2.9745 Y1.2824  
G01 X-2.9755 Y1.2775  
G01 X-2.9755 Y1.0764  
G01 X-2.9756 Y1.0753  
G01 X-2.9755 Y1.0739  
G01 X-2.9755 Y1.0725  
G01 X-2.9753 Y1.0714  
G01 X-2.9752 Y1.0703  
G01 X-2.9748 Y1.0690  
G01 X-2.9745 Y1.0676  
G01 X-2.9741 Y1.0665  
G01 X-2.9738 Y1.0655  
G01 X-2.9731 Y1.0642  
G01 X-2.9726 Y1.0629  
G01 X-2.9720 Y1.0620  
G01 X-2.9715 Y1.0610  
G01 X-2.9706 Y1.0599  
G01 X-2.9698 Y1.0587  
G01 X-2.9690 Y1.0580  
G01 X-2.8815 Y0.9486  
G01 X-2.8815 Y0.9370  
G01 X-2.8630 Y0.9185  
G01 X-2.8370 Y0.9185  
G01 X-2.8185 Y0.9370  
G01 X-2.8185 Y0.9630  
G01 X-2.8370 Y0.9815  
G01 X-2.8425 Y0.9815  
G01 X-2.9245 Y1.0839  
G01 X-2.9245 Y1.2644  
G01 X-2.8894 Y1.2995  
G01 X-2.1255 Y1.2995  
G01 X-2.1255 Y1.1945  
G01 X-2.1279 Y1.1909  
G01 X-2.1303 Y1.1852  
G01 X-2.1315 Y1.1791  
G01 X-2.1315 Y1.1209  
G01 X-2.1303 Y1.1148  
G01 X-2.1279 Y1.1091  
G01 X-2.1245 Y1.1039  
G01 X-2.1201 Y1.0995  
G01 X-2.1190 Y1.0988  
G01 X-2.0805 Y0.9640  
G01 X-2.0815 Y0.9630  
G01 X-2.0815 Y0.9370  
G01 X-2.0630 Y0.9185  
G01 X-2.0370 Y0.9185  
G01 X-2.0185 Y0.9370  
G01 X-2.0185 Y0.9630  
G01 X-2.0307 Y0.9752  
G01 X-2.0702 Y1.1136  
G01 X-2.0697 Y1.1148  
G01 X-2.0685 Y1.1209  
G01 X-2.0685 Y1.1791  
G01 X-2.0697 Y1.1852  
G01 X-2.0721 Y1.1909  
G01 X-2.0745 Y1.1945  
G01 X-2.0745 Y1.3051  
G01 X-1.9969 Y1.3245  
G01 X-1.2690 Y1.3245  
G01 X-1.2630 Y1.3185  
G01 X-1.2370 Y1.3185  
G01 X-1.2235 Y1.3320  
G01 X-1.1071 Y1.3708  
G01 X-1.0752 Y1.3708  
G01 X-1.0731 Y1.3716  
G01 X-1.0716 Y1.3731  
G00 Z0.0500  
G00 X-1.3755 Y1.4039  
G01 Z-0.0035 F10    
G01 X-1.3721 Y1.4091  F20    
G01 X-1.3697 Y1.4148  
G01 X-1.3685 Y1.4209  
G01 X-1.3685 Y1.4791  
G01 X-1.3697 Y1.4852  
G01 X-1.3721 Y1.4909  
G01 X-1.3755 Y1.4961  
G01 X-1.3799 Y1.5005  
G01 X-1.3835 Y1.5029  
G01 X-1.3835 Y2.0898  
G01 X-1.3835 Y2.0925  
G01 X-1.3835 Y2.0926  
G01 X-1.3835 Y2.0928  
G01 X-1.3842 Y2.0954  
G01 X-1.3848 Y2.0980  
G01 X-1.3849 Y2.0981  
G01 X-1.3850 Y2.0983  
G01 X-1.3863 Y2.1006  
G01 X-1.3876 Y2.1029  
G01 X-1.3877 Y2.1030  
G01 X-1.3878 Y2.1032  
G01 X-1.3897 Y2.1051  
G01 X-1.5344 Y2.2548  
G01 X-1.6826 Y2.4129  
G01 X-1.6828 Y2.4132  
G01 X-1.6846 Y2.4150  
G01 X-1.6863 Y2.4168  
G01 X-1.6865 Y2.4170  
G01 X-1.6868 Y2.4172  
G01 X-1.6890 Y2.4184  
G01 X-1.6911 Y2.4198  
G01 X-1.6914 Y2.4199  
G01 X-1.6917 Y2.4200  
G01 X-1.6941 Y2.4207  
G01 X-1.6965 Y2.4214  
G01 X-1.6968 Y2.4214  
G01 X-1.6972 Y2.4215  
G01 X-1.6997 Y2.4215  
G01 X-1.7021 Y2.4216  
G01 X-1.7025 Y2.4215  
G01 X-1.7993 Y2.4215  
G01 X-1.8014 Y2.4216  
G01 X-1.8021 Y2.4215  
G01 X-1.8028 Y2.4215  
G01 X-1.8049 Y2.4209  
G01 X-1.8070 Y2.4205  
G01 X-1.8076 Y2.4202  
G01 X-1.8083 Y2.4200  
G01 X-1.8102 Y2.4190  
G01 X-1.8121 Y2.4180  
G01 X-1.8126 Y2.4176  
G01 X-1.8132 Y2.4172  
G01 X-1.8147 Y2.4157  
G01 X-1.8163 Y2.4143  
G01 X-1.8167 Y2.4137  
G01 X-1.8172 Y2.4132  
G01 X-1.8183 Y2.4113  
G01 X-1.8547 Y2.3567  
G01 X-1.8591 Y2.3558  
G01 X-1.8648 Y2.3534  
G01 X-1.8699 Y2.3500  
G01 X-1.8743 Y2.3457  
G01 X-1.8777 Y2.3405  
G01 X-1.8800 Y2.3349  
G01 X-1.8812 Y2.3288  
G01 X-1.8812 Y2.2712  
G01 X-1.8800 Y2.2651  
G01 X-1.8777 Y2.2595  
G01 X-1.8743 Y2.2543  
G01 X-1.8699 Y2.2500  
G01 X-1.8648 Y2.2466  
G01 X-1.8591 Y2.2442  
G01 X-1.8531 Y2.2430  
G01 X-1.8469 Y2.2430  
G01 X-1.8409 Y2.2442  
G01 X-1.8352 Y2.2466  
G01 X-1.8301 Y2.2500  
G01 X-1.8257 Y2.2543  
G01 X-1.8223 Y2.2595  
G01 X-1.8200 Y2.2651  
G01 X-1.8188 Y2.2712  
G01 X-1.8188 Y2.3288  
G01 X-1.8194 Y2.3321  
G01 X-1.7885 Y2.3785  
G01 X-1.7093 Y2.3785  
G01 X-1.5675 Y2.2272  
G01 X-1.5674 Y2.2271  
G01 X-1.5656 Y2.2252  
G01 X-1.5637 Y2.2232  
G01 X-1.5636 Y2.2231  
G01 X-1.4265 Y2.0813  
G01 X-1.4265 Y1.4930  
G01 X-1.4279 Y1.4909  
G01 X-1.4303 Y1.4852  
G01 X-1.4315 Y1.4791  
G01 X-1.4315 Y1.4209  
G01 X-1.4303 Y1.4148  
G01 X-1.4279 Y1.4091  
G01 X-1.4245 Y1.4039  
G01 X-1.4201 Y1.3995  
G01 X-1.4149 Y1.3961  
G01 X-1.4092 Y1.3937  
G01 X-1.4031 Y1.3925  
G01 X-1.3969 Y1.3925  
G01 X-1.3908 Y1.3937  
G01 X-1.3851 Y1.3961  
G01 X-1.3799 Y1.3995  
G01 X-1.3755 Y1.4039  
G00 Z0.0500  
G00 X-1.4755 Y1.4039  
G01 Z-0.0035 F10    
G01 X-1.4721 Y1.4091  F20    
G01 X-1.4697 Y1.4148  
G01 X-1.4685 Y1.4209  
G01 X-1.4685 Y1.4791  
G01 X-1.4697 Y1.4852  
G01 X-1.4721 Y1.4909  
G01 X-1.4755 Y1.4961  
G01 X-1.4785 Y1.4990  
G01 X-1.4785 Y2.0528  
G01 X-1.4800 Y2.0583  
G01 X-1.4828 Y2.0632  
G01 X-1.4868 Y2.0672  
G01 X-1.7188 Y2.2992  
G01 X-1.7188 Y2.3288  
G01 X-1.7200 Y2.3349  
G01 X-1.7223 Y2.3405  
G01 X-1.7257 Y2.3457  
G01 X-1.7301 Y2.3500  
G01 X-1.7352 Y2.3534  
G01 X-1.7409 Y2.3558  
G01 X-1.7469 Y2.3570  
G01 X-1.7531 Y2.3570  
G01 X-1.7591 Y2.3558  
G01 X-1.7648 Y2.3534  
G01 X-1.7699 Y2.3500  
G01 X-1.7743 Y2.3457  
G01 X-1.7777 Y2.3405  
G01 X-1.7800 Y2.3349  
G01 X-1.7812 Y2.3288  
G01 X-1.7812 Y2.2712  
G01 X-1.7800 Y2.2651  
G01 X-1.7777 Y2.2595  
G01 X-1.7743 Y2.2543  
G01 X-1.7699 Y2.2500  
G01 X-1.7648 Y2.2466  
G01 X-1.7591 Y2.2442  
G01 X-1.7531 Y2.2430  
G01 X-1.7469 Y2.2430  
G01 X-1.7409 Y2.2442  
G01 X-1.7352 Y2.2466  
G01 X-1.7303 Y2.2499  
G01 X-1.5215 Y2.0411  
G01 X-1.5215 Y1.4990  
G01 X-1.5245 Y1.4961  
G01 X-1.5279 Y1.4909  
G01 X-1.5303 Y1.4852  
G01 X-1.5315 Y1.4791  
G01 X-1.5315 Y1.4209  
G01 X-1.5303 Y1.4148  
G01 X-1.5279 Y1.4091  
G01 X-1.5245 Y1.4039  
G01 X-1.5201 Y1.3995  
G01 X-1.5149 Y1.3961  
G01 X-1.5092 Y1.3937  
G01 X-1.5031 Y1.3925  
G01 X-1.4969 Y1.3925  
G01 X-1.4908 Y1.3937  
G01 X-1.4851 Y1.3961  
G01 X-1.4799 Y1.3995  
G01 X-1.4755 Y1.4039  
G00 Z0.0500  
G00 X-1.5755 Y1.4039  
G01 Z-0.0035 F10    
G01 X-1.5721 Y1.4091  F20    
G01 X-1.5697 Y1.4148  
G01 X-1.5685 Y1.4209  
G01 X-1.5685 Y1.4791  
G01 X-1.5697 Y1.4852  
G01 X-1.5721 Y1.4909  
G01 X-1.5755 Y1.4961  
G01 X-1.5784 Y1.4990  
G01 X-1.5783 Y1.4998  
G01 X-1.5785 Y1.5013  
G01 X-1.5785 Y1.5028  
G01 X-1.5788 Y1.5041  
G01 X-1.5790 Y1.5054  
G01 X-1.5796 Y1.5068  
G01 X-1.5800 Y1.5083  
G01 X-1.5806 Y1.5094  
G01 X-1.5811 Y1.5106  
G01 X-1.5820 Y1.5119  
G01 X-1.5828 Y1.5132  
G01 X-1.5837 Y1.5141  
G01 X-1.7188 Y1.6942  
G01 X-1.7188 Y1.7288  
G01 X-1.7200 Y1.7349  
G01 X-1.7223 Y1.7405  
G01 X-1.7257 Y1.7457  
G01 X-1.7301 Y1.7500  
G01 X-1.7352 Y1.7534  
G01 X-1.7409 Y1.7558  
G01 X-1.7469 Y1.7570  
G01 X-1.7531 Y1.7570  
G01 X-1.7591 Y1.7558  
G01 X-1.7648 Y1.7534  
G01 X-1.7699 Y1.7500  
G01 X-1.7743 Y1.7457  
G01 X-1.7777 Y1.7405  
G01 X-1.7800 Y1.7349  
G01 X-1.7812 Y1.7288  
G01 X-1.7812 Y1.6712  
G01 X-1.7800 Y1.6651  
G01 X-1.7777 Y1.6595  
G01 X-1.7743 Y1.6543  
G01 X-1.7699 Y1.6500  
G01 X-1.7648 Y1.6466  
G01 X-1.7591 Y1.6442  
G01 X-1.7531 Y1.6430  
G01 X-1.7469 Y1.6430  
G01 X-1.7409 Y1.6442  
G01 X-1.7364 Y1.6461  
G01 X-1.6242 Y1.4964  
G01 X-1.6245 Y1.4961  
G01 X-1.6279 Y1.4909  
G01 X-1.6303 Y1.4852  
G01 X-1.6315 Y1.4791  
G01 X-1.6315 Y1.4209  
G01 X-1.6303 Y1.4148  
G01 X-1.6279 Y1.4091  
G01 X-1.6245 Y1.4039  
G01 X-1.6201 Y1.3995  
G01 X-1.6149 Y1.3961  
G01 X-1.6092 Y1.3937  
G01 X-1.6031 Y1.3925  
G01 X-1.5969 Y1.3925  
G01 X-1.5908 Y1.3937  
G01 X-1.5851 Y1.3961  
G01 X-1.5799 Y1.3995  
G01 X-1.5755 Y1.4039  
G00 Z0.0500  
G00 X-1.6755 Y1.4039  
G01 Z-0.0035 F10    
G01 X-1.6721 Y1.4091  F20    
G01 X-1.6697 Y1.4148  
G01 X-1.6685 Y1.4209  
G01 X-1.6685 Y1.4791  
G01 X-1.6697 Y1.4852  
G01 X-1.6721 Y1.4909  
G01 X-1.6755 Y1.4961  
G01 X-1.6799 Y1.5005  
G01 X-1.6851 Y1.5039  
G01 X-1.6908 Y1.5063  
G01 X-1.6969 Y1.5075  
G01 X-1.6985 Y1.5075  
G01 X-1.7826 Y1.6127  
G01 X-1.8194 Y1.6679  
G01 X-1.8188 Y1.6712  
G01 X-1.8188 Y1.7288  
G01 X-1.8200 Y1.7349  
G01 X-1.8223 Y1.7405  
G01 X-1.8257 Y1.7457  
G01 X-1.8301 Y1.7500  
G01 X-1.8352 Y1.7534  
G01 X-1.8409 Y1.7558  
G01 X-1.8469 Y1.7570  
G01 X-1.8531 Y1.7570  
G01 X-1.8591 Y1.7558  
G01 X-1.8648 Y1.7534  
G01 X-1.8699 Y1.7500  
G01 X-1.8743 Y1.7457  
G01 X-1.8777 Y1.7405  
G01 X-1.8800 Y1.7349  
G01 X-1.8812 Y1.7288  
G01 X-1.8812 Y1.6712  
G01 X-1.8800 Y1.6651  
G01 X-1.8777 Y1.6595  
G01 X-1.8743 Y1.6543  
G01 X-1.8699 Y1.6500  
G01 X-1.8648 Y1.6466  
G01 X-1.8591 Y1.6442  
G01 X-1.8547 Y1.6433  
G01 X-1.8189 Y1.5896  
G01 X-1.8186 Y1.5888  
G01 X-1.8174 Y1.5873  
G01 X-1.8163 Y1.5857  
G01 X-1.8156 Y1.5851  
G01 X-1.7314 Y1.4798  
G01 X-1.7315 Y1.4791  
G01 X-1.7315 Y1.4209  
G01 X-1.7303 Y1.4148  
G01 X-1.7279 Y1.4091  
G01 X-1.7245 Y1.4039  
G01 X-1.7201 Y1.3995  
G01 X-1.7149 Y1.3961  
G01 X-1.7092 Y1.3937  
G01 X-1.7031 Y1.3925  
G01 X-1.6969 Y1.3925  
G01 X-1.6908 Y1.3937  
G01 X-1.6851 Y1.3961  
G01 X-1.6799 Y1.3995  
G01 X-1.6755 Y1.4039  
G00 Z0.0500  
G00 X-1.7755 Y1.4039  
G01 Z-0.0035 F10    
G01 X-1.7721 Y1.4091  F20    
G01 X-1.7697 Y1.4148  
G01 X-1.7685 Y1.4209  
G01 X-1.7685 Y1.4791  
G01 X-1.7697 Y1.4852  
G01 X-1.7721 Y1.4909  
G01 X-1.7755 Y1.4961  
G01 X-1.7799 Y1.5005  
G01 X-1.7851 Y1.5039  
G01 X-1.7908 Y1.5063  
G01 X-1.7969 Y1.5075  
G01 X-1.7985 Y1.5075  
G01 X-1.8826 Y1.6127  
G01 X-1.9194 Y1.6679  
G01 X-1.9188 Y1.6712  
G01 X-1.9188 Y1.7288  
G01 X-1.9200 Y1.7349  
G01 X-1.9223 Y1.7405  
G01 X-1.9257 Y1.7457  
G01 X-1.9301 Y1.7500  
G01 X-1.9352 Y1.7534  
G01 X-1.9409 Y1.7558  
G01 X-1.9469 Y1.7570  
G01 X-1.9531 Y1.7570  
G01 X-1.9591 Y1.7558  
G01 X-1.9648 Y1.7534  
G01 X-1.9699 Y1.7500  
G01 X-1.9743 Y1.7457  
G01 X-1.9777 Y1.7405  
G01 X-1.9800 Y1.7349  
G01 X-1.9812 Y1.7288  
G01 X-1.9812 Y1.6712  
G01 X-1.9800 Y1.6651  
G01 X-1.9777 Y1.6595  
G01 X-1.9743 Y1.6543  
G01 X-1.9699 Y1.6500  
G01 X-1.9648 Y1.6466  
G01 X-1.9591 Y1.6442  
G01 X-1.9547 Y1.6433  
G01 X-1.9189 Y1.5896  
G01 X-1.9186 Y1.5888  
G01 X-1.9174 Y1.5873  
G01 X-1.9163 Y1.5857  
G01 X-1.9156 Y1.5851  
G01 X-1.8314 Y1.4798  
G01 X-1.8315 Y1.4791  
G01 X-1.8315 Y1.4209  
G01 X-1.8303 Y1.4148  
G01 X-1.8279 Y1.4091  
G01 X-1.8245 Y1.4039  
G01 X-1.8201 Y1.3995  
G01 X-1.8149 Y1.3961  
G01 X-1.8092 Y1.3937  
G01 X-1.8031 Y1.3925  
G01 X-1.7969 Y1.3925  
G01 X-1.7908 Y1.3937  
G01 X-1.7851 Y1.3961  
G01 X-1.7799 Y1.3995  
G01 X-1.7755 Y1.4039  
G00 Z0.0500  
G00 X-1.8755 Y1.4039  
G01 Z-0.0035 F10    
G01 X-1.8721 Y1.4091  F20    
G01 X-1.8697 Y1.4148  
G01 X-1.8685 Y1.4209  
G01 X-1.8685 Y1.4791  
G01 X-1.8697 Y1.4852  
G01 X-1.8721 Y1.4909  
G01 X-1.8755 Y1.4961  
G01 X-1.8799 Y1.5005  
G01 X-1.8851 Y1.5039  
G01 X-1.8908 Y1.5063  
G01 X-1.8969 Y1.5075  
G01 X-1.8985 Y1.5075  
G01 X-1.9826 Y1.6127  
G01 X-2.0194 Y1.6679  
G01 X-2.0188 Y1.6712  
G01 X-2.0188 Y1.7288  
G01 X-2.0200 Y1.7349  
G01 X-2.0223 Y1.7405  
G01 X-2.0257 Y1.7457  
G01 X-2.0301 Y1.7500  
G01 X-2.0352 Y1.7534  
G01 X-2.0409 Y1.7558  
G01 X-2.0469 Y1.7570  
G01 X-2.0531 Y1.7570  
G01 X-2.0591 Y1.7558  
G01 X-2.0648 Y1.7534  
G01 X-2.0699 Y1.7500  
G01 X-2.0743 Y1.7457  
G01 X-2.0777 Y1.7405  
G01 X-2.0800 Y1.7349  
G01 X-2.0812 Y1.7288  
G01 X-2.0812 Y1.6712  
G01 X-2.0800 Y1.6651  
G01 X-2.0777 Y1.6595  
G01 X-2.0743 Y1.6543  
G01 X-2.0699 Y1.6500  
G01 X-2.0648 Y1.6466  
G01 X-2.0591 Y1.6442  
G01 X-2.0547 Y1.6433  
G01 X-2.0189 Y1.5896  
G01 X-2.0186 Y1.5888  
G01 X-2.0174 Y1.5873  
G01 X-2.0163 Y1.5857  
G01 X-2.0156 Y1.5851  
G01 X-1.9314 Y1.4798  
G01 X-1.9315 Y1.4791  
G01 X-1.9315 Y1.4209  
G01 X-1.9303 Y1.4148  
G01 X-1.9279 Y1.4091  
G01 X-1.9245 Y1.4039  
G01 X-1.9201 Y1.3995  
G01 X-1.9149 Y1.3961  
G01 X-1.9092 Y1.3937  
G01 X-1.9031 Y1.3925  
G01 X-1.8969 Y1.3925  
G01 X-1.8908 Y1.3937  
G01 X-1.8851 Y1.3961  
G01 X-1.8799 Y1.3995  
G01 X-1.8755 Y1.4039  
G00 Z0.0500  
G00 X-2.0755 Y1.4039  
G01 Z-0.0035 F10    
G01 X-2.0721 Y1.4091  F20    
G01 X-2.0697 Y1.4148  
G01 X-2.0685 Y1.4209  
G01 X-2.0685 Y1.4791  
G01 X-2.0697 Y1.4852  
G01 X-2.0721 Y1.4909  
G01 X-2.0755 Y1.4961  
G01 X-2.0799 Y1.5005  
G01 X-2.0851 Y1.5039  
G01 X-2.0908 Y1.5063  
G01 X-2.0969 Y1.5075  
G01 X-2.1031 Y1.5075  
G01 X-2.1092 Y1.5063  
G01 X-2.1149 Y1.5039  
G01 X-2.1201 Y1.5005  
G01 X-2.1245 Y1.4961  
G01 X-2.1279 Y1.4909  
G01 X-2.1303 Y1.4852  
G01 X-2.1315 Y1.4791  
G01 X-2.1315 Y1.4209  
G01 X-2.1303 Y1.4148  
G01 X-2.1279 Y1.4091  
G01 X-2.1245 Y1.4039  
G01 X-2.1201 Y1.3995  
G01 X-2.1149 Y1.3961  
G01 X-2.1092 Y1.3937  
G01 X-2.1031 Y1.3925  
G01 X-2.0969 Y1.3925  
G01 X-2.0908 Y1.3937  
G01 X-2.0851 Y1.3961  
G01 X-2.0799 Y1.3995  
G01 X-2.0755 Y1.4039  
G00 Z0.0500  
G00 X-2.1755 Y1.4039  
G01 Z-0.0035 F10    
G01 X-2.1721 Y1.4091  F20    
G01 X-2.1697 Y1.4148  
G01 X-2.1685 Y1.4209  
G01 X-2.1685 Y1.4791  
G01 X-2.1697 Y1.4852  
G01 X-2.1721 Y1.4909  
G01 X-2.1755 Y1.4961  
G01 X-2.1799 Y1.5005  
G01 X-2.1851 Y1.5039  
G01 X-2.1908 Y1.5063  
G01 X-2.1969 Y1.5075  
G01 X-2.2031 Y1.5075  
G01 X-2.2092 Y1.5063  
G01 X-2.2149 Y1.5039  
G01 X-2.2201 Y1.5005  
G01 X-2.2245 Y1.4961  
G01 X-2.2279 Y1.4909  
G01 X-2.2303 Y1.4852  
G01 X-2.2315 Y1.4791  
G01 X-2.2315 Y1.4209  
G01 X-2.2303 Y1.4148  
G01 X-2.2279 Y1.4091  
G01 X-2.2245 Y1.4039  
G01 X-2.2201 Y1.3995  
G01 X-2.2149 Y1.3961  
G01 X-2.2092 Y1.3937  
G01 X-2.2031 Y1.3925  
G01 X-2.1969 Y1.3925  
G01 X-2.1908 Y1.3937  
G01 X-2.1851 Y1.3961  
G01 X-2.1799 Y1.3995  
G01 X-2.1755 Y1.4039  
G00 Z0.0500  
G00 X-2.2755 Y1.4039  
G01 Z-0.0035 F10    
G01 X-2.2721 Y1.4091  F20    
G01 X-2.2697 Y1.4148  
G01 X-2.2685 Y1.4209  
G01 X-2.2685 Y1.4791  
G01 X-2.2686 Y1.4798  
G01 X-2.1844 Y1.5851  
G01 X-2.1837 Y1.5857  
G01 X-2.1826 Y1.5873  
G01 X-2.1814 Y1.5888  
G01 X-2.1811 Y1.5896  
G01 X-2.1453 Y1.6433  
G01 X-2.1409 Y1.6442  
G01 X-2.1352 Y1.6466  
G01 X-2.1301 Y1.6500  
G01 X-2.1257 Y1.6543  
G01 X-2.1223 Y1.6595  
G01 X-2.1200 Y1.6651  
G01 X-2.1188 Y1.6712  
G01 X-2.1188 Y1.7288  
G01 X-2.1200 Y1.7349  
G01 X-2.1223 Y1.7405  
G01 X-2.1257 Y1.7457  
G01 X-2.1301 Y1.7500  
G01 X-2.1352 Y1.7534  
G01 X-2.1409 Y1.7558  
G01 X-2.1469 Y1.7570  
G01 X-2.1531 Y1.7570  
G01 X-2.1591 Y1.7558  
G01 X-2.1648 Y1.7534  
G01 X-2.1699 Y1.7500  
G01 X-2.1743 Y1.7457  
G01 X-2.1777 Y1.7405  
G01 X-2.1800 Y1.7349  
G01 X-2.1812 Y1.7288  
G01 X-2.1812 Y1.6712  
G01 X-2.1806 Y1.6679  
G01 X-2.2174 Y1.6127  
G01 X-2.3015 Y1.5075  
G01 X-2.3031 Y1.5075  
G01 X-2.3092 Y1.5063  
G01 X-2.3149 Y1.5039  
G01 X-2.3201 Y1.5005  
G01 X-2.3245 Y1.4961  
G01 X-2.3279 Y1.4909  
G01 X-2.3303 Y1.4852  
G01 X-2.3315 Y1.4791  
G01 X-2.3315 Y1.4209  
G01 X-2.3303 Y1.4148  
G01 X-2.3279 Y1.4091  
G01 X-2.3245 Y1.4039  
G01 X-2.3201 Y1.3995  
G01 X-2.3149 Y1.3961  
G01 X-2.3092 Y1.3937  
G01 X-2.3031 Y1.3925  
G01 X-2.2969 Y1.3925  
G01 X-2.2908 Y1.3937  
G01 X-2.2851 Y1.3961  
G01 X-2.2799 Y1.3995  
G01 X-2.2755 Y1.4039  
G00 Z0.0500  
G00 X-2.3755 Y1.4039  
G01 Z-0.0035 F10    
G01 X-2.3721 Y1.4091  F20    
G01 X-2.3697 Y1.4148  
G01 X-2.3685 Y1.4209  
G01 X-2.3685 Y1.4791  
G01 X-2.3686 Y1.4798  
G01 X-2.2844 Y1.5851  
G01 X-2.2837 Y1.5857  
G01 X-2.2826 Y1.5873  
G01 X-2.2814 Y1.5888  
G01 X-2.2811 Y1.5896  
G01 X-2.2453 Y1.6433  
G01 X-2.2409 Y1.6442  
G01 X-2.2352 Y1.6466  
G01 X-2.2301 Y1.6500  
G01 X-2.2257 Y1.6543  
G01 X-2.2223 Y1.6595  
G01 X-2.2200 Y1.6651  
G01 X-2.2188 Y1.6712  
G01 X-2.2188 Y1.7288  
G01 X-2.2200 Y1.7349  
G01 X-2.2223 Y1.7405  
G01 X-2.2257 Y1.7457  
G01 X-2.2301 Y1.7500  
G01 X-2.2352 Y1.7534  
G01 X-2.2409 Y1.7558  
G01 X-2.2469 Y1.7570  
G01 X-2.2531 Y1.7570  
G01 X-2.2591 Y1.7558  
G01 X-2.2648 Y1.7534  
G01 X-2.2699 Y1.7500  
G01 X-2.2743 Y1.7457  
G01 X-2.2777 Y1.7405  
G01 X-2.2800 Y1.7349  
G01 X-2.2812 Y1.7288  
G01 X-2.2812 Y1.6712  
G01 X-2.2806 Y1.6679  
G01 X-2.3174 Y1.6127  
G01 X-2.4015 Y1.5075  
G01 X-2.4031 Y1.5075  
G01 X-2.4092 Y1.5063  
G01 X-2.4149 Y1.5039  
G01 X-2.4201 Y1.5005  
G01 X-2.4245 Y1.4961  
G01 X-2.4279 Y1.4909  
G01 X-2.4303 Y1.4852  
G01 X-2.4315 Y1.4791  
G01 X-2.4315 Y1.4209  
G01 X-2.4303 Y1.4148  
G01 X-2.4279 Y1.4091  
G01 X-2.4245 Y1.4039  
G01 X-2.4201 Y1.3995  
G01 X-2.4149 Y1.3961  
G01 X-2.4092 Y1.3937  
G01 X-2.4031 Y1.3925  
G01 X-2.3969 Y1.3925  
G01 X-2.3908 Y1.3937  
G01 X-2.3851 Y1.3961  
G01 X-2.3799 Y1.3995  
G01 X-2.3755 Y1.4039  
G00 Z0.0500  
G00 X-2.4755 Y1.4039  
G01 Z-0.0035 F10    
G01 X-2.4721 Y1.4091  F20    
G01 X-2.4697 Y1.4148  
G01 X-2.4685 Y1.4209  
G01 X-2.4685 Y1.4791  
G01 X-2.4697 Y1.4852  
G01 X-2.4721 Y1.4909  
G01 X-2.4755 Y1.4961  
G01 X-2.3814 Y1.6138  
G01 X-2.3792 Y1.6190  
G01 X-2.3783 Y1.6246  
G01 X-2.3789 Y1.6302  
G01 X-2.3810 Y1.6355  
G01 X-2.3844 Y1.6400  
G01 X-2.3865 Y1.6417  
G01 X-2.3865 Y1.7582  
G01 X-2.3837 Y1.7607  
G01 X-2.2333 Y1.9863  
G01 X-2.2328 Y1.9868  
G01 X-2.2317 Y1.9887  
G01 X-2.2305 Y1.9904  
G01 X-2.2303 Y1.9911  
G01 X-2.2300 Y1.9917  
G01 X-2.2294 Y1.9938  
G01 X-2.2287 Y1.9958  
G01 X-2.2287 Y1.9965  
G01 X-2.2285 Y1.9972  
G01 X-2.2285 Y1.9993  
G01 X-2.2284 Y2.0014  
G01 X-2.2285 Y2.0021  
G01 X-2.2285 Y2.2516  
G01 X-2.2257 Y2.2543  
G01 X-2.2223 Y2.2595  
G01 X-2.2200 Y2.2651  
G01 X-2.2188 Y2.2712  
G01 X-2.2188 Y2.3288  
G01 X-2.2200 Y2.3349  
G01 X-2.2223 Y2.3405  
G01 X-2.2257 Y2.3457  
G01 X-2.2301 Y2.3500  
G01 X-2.2352 Y2.3534  
G01 X-2.2409 Y2.3558  
G01 X-2.2469 Y2.3570  
G01 X-2.2531 Y2.3570  
G01 X-2.2591 Y2.3558  
G01 X-2.2648 Y2.3534  
G01 X-2.2699 Y2.3500  
G01 X-2.2743 Y2.3457  
G01 X-2.2777 Y2.3405  
G01 X-2.2800 Y2.3349  
G01 X-2.2812 Y2.3288  
G01 X-2.2812 Y2.2712  
G01 X-2.2800 Y2.2651  
G01 X-2.2777 Y2.2595  
G01 X-2.2743 Y2.2543  
G01 X-2.2715 Y2.2516  
G01 X-2.2715 Y2.0065  
G01 X-2.4195 Y1.7846  
G01 X-2.4213 Y1.7792  
G01 X-2.4216 Y1.7736  
G01 X-2.4205 Y1.7680  
G01 X-2.4180 Y1.7629  
G01 X-2.4143 Y1.7587  
G01 X-2.4135 Y1.7582  
G01 X-2.4135 Y1.6418  
G01 X-2.4150 Y1.6406  
G01 X-2.5160 Y1.5144  
G01 X-2.5172 Y1.5132  
G01 X-2.5178 Y1.5122  
G01 X-2.5186 Y1.5112  
G01 X-2.5192 Y1.5097  
G01 X-2.5200 Y1.5083  
G01 X-2.5203 Y1.5071  
G01 X-2.5208 Y1.5060  
G01 X-2.5211 Y1.5044  
G01 X-2.5215 Y1.5028  
G01 X-2.5215 Y1.5016  
G01 X-2.5217 Y1.5004  
G01 X-2.5215 Y1.4990  
G01 X-2.5245 Y1.4961  
G01 X-2.5279 Y1.4909  
G01 X-2.5303 Y1.4852  
G01 X-2.5315 Y1.4791  
G01 X-2.5315 Y1.4209  
G01 X-2.5303 Y1.4148  
G01 X-2.5279 Y1.4091  
G01 X-2.5245 Y1.4039  
G01 X-2.5201 Y1.3995  
G01 X-2.5149 Y1.3961  
G01 X-2.5092 Y1.3937  
G01 X-2.5031 Y1.3925  
G01 X-2.4969 Y1.3925  
G01 X-2.4908 Y1.3937  
G01 X-2.4851 Y1.3961  
G01 X-2.4799 Y1.3995  
G01 X-2.4755 Y1.4039  
G00 Z0.0500  
G00 X-2.5755 Y1.4039  
G01 Z-0.0035 F10    
G01 X-2.5721 Y1.4091  F20    
G01 X-2.5697 Y1.4148  
G01 X-2.5685 Y1.4209  
G01 X-2.5685 Y1.4791  
G01 X-2.5697 Y1.4852  
G01 X-2.5721 Y1.4909  
G01 X-2.5755 Y1.4961  
G01 X-2.5799 Y1.5005  
G01 X-2.5851 Y1.5039  
G01 X-2.5908 Y1.5063  
G01 X-2.5969 Y1.5075  
G01 X-2.6031 Y1.5075  
G01 X-2.6092 Y1.5063  
G01 X-2.6149 Y1.5039  
G01 X-2.6201 Y1.5005  
G01 X-2.6245 Y1.4961  
G01 X-2.6279 Y1.4909  
G01 X-2.6303 Y1.4852  
G01 X-2.6315 Y1.4791  
G01 X-2.6315 Y1.4209  
G01 X-2.6303 Y1.4148  
G01 X-2.6279 Y1.4091  
G01 X-2.6245 Y1.4039  
G01 X-2.6201 Y1.3995  
G01 X-2.6149 Y1.3961  
G01 X-2.6092 Y1.3937  
G01 X-2.6031 Y1.3925  
G01 X-2.5969 Y1.3925  
G01 X-2.5908 Y1.3937  
G01 X-2.5851 Y1.3961  
G01 X-2.5799 Y1.3995  
G01 X-2.5755 Y1.4039  
G00 Z0.0500  
G00 X-2.6755 Y1.4039  
G01 Z-0.0035 F10    
G01 X-2.6721 Y1.4091  F20    
G01 X-2.6697 Y1.4148  
G01 X-2.6685 Y1.4209  
G01 X-2.6685 Y1.4791  
G01 X-2.6697 Y1.4852  
G01 X-2.6721 Y1.4909  
G01 X-2.6755 Y1.4961  
G01 X-2.6799 Y1.5005  
G01 X-2.6851 Y1.5039  
G01 X-2.6908 Y1.5063  
G01 X-2.6969 Y1.5075  
G01 X-2.7031 Y1.5075  
G01 X-2.7092 Y1.5063  
G01 X-2.7149 Y1.5039  
G01 X-2.7201 Y1.5005  
G01 X-2.7245 Y1.4961  
G01 X-2.7279 Y1.4909  
G01 X-2.7303 Y1.4852  
G01 X-2.7315 Y1.4791  
G01 X-2.7315 Y1.4209  
G01 X-2.7303 Y1.4148  
G01 X-2.7279 Y1.4091  
G01 X-2.7245 Y1.4039  
G01 X-2.7201 Y1.3995  
G01 X-2.7149 Y1.3961  
G01 X-2.7092 Y1.3937  
G01 X-2.7031 Y1.3925  
G01 X-2.6969 Y1.3925  
G01 X-2.6908 Y1.3937  
G01 X-2.6851 Y1.3961  
G01 X-2.6799 Y1.3995  
G01 X-2.6755 Y1.4039  
G00 Z0.0500  
G00 X-2.6799 Y1.2005  
G01 Z-0.0035 F10    
G01 X-2.6851 Y1.2039  F20    
G01 X-2.6908 Y1.2063  
G01 X-2.6969 Y1.2075  
G01 X-2.7031 Y1.2075  
G01 X-2.7092 Y1.2063  
G01 X-2.7149 Y1.2039  
G01 X-2.7201 Y1.2005  
G01 X-2.7245 Y1.1961  
G01 X-2.7279 Y1.1909  
G01 X-2.7303 Y1.1852  
G01 X-2.7315 Y1.1791  
G01 X-2.7315 Y1.1209  
G01 X-2.7303 Y1.1148  
G01 X-2.7279 Y1.1091  
G01 X-2.7245 Y1.1039  
G01 X-2.7201 Y1.0995  
G01 X-2.7149 Y1.0961  
G01 X-2.7092 Y1.0937  
G01 X-2.7031 Y1.0925  
G01 X-2.6969 Y1.0925  
G01 X-2.6908 Y1.0937  
G01 X-2.6851 Y1.0961  
G01 X-2.6799 Y1.0995  
G01 X-2.6755 Y1.1039  
G01 X-2.6721 Y1.1091  
G01 X-2.6697 Y1.1148  
G01 X-2.6685 Y1.1209  
G01 X-2.6685 Y1.1791  
G01 X-2.6697 Y1.1852  
G01 X-2.6721 Y1.1909  
G01 X-2.6755 Y1.1961  
G01 X-2.6799 Y1.2005  
G00 Z0.0500  
G00 X-2.6245 Y1.1961  
G01 Z-0.0035 F10    
G01 X-2.6279 Y1.1909  F20    
G01 X-2.6303 Y1.1852  
G01 X-2.6315 Y1.1791  
G01 X-2.6315 Y1.1209  
G01 X-2.6303 Y1.1148  
G01 X-2.6279 Y1.1091  
G01 X-2.6245 Y1.1039  
G01 X-2.6201 Y1.0995  
G01 X-2.6149 Y1.0961  
G01 X-2.6092 Y1.0937  
G01 X-2.6031 Y1.0925  
G01 X-2.5969 Y1.0925  
G01 X-2.5908 Y1.0937  
G01 X-2.5851 Y1.0961  
G01 X-2.5799 Y1.0995  
G01 X-2.5755 Y1.1039  
G01 X-2.5721 Y1.1091  
G01 X-2.5697 Y1.1148  
G01 X-2.5685 Y1.1209  
G01 X-2.5685 Y1.1791  
G01 X-2.5697 Y1.1852  
G01 X-2.5721 Y1.1909  
G01 X-2.5755 Y1.1961  
G01 X-2.5799 Y1.2005  
G01 X-2.5851 Y1.2039  
G01 X-2.5908 Y1.2063  
G01 X-2.5969 Y1.2075  
G01 X-2.6031 Y1.2075  
G01 X-2.6092 Y1.2063  
G01 X-2.6149 Y1.2039  
G01 X-2.6201 Y1.2005  
G01 X-2.6245 Y1.1961  
G00 Z0.0500  
G00 X-2.5572 Y1.2285  
G01 Z-0.0035 F10    
G01 X-2.5305 Y1.1841  F20    
G01 X-2.5315 Y1.1791  
G01 X-2.5315 Y1.1209  
G01 X-2.5303 Y1.1148  
G01 X-2.5279 Y1.1091  
G01 X-2.5245 Y1.1039  
G01 X-2.5201 Y1.0995  
G01 X-2.5149 Y1.0961  
G01 X-2.5092 Y1.0937  
G01 X-2.5031 Y1.0925  
G01 X-2.4969 Y1.0925  
G01 X-2.4908 Y1.0937  
G01 X-2.4851 Y1.0961  
G01 X-2.4799 Y1.0995  
G01 X-2.4755 Y1.1039  
G01 X-2.4721 Y1.1091  
G01 X-2.4697 Y1.1148  
G01 X-2.4685 Y1.1209  
G01 X-2.4685 Y1.1791  
G01 X-2.4697 Y1.1852  
G01 X-2.4721 Y1.1909  
G01 X-2.4755 Y1.1961  
G01 X-2.4799 Y1.2005  
G01 X-2.4851 Y1.2039  
G01 X-2.4908 Y1.2063  
G01 X-2.4941 Y1.2069  
G01 X-2.5265 Y1.2609  
G01 X-2.5278 Y1.2632  
G01 X-2.5279 Y1.2633  
G01 X-2.5280 Y1.2635  
G01 X-2.5299 Y1.2653  
G01 X-2.5318 Y1.2672  
G01 X-2.5320 Y1.2673  
G01 X-2.5321 Y1.2674  
G01 X-2.5344 Y1.2687  
G01 X-2.5367 Y1.2700  
G01 X-2.5369 Y1.2701  
G01 X-2.5370 Y1.2702  
G01 X-2.5396 Y1.2708  
G01 X-2.5422 Y1.2715  
G01 X-2.5424 Y1.2715  
G01 X-2.5425 Y1.2715  
G01 X-2.5452 Y1.2715  
G01 X-2.8270 Y1.2715  
G01 X-2.8370 Y1.2815  
G01 X-2.8630 Y1.2815  
G01 X-2.8815 Y1.2630  
G01 X-2.8815 Y1.2370  
G01 X-2.8630 Y1.2185  
G01 X-2.8370 Y1.2185  
G01 X-2.8270 Y1.2285  
G01 X-2.5572 Y1.2285  
G00 Z0.0500  
G00 X-2.4245 Y1.1961  
G01 Z-0.0035 F10    
G01 X-2.4279 Y1.1909  F20    
G01 X-2.4303 Y1.1852  
G01 X-2.4315 Y1.1791  
G01 X-2.4315 Y1.1209  
G01 X-2.4303 Y1.1148  
G01 X-2.4279 Y1.1091  
G01 X-2.4245 Y1.1039  
G01 X-2.4201 Y1.0995  
G01 X-2.4149 Y1.0961  
G01 X-2.4092 Y1.0937  
G01 X-2.4031 Y1.0925  
G01 X-2.3969 Y1.0925  
G01 X-2.3908 Y1.0937  
G01 X-2.3851 Y1.0961  
G01 X-2.3799 Y1.0995  
G01 X-2.3755 Y1.1039  
G01 X-2.3721 Y1.1091  
G01 X-2.3697 Y1.1148  
G01 X-2.3685 Y1.1209  
G01 X-2.3685 Y1.1791  
G01 X-2.3697 Y1.1852  
G01 X-2.3721 Y1.1909  
G01 X-2.3755 Y1.1961  
G01 X-2.3799 Y1.2005  
G01 X-2.3851 Y1.2039  
G01 X-2.3908 Y1.2063  
G01 X-2.3969 Y1.2075  
G01 X-2.4031 Y1.2075  
G01 X-2.4092 Y1.2063  
G01 X-2.4149 Y1.2039  
G01 X-2.4201 Y1.2005  
G01 X-2.4245 Y1.1961  
G00 Z0.0500  
G00 X-2.3245 Y1.1961  
G01 Z-0.0035 F10    
G01 X-2.3279 Y1.1909  F20    
G01 X-2.3303 Y1.1852  
G01 X-2.3315 Y1.1791  
G01 X-2.3315 Y1.1209  
G01 X-2.3306 Y1.1163  
G01 X-2.3386 Y1.0842  
G01 X-2.5296 Y0.9776  
G01 X-2.5301 Y0.9779  
G01 X-2.5358 Y0.9803  
G01 X-2.5419 Y0.9815  
G01 X-2.5481 Y0.9815  
G01 X-2.5542 Y0.9803  
G01 X-2.5599 Y0.9779  
G01 X-2.5651 Y0.9745  
G01 X-2.5680 Y0.9715  
G01 X-2.7270 Y0.9715  
G01 X-2.7370 Y0.9815  
G01 X-2.7630 Y0.9815  
G01 X-2.7815 Y0.9630  
G01 X-2.7815 Y0.9370  
G01 X-2.7729 Y0.9283  
G01 X-2.7801 Y0.8095  
G01 X-2.7915 Y0.7980  
G01 X-2.7915 Y0.7720  
G01 X-2.7730 Y0.7535  
G01 X-2.7470 Y0.7535  
G01 X-2.7285 Y0.7720  
G01 X-2.7285 Y0.7980  
G01 X-2.7371 Y0.8067  
G01 X-2.7299 Y0.9255  
G01 X-2.7270 Y0.9285  
G01 X-2.5680 Y0.9285  
G01 X-2.5651 Y0.9255  
G01 X-2.5599 Y0.9221  
G01 X-2.5542 Y0.9197  
G01 X-2.5481 Y0.9185  
G01 X-2.5419 Y0.9185  
G01 X-2.5358 Y0.9197  
G01 X-2.5301 Y0.9221  
G01 X-2.5249 Y0.9255  
G01 X-2.5205 Y0.9299  
G01 X-2.5171 Y0.9351  
G01 X-2.5169 Y0.9355  
G01 X-2.3117 Y1.0500  
G01 X-2.3114 Y1.0501  
G01 X-2.3092 Y1.0514  
G01 X-2.3070 Y1.0526  
G01 X-2.3068 Y1.0528  
G01 X-2.3065 Y1.0530  
G01 X-2.3048 Y1.0548  
G01 X-2.3030 Y1.0566  
G01 X-2.3028 Y1.0568  
G01 X-2.3026 Y1.0571  
G01 X-2.3014 Y1.0593  
G01 X-2.3001 Y1.0614  
G01 X-2.3000 Y1.0617  
G01 X-2.2998 Y1.0620  
G01 X-2.2992 Y1.0645  
G01 X-2.2985 Y1.0669  
G01 X-2.2985 Y1.0672  
G01 X-2.2920 Y1.0935  
G01 X-2.2908 Y1.0937  
G01 X-2.2851 Y1.0961  
G01 X-2.2799 Y1.0995  
G01 X-2.2755 Y1.1039  
G01 X-2.2721 Y1.1091  
G01 X-2.2697 Y1.1148  
G01 X-2.2685 Y1.1209  
G01 X-2.2685 Y1.1791  
G01 X-2.2697 Y1.1852  
G01 X-2.2721 Y1.1909  
G01 X-2.2755 Y1.1961  
G01 X-2.2799 Y1.2005  
G01 X-2.2851 Y1.2039  
G01 X-2.2908 Y1.2063  
G01 X-2.2969 Y1.2075  
G01 X-2.3031 Y1.2075  
G01 X-2.3092 Y1.2063  
G01 X-2.3149 Y1.2039  
G01 X-2.3201 Y1.2005  
G01 X-2.3245 Y1.1961  
G00 Z0.0500  
G00 X-2.2245 Y1.1961  
G01 Z-0.0035 F10    
G01 X-2.2279 Y1.1909  F20    
G01 X-2.2303 Y1.1852  
G01 X-2.2315 Y1.1791  
G01 X-2.2315 Y1.1209  
G01 X-2.2303 Y1.1148  
G01 X-2.2279 Y1.1091  
G01 X-2.2245 Y1.1039  
G01 X-2.2201 Y1.0995  
G01 X-2.2149 Y1.0961  
G01 X-2.2092 Y1.0937  
G01 X-2.2080 Y1.0935  
G01 X-2.1775 Y0.9715  
G01 X-2.3320 Y0.9715  
G01 X-2.3349 Y0.9745  
G01 X-2.3401 Y0.9779  
G01 X-2.3458 Y0.9803  
G01 X-2.3519 Y0.9815  
G01 X-2.3581 Y0.9815  
G01 X-2.3642 Y0.9803  
G01 X-2.3699 Y0.9779  
G01 X-2.3751 Y0.9745  
G01 X-2.3795 Y0.9701  
G01 X-2.3829 Y0.9649  
G01 X-2.3853 Y0.9592  
G01 X-2.3865 Y0.9531  
G01 X-2.3865 Y0.9469  
G01 X-2.3860 Y0.9444  
G01 X-2.4135 Y0.9169  
G01 X-2.4139 Y0.9166  
G01 X-2.4155 Y0.9149  
G01 X-2.4172 Y0.9132  
G01 X-2.4174 Y0.9128  
G01 X-2.4178 Y0.9125  
G01 X-2.4188 Y0.9104  
G01 X-2.4200 Y0.9083  
G01 X-2.4202 Y0.9078  
G01 X-2.4678 Y0.8165  
G01 X-2.4730 Y0.8165  
G01 X-2.4915 Y0.7980  
G01 X-2.4915 Y0.7720  
G01 X-2.4730 Y0.7535  
G01 X-2.4470 Y0.7535  
G01 X-2.4285 Y0.7720  
G01 X-2.4285 Y0.7980  
G01 X-2.4288 Y0.7983  
G01 X-2.3825 Y0.8871  
G01 X-2.3509 Y0.9187  
G01 X-2.3458 Y0.9197  
G01 X-2.3401 Y0.9221  
G01 X-2.3349 Y0.9255  
G01 X-2.3320 Y0.9285  
G01 X-2.1730 Y0.9285  
G01 X-2.1630 Y0.9185  
G01 X-2.1370 Y0.9185  
G01 X-2.1185 Y0.9370  
G01 X-2.1185 Y0.9630  
G01 X-2.1353 Y0.9798  
G01 X-2.1694 Y1.1163  
G01 X-2.1685 Y1.1209  
G01 X-2.1685 Y1.1791  
G01 X-2.1697 Y1.1852  
G01 X-2.1721 Y1.1909  
G01 X-2.1755 Y1.1961  
G01 X-2.1799 Y1.2005  
G01 X-2.1851 Y1.2039  
G01 X-2.1908 Y1.2063  
G01 X-2.1969 Y1.2075  
G01 X-2.2031 Y1.2075  
G01 X-2.2092 Y1.2063  
G01 X-2.2149 Y1.2039  
G01 X-2.2201 Y1.2005  
G01 X-2.2245 Y1.1961  
G00 Z0.0500  
G00 X-1.9245 Y1.1961  
G01 Z-0.0035 F10    
G01 X-1.9279 Y1.1909  F20    
G01 X-1.9303 Y1.1852  
G01 X-1.9315 Y1.1791  
G01 X-1.9315 Y1.1209  
G01 X-1.9303 Y1.1148  
G01 X-1.9279 Y1.1091  
G01 X-1.9245 Y1.1039  
G01 X-1.9215 Y1.1010  
G01 X-1.9215 Y0.9472  
G01 X-1.9200 Y0.9417  
G01 X-1.9172 Y0.9368  
G01 X-1.9132 Y0.9328  
G01 X-1.7815 Y0.8011  
G01 X-1.7815 Y0.7969  
G01 X-1.7803 Y0.7908  
G01 X-1.7779 Y0.7851  
G01 X-1.7745 Y0.7799  
G01 X-1.7701 Y0.7755  
G01 X-1.7649 Y0.7721  
G01 X-1.7592 Y0.7697  
G01 X-1.7531 Y0.7685  
G01 X-1.7469 Y0.7685  
G01 X-1.7408 Y0.7697  
G01 X-1.7351 Y0.7721  
G01 X-1.7299 Y0.7755  
G01 X-1.7255 Y0.7799  
G01 X-1.7221 Y0.7851  
G01 X-1.7197 Y0.7908  
G01 X-1.7185 Y0.7969  
G01 X-1.7185 Y0.8031  
G01 X-1.7197 Y0.8092  
G01 X-1.7221 Y0.8149  
G01 X-1.7255 Y0.8201  
G01 X-1.7299 Y0.8245  
G01 X-1.7351 Y0.8279  
G01 X-1.7408 Y0.8303  
G01 X-1.7469 Y0.8315  
G01 X-1.7511 Y0.8315  
G01 X-1.8785 Y0.9589  
G01 X-1.8785 Y1.1010  
G01 X-1.8755 Y1.1039  
G01 X-1.8721 Y1.1091  
G01 X-1.8697 Y1.1148  
G01 X-1.8685 Y1.1209  
G01 X-1.8685 Y1.1791  
G01 X-1.8697 Y1.1852  
G01 X-1.8721 Y1.1909  
G01 X-1.8755 Y1.1961  
G01 X-1.8799 Y1.2005  
G01 X-1.8851 Y1.2039  
G01 X-1.8908 Y1.2063  
G01 X-1.8969 Y1.2075  
G01 X-1.9031 Y1.2075  
G01 X-1.9092 Y1.2063  
G01 X-1.9149 Y1.2039  
G01 X-1.9201 Y1.2005  
G01 X-1.9245 Y1.1961  
G00 Z0.0500  
G00 X-1.8245 Y1.1961  
G01 Z-0.0035 F10    
G01 X-1.8279 Y1.1909  F20    
G01 X-1.8303 Y1.1852  
G01 X-1.8315 Y1.1791  
G01 X-1.8315 Y1.1209  
G01 X-1.8303 Y1.1148  
G01 X-1.8279 Y1.1091  
G01 X-1.8245 Y1.1039  
G01 X-1.8201 Y1.0995  
G01 X-1.8149 Y1.0961  
G01 X-1.8092 Y1.0937  
G01 X-1.8031 Y1.0925  
G01 X-1.7969 Y1.0925  
G01 X-1.7908 Y1.0937  
G01 X-1.7851 Y1.0961  
G01 X-1.7799 Y1.0995  
G01 X-1.7755 Y1.1039  
G01 X-1.7721 Y1.1091  
G01 X-1.7697 Y1.1148  
G01 X-1.7685 Y1.1209  
G01 X-1.7685 Y1.1791  
G01 X-1.7697 Y1.1852  
G01 X-1.7721 Y1.1909  
G01 X-1.7755 Y1.1961  
G01 X-1.7799 Y1.2005  
G01 X-1.7851 Y1.2039  
G01 X-1.7908 Y1.2063  
G01 X-1.7969 Y1.2075  
G01 X-1.8031 Y1.2075  
G01 X-1.8092 Y1.2063  
G01 X-1.8149 Y1.2039  
G01 X-1.8201 Y1.2005  
G01 X-1.8245 Y1.1961  
G00 Z0.0500  
G00 X-1.7245 Y1.1961  
G01 Z-0.0035 F10    
G01 X-1.7279 Y1.1909  F20    
G01 X-1.7303 Y1.1852  
G01 X-1.7315 Y1.1791  
G01 X-1.7315 Y1.1209  
G01 X-1.7303 Y1.1148  
G01 X-1.7279 Y1.1091  
G01 X-1.7245 Y1.1039  
G01 X-1.7201 Y1.0995  
G01 X-1.7149 Y1.0961  
G01 X-1.7092 Y1.0937  
G01 X-1.7031 Y1.0925  
G01 X-1.6969 Y1.0925  
G01 X-1.6908 Y1.0937  
G01 X-1.6851 Y1.0961  
G01 X-1.6799 Y1.0995  
G01 X-1.6755 Y1.1039  
G01 X-1.6721 Y1.1091  
G01 X-1.6697 Y1.1148  
G01 X-1.6685 Y1.1209  
G01 X-1.6685 Y1.1791  
G01 X-1.6697 Y1.1852  
G01 X-1.6721 Y1.1909  
G01 X-1.6755 Y1.1961  
G01 X-1.6799 Y1.2005  
G01 X-1.6851 Y1.2039  
G01 X-1.6908 Y1.2063  
G01 X-1.6969 Y1.2075  
G01 X-1.7031 Y1.2075  
G01 X-1.7092 Y1.2063  
G01 X-1.7149 Y1.2039  
G01 X-1.7201 Y1.2005  
G01 X-1.7245 Y1.1961  
G00 Z0.0500  
G00 X-1.6245 Y1.1961  
G01 Z-0.0035 F10    
G01 X-1.6279 Y1.1909  F20    
G01 X-1.6303 Y1.1852  
G01 X-1.6315 Y1.1791  
G01 X-1.6315 Y1.1209  
G01 X-1.6303 Y1.1148  
G01 X-1.6279 Y1.1091  
G01 X-1.6245 Y1.1039  
G01 X-1.6201 Y1.0995  
G01 X-1.6149 Y1.0961  
G01 X-1.6092 Y1.0937  
G01 X-1.6031 Y1.0925  
G01 X-1.5969 Y1.0925  
G01 X-1.5908 Y1.0937  
G01 X-1.5851 Y1.0961  
G01 X-1.5799 Y1.0995  
G01 X-1.5755 Y1.1039  
G01 X-1.5721 Y1.1091  
G01 X-1.5697 Y1.1148  
G01 X-1.5685 Y1.1209  
G01 X-1.5685 Y1.1791  
G01 X-1.5697 Y1.1852  
G01 X-1.5721 Y1.1909  
G01 X-1.5755 Y1.1961  
G01 X-1.5799 Y1.2005  
G01 X-1.5851 Y1.2039  
G01 X-1.5908 Y1.2063  
G01 X-1.5969 Y1.2075  
G01 X-1.6031 Y1.2075  
G01 X-1.6092 Y1.2063  
G01 X-1.6149 Y1.2039  
G01 X-1.6201 Y1.2005  
G01 X-1.6245 Y1.1961  
G00 Z0.0500  
G00 X-1.6130 Y0.9315  
G01 Z-0.0035 F10    
G01 X-1.6315 Y0.9130  F20    
G01 X-1.6315 Y0.8870  
G01 X-1.6297 Y0.8852  
G01 X-1.6910 Y0.7423  
G01 X-1.7348 Y0.7277  
G01 X-1.7351 Y0.7279  
G01 X-1.7408 Y0.7303  
G01 X-1.7469 Y0.7315  
G01 X-1.7531 Y0.7315  
G01 X-1.7592 Y0.7303  
G01 X-1.7649 Y0.7279  
G01 X-1.7701 Y0.7245  
G01 X-1.7745 Y0.7201  
G01 X-1.7779 Y0.7149  
G01 X-1.7803 Y0.7092  
G01 X-1.7815 Y0.7031  
G01 X-1.7815 Y0.6969  
G01 X-1.7803 Y0.6908  
G01 X-1.7779 Y0.6851  
G01 X-1.7745 Y0.6799  
G01 X-1.7701 Y0.6755  
G01 X-1.7649 Y0.6721  
G01 X-1.7592 Y0.6697  
G01 X-1.7531 Y0.6685  
G01 X-1.7469 Y0.6685  
G01 X-1.7408 Y0.6697  
G01 X-1.7351 Y0.6721  
G01 X-1.7299 Y0.6755  
G01 X-1.7255 Y0.6799  
G01 X-1.7221 Y0.6851  
G01 X-1.7213 Y0.6869  
G01 X-1.6703 Y0.7039  
G01 X-1.6696 Y0.7040  
G01 X-1.6676 Y0.7048  
G01 X-1.6655 Y0.7055  
G01 X-1.6650 Y0.7059  
G01 X-1.6644 Y0.7061  
G01 X-1.6626 Y0.7074  
G01 X-1.6608 Y0.7086  
G01 X-1.6604 Y0.7091  
G01 X-1.6599 Y0.7095  
G01 X-1.6585 Y0.7112  
G01 X-1.6570 Y0.7129  
G01 X-1.6567 Y0.7134  
G01 X-1.6564 Y0.7139  
G01 X-1.6555 Y0.7160  
G01 X-1.6545 Y0.7179  
G01 X-1.6544 Y0.7185  
G01 X-1.5901 Y0.8685  
G01 X-1.5870 Y0.8685  
G01 X-1.5770 Y0.8785  
G01 X-1.4730 Y0.8785  
G01 X-1.4630 Y0.8685  
G01 X-1.4370 Y0.8685  
G01 X-1.4185 Y0.8870  
G01 X-1.4185 Y0.9130  
G01 X-1.4370 Y0.9315  
G01 X-1.4630 Y0.9315  
G01 X-1.4730 Y0.9215  
G01 X-1.5770 Y0.9215  
G01 X-1.5870 Y0.9315  
G01 X-1.6130 Y0.9315  
G00 Z0.0500  
G00 X-1.4815 Y0.7630  
G01 Z-0.0035 F10    
G01 X-1.4815 Y0.7489  F20    
G01 X-1.5989 Y0.6315  
G01 X-1.6130 Y0.6315  
G01 X-1.6230 Y0.6215  
G01 X-1.7270 Y0.6215  
G01 X-1.7299 Y0.6245  
G01 X-1.7351 Y0.6279  
G01 X-1.7408 Y0.6303  
G01 X-1.7469 Y0.6315  
G01 X-1.7531 Y0.6315  
G01 X-1.7592 Y0.6303  
G01 X-1.7649 Y0.6279  
G01 X-1.7701 Y0.6245  
G01 X-1.7745 Y0.6201  
G01 X-1.7779 Y0.6149  
G01 X-1.7803 Y0.6092  
G01 X-1.7815 Y0.6031  
G01 X-1.7815 Y0.5969  
G01 X-1.7803 Y0.5908  
G01 X-1.7779 Y0.5851  
G01 X-1.7745 Y0.5799  
G01 X-1.7701 Y0.5755  
G01 X-1.7649 Y0.5721  
G01 X-1.7592 Y0.5697  
G01 X-1.7531 Y0.5685  
G01 X-1.7469 Y0.5685  
G01 X-1.7408 Y0.5697  
G01 X-1.7351 Y0.5721  
G01 X-1.7299 Y0.5755  
G01 X-1.7270 Y0.5785  
G01 X-1.6230 Y0.5785  
G01 X-1.6130 Y0.5685  
G01 X-1.5870 Y0.5685  
G01 X-1.5685 Y0.5870  
G01 X-1.5685 Y0.6011  
G01 X-1.4511 Y0.7185  
G01 X-1.4370 Y0.7185  
G01 X-1.4185 Y0.7370  
G01 X-1.4185 Y0.7630  
G01 X-1.4370 Y0.7815  
G01 X-1.4630 Y0.7815  
G01 X-1.4815 Y0.7630  
G00 Z0.0500  
G00 X-1.4502 Y0.6177  
G01 Z-0.0035 F10    
G01 X-1.4553 Y0.6106  F20    
G01 X-1.4593 Y0.6028  
G01 X-1.4620 Y0.5945  
G01 X-1.4634 Y0.5859  
G01 X-1.4634 Y0.4771  
G01 X-1.4620 Y0.4685  
G01 X-1.4593 Y0.4602  
G01 X-1.4553 Y0.4524  
G01 X-1.4502 Y0.4453  
G01 X-1.4440 Y0.4392  
G01 X-1.4370 Y0.4340  
G01 X-1.4292 Y0.4301  
G01 X-1.4209 Y0.4274  
G01 X-1.4122 Y0.4260  
G01 X-1.4035 Y0.4260  
G01 X-1.3949 Y0.4274  
G01 X-1.3866 Y0.4301  
G01 X-1.3788 Y0.4340  
G01 X-1.3717 Y0.4392  
G01 X-1.3655 Y0.4453  
G01 X-1.3604 Y0.4524  
G01 X-1.3564 Y0.4602  
G01 X-1.3537 Y0.4685  
G01 X-1.3524 Y0.4771  
G01 X-1.3524 Y0.5859  
G01 X-1.3537 Y0.5945  
G01 X-1.3564 Y0.6028  
G01 X-1.3604 Y0.6106  
G01 X-1.3655 Y0.6177  
G01 X-1.3717 Y0.6238  
G01 X-1.3788 Y0.6290  
G01 X-1.3866 Y0.6329  
G01 X-1.3949 Y0.6356  
G01 X-1.4035 Y0.6370  
G01 X-1.4122 Y0.6370  
G01 X-1.4209 Y0.6356  
G01 X-1.4292 Y0.6329  
G01 X-1.4370 Y0.6290  
G01 X-1.4440 Y0.6238  
G01 X-1.4502 Y0.6177  
G00 Z0.0500  
G00 X-1.3086 Y0.6137  
G01 Z-0.0035 F10    
G01 X-1.3073 Y0.6051  F20    
G01 X-1.3046 Y0.5968  
G01 X-1.3006 Y0.5890  
G01 X-1.2955 Y0.5820  
G01 X-1.2893 Y0.5758  
G01 X-1.2822 Y0.5706  
G01 X-1.2745 Y0.5667  
G01 X-1.2661 Y0.5640  
G01 X-1.2575 Y0.5626  
G01 X-1.1488 Y0.5626  
G01 X-1.1402 Y0.5640  
G01 X-1.1318 Y0.5667  
G01 X-1.1241 Y0.5706  
G01 X-1.1170 Y0.5758  
G01 X-1.1108 Y0.5820  
G01 X-1.1057 Y0.5890  
G01 X-1.1017 Y0.5968  
G01 X-1.0990 Y0.6051  
G01 X-1.0976 Y0.6137  
G01 X-1.0976 Y0.6225  
G01 X-1.0990 Y0.6311  
G01 X-1.1017 Y0.6394  
G01 X-1.1057 Y0.6472  
G01 X-1.1108 Y0.6543  
G01 X-1.1170 Y0.6604  
G01 X-1.1241 Y0.6656  
G01 X-1.1286 Y0.6679  
G01 X-1.1285 Y0.6684  
G01 X-1.1285 Y0.7270  
G01 X-1.1185 Y0.7370  
G01 X-1.1185 Y0.7630  
G01 X-1.1370 Y0.7815  
G01 X-1.1630 Y0.7815  
G01 X-1.1815 Y0.7630  
G01 X-1.1815 Y0.7370  
G01 X-1.1715 Y0.7270  
G01 X-1.1715 Y0.6802  
G01 X-1.1781 Y0.6736  
G01 X-1.2575 Y0.6736  
G01 X-1.2661 Y0.6722  
G01 X-1.2745 Y0.6695  
G01 X-1.2822 Y0.6656  
G01 X-1.2893 Y0.6604  
G01 X-1.2955 Y0.6543  
G01 X-1.3006 Y0.6472  
G01 X-1.3046 Y0.6394  
G01 X-1.3073 Y0.6311  
G01 X-1.3086 Y0.6225  
G01 X-1.3086 Y0.6137  
G00 Z0.0500  
G00 X-2.0221 Y0.6149  
G01 Z-0.0035 F10    
G01 X-2.0255 Y0.6201  F20    
G01 X-2.0299 Y0.6245  
G01 X-2.0351 Y0.6279  
G01 X-2.0408 Y0.6303  
G01 X-2.0469 Y0.6315  
G01 X-2.0531 Y0.6315  
G01 X-2.0592 Y0.6303  
G01 X-2.0649 Y0.6279  
G01 X-2.0701 Y0.6245  
G01 X-2.0745 Y0.6201  
G01 X-2.0779 Y0.6149  
G01 X-2.0803 Y0.6092  
G01 X-2.0815 Y0.6031  
G01 X-2.0815 Y0.5969  
G01 X-2.0803 Y0.5908  
G01 X-2.0779 Y0.5851  
G01 X-2.0755 Y0.5815  
G01 X-2.0755 Y0.5755  
G01 X-2.7810 Y0.5755  
G01 X-2.7870 Y0.5815  
G01 X-2.8130 Y0.5815  
G01 X-2.8315 Y0.5630  
G01 X-2.8315 Y0.5370  
G01 X-2.8130 Y0.5185  
G01 X-2.7870 Y0.5185  
G01 X-2.7810 Y0.5245  
G01 X-2.0755 Y0.5245  
G01 X-2.0755 Y0.5185  
G01 X-2.0779 Y0.5149  
G01 X-2.0803 Y0.5092  
G01 X-2.0815 Y0.5031  
G01 X-2.0815 Y0.4969  
G01 X-2.0803 Y0.4908  
G01 X-2.0779 Y0.4851  
G01 X-2.0745 Y0.4799  
G01 X-2.0701 Y0.4755  
G01 X-2.0649 Y0.4721  
G01 X-2.0592 Y0.4697  
G01 X-2.0531 Y0.4685  
G01 X-2.0469 Y0.4685  
G01 X-2.0408 Y0.4697  
G01 X-2.0351 Y0.4721  
G01 X-2.0299 Y0.4755  
G01 X-2.0255 Y0.4799  
G01 X-2.0221 Y0.4851  
G01 X-2.0197 Y0.4908  
G01 X-2.0185 Y0.4969  
G01 X-2.0185 Y0.5031  
G01 X-2.0197 Y0.5092  
G01 X-2.0221 Y0.5149  
G01 X-2.0245 Y0.5185  
G01 X-2.0245 Y0.5815  
G01 X-2.0221 Y0.5851  
G01 X-2.0197 Y0.5908  
G01 X-2.0185 Y0.5969  
G01 X-2.0185 Y0.6031  
G01 X-2.0197 Y0.6092  
G01 X-2.0221 Y0.6149  
G00 Z0.0500  
G00 X-2.0255 Y0.6799  
G01 Z-0.0035 F10    
G01 X-2.0221 Y0.6851  F20    
G01 X-2.0197 Y0.6908  
G01 X-2.0185 Y0.6969  
G01 X-2.0185 Y0.7031  
G01 X-2.0197 Y0.7092  
G01 X-2.0221 Y0.7149  
G01 X-2.0255 Y0.7201  
G01 X-2.0299 Y0.7245  
G01 X-2.0351 Y0.7279  
G01 X-2.0408 Y0.7303  
G01 X-2.0469 Y0.7315  
G01 X-2.0531 Y0.7315  
G01 X-2.0592 Y0.7303  
G01 X-2.0649 Y0.7279  
G01 X-2.0701 Y0.7245  
G01 X-2.0730 Y0.7215  
G01 X-2.1228 Y0.7215  
G01 X-2.1283 Y0.7200  
G01 X-2.1332 Y0.7172  
G01 X-2.2039 Y0.6465  
G01 X-3.0861 Y0.6465  
G01 X-3.2743 Y1.0664  
G01 X-3.2744 Y1.0667  
G01 X-3.2755 Y1.0690  
G01 X-3.2765 Y1.0714  
G01 X-3.2767 Y1.0716  
G01 X-3.2768 Y1.0718  
G01 X-3.2785 Y1.0738  
G01 X-3.2801 Y1.0758  
G01 X-3.2803 Y1.0759  
G01 X-3.5635 Y1.4079  
G01 X-3.5635 Y1.9183  
G01 X-3.4457 Y2.0885  
G01 X-3.4370 Y2.0885  
G01 X-3.4185 Y2.1070  
G01 X-3.4185 Y2.1330  
G01 X-3.4370 Y2.1515  
G01 X-3.4429 Y2.1515  
G01 X-3.4685 Y2.1976  
G01 X-3.4685 Y2.2230  
G01 X-3.4870 Y2.2415  
G01 X-3.5130 Y2.2415  
G01 X-3.5315 Y2.2230  
G01 X-3.5315 Y2.1970  
G01 X-3.5130 Y2.1785  
G01 X-3.5071 Y2.1785  
G01 X-3.4815 Y2.1324  
G01 X-3.4815 Y2.1123  
G01 X-3.6016 Y1.9388  
G01 X-3.6022 Y1.9382  
G01 X-3.6032 Y1.9365  
G01 X-3.6043 Y1.9349  
G01 X-3.6046 Y1.9341  
G01 X-3.6050 Y1.9333  
G01 X-3.6055 Y1.9314  
G01 X-3.6062 Y1.9296  
G01 X-3.6063 Y1.9287  
G01 X-3.6065 Y1.9278  
G01 X-3.6065 Y1.9259  
G01 X-3.6067 Y1.9239  
G01 X-3.6065 Y1.9231  
G01 X-3.6065 Y1.4009  
G01 X-3.6067 Y1.3989  
G01 X-3.6065 Y1.3980  
G01 X-3.6065 Y1.3972  
G01 X-3.6060 Y1.3953  
G01 X-3.6056 Y1.3933  
G01 X-3.6053 Y1.3925  
G01 X-3.6050 Y1.3917  
G01 X-3.6040 Y1.3900  
G01 X-3.6032 Y1.3882  
G01 X-3.6026 Y1.3875  
G01 X-3.6022 Y1.3868  
G01 X-3.6008 Y1.3854  
G01 X-3.3134 Y1.0484  
G01 X-3.1203 Y0.6178  
G01 X-3.1200 Y0.6167  
G01 X-3.1192 Y0.6152  
G01 X-3.1185 Y0.6136  
G01 X-3.1178 Y0.6128  
G01 X-3.1172 Y0.6118  
G01 X-3.1160 Y0.6106  
G01 X-3.1149 Y0.6092  
G01 X-3.1140 Y0.6086  
G01 X-3.1132 Y0.6078  
G01 X-3.1117 Y0.6069  
G01 X-3.1103 Y0.6059  
G01 X-3.1093 Y0.6055  
G01 X-3.1083 Y0.6050  
G01 X-3.1066 Y0.6045  
G01 X-3.1050 Y0.6039  
G01 X-3.1039 Y0.6038  
G01 X-3.1028 Y0.6035  
G01 X-3.1011 Y0.6035  
G01 X-3.0994 Y0.6033  
G01 X-3.0983 Y0.6035  
G01 X-2.1922 Y0.6035  
G01 X-2.1867 Y0.6050  
G01 X-2.1818 Y0.6078  
G01 X-2.1778 Y0.6118  
G01 X-2.1111 Y0.6785  
G01 X-2.0730 Y0.6785  
G01 X-2.0701 Y0.6755  
G01 X-2.0649 Y0.6721  
G01 X-2.0592 Y0.6697  
G01 X-2.0531 Y0.6685  
G01 X-2.0469 Y0.6685  
G01 X-2.0408 Y0.6697  
G01 X-2.0351 Y0.6721  
G01 X-2.0299 Y0.6755  
G01 X-2.0255 Y0.6799  
G00 Z0.0500  
G00 X-2.3684 Y0.1870  
G01 Z-0.0035 F10    
G01 X-2.3746 Y0.1915  F20    
G01 X-2.3814 Y0.1949  
G01 X-2.3886 Y0.1973  
G01 X-2.3962 Y0.1985  
G01 X-2.4038 Y0.1985  
G01 X-2.4113 Y0.1973  
G01 X-2.6302 Y0.4163  
G01 X-2.6337 Y0.4198  
G01 X-2.6379 Y0.4226  
G01 X-2.6426 Y0.4245  
G01 X-2.6475 Y0.4255  
G01 X-3.1394 Y0.4255  
G01 X-3.2745 Y0.5606  
G01 X-3.2745 Y0.5626  
G01 X-3.2488 Y0.5626  
G01 X-3.2402 Y0.5640  
G01 X-3.2318 Y0.5667  
G01 X-3.2241 Y0.5706  
G01 X-3.2170 Y0.5758  
G01 X-3.2108 Y0.5820  
G01 X-3.2057 Y0.5890  
G01 X-3.2017 Y0.5968  
G01 X-3.1990 Y0.6051  
G01 X-3.1976 Y0.6137  
G01 X-3.1976 Y0.6225  
G01 X-3.1990 Y0.6311  
G01 X-3.2017 Y0.6394  
G01 X-3.2057 Y0.6472  
G01 X-3.2108 Y0.6543  
G01 X-3.2170 Y0.6604  
G01 X-3.2241 Y0.6656  
G01 X-3.2318 Y0.6695  
G01 X-3.2402 Y0.6722  
G01 X-3.2488 Y0.6736  
G01 X-3.3575 Y0.6736  
G01 X-3.3661 Y0.6722  
G01 X-3.3745 Y0.6695  
G01 X-3.3822 Y0.6656  
G01 X-3.3893 Y0.6604  
G01 X-3.3955 Y0.6543  
G01 X-3.4006 Y0.6472  
G01 X-3.4046 Y0.6394  
G01 X-3.4073 Y0.6311  
G01 X-3.4086 Y0.6225  
G01 X-3.4086 Y0.6137  
G01 X-3.4073 Y0.6051  
G01 X-3.4046 Y0.5968  
G01 X-3.4006 Y0.5890  
G01 X-3.3955 Y0.5820  
G01 X-3.3893 Y0.5758  
G01 X-3.3822 Y0.5706  
G01 X-3.3745 Y0.5667  
G01 X-3.3661 Y0.5640  
G01 X-3.3575 Y0.5626  
G01 X-3.3255 Y0.5626  
G01 X-3.3255 Y0.5475  
G01 X-3.3245 Y0.5426  
G01 X-3.3226 Y0.5379  
G01 X-3.3198 Y0.5337  
G01 X-3.3163 Y0.5302  
G01 X-3.1663 Y0.3802  
G01 X-3.1621 Y0.3774  
G01 X-3.1574 Y0.3755  
G01 X-3.1525 Y0.3745  
G01 X-2.6606 Y0.3745  
G01 X-2.4473 Y0.1613  
G01 X-2.4485 Y0.1538  
G01 X-2.4485 Y0.1462  
G01 X-2.4473 Y0.1386  
G01 X-2.4449 Y0.1314  
G01 X-2.4415 Y0.1246  
G01 X-2.4370 Y0.1184  
G01 X-2.4316 Y0.1130  
G01 X-2.4254 Y0.1085  
G01 X-2.4186 Y0.1051  
G01 X-2.4114 Y0.1027  
G01 X-2.4038 Y0.1015  
G01 X-2.3962 Y0.1015  
G01 X-2.3886 Y0.1027  
G01 X-2.3814 Y0.1051  
G01 X-2.3746 Y0.1085  
G01 X-2.3684 Y0.1130  
G01 X-2.3630 Y0.1184  
G01 X-2.3585 Y0.1246  
G01 X-2.3551 Y0.1314  
G01 X-2.3527 Y0.1386  
G01 X-2.3515 Y0.1462  
G01 X-2.3515 Y0.1538  
G01 X-2.3527 Y0.1614  
G01 X-2.3551 Y0.1686  
G01 X-2.3585 Y0.1754  
G01 X-2.3630 Y0.1816  
G01 X-2.3684 Y0.1870  
G00 Z0.0500  
G00 X-2.5653 Y0.1870  
G01 Z-0.0035 F10    
G01 X-2.5714 Y0.1915  F20    
G01 X-2.5782 Y0.1949  
G01 X-2.5855 Y0.1973  
G01 X-2.5930 Y0.1985  
G01 X-2.6007 Y0.1985  
G01 X-2.6082 Y0.1973  
G01 X-2.6155 Y0.1949  
G01 X-2.6223 Y0.1915  
G01 X-2.6238 Y0.1904  
G01 X-2.7685 Y0.2628  
G01 X-2.7685 Y0.2630  
G01 X-2.7870 Y0.2815  
G01 X-2.8130 Y0.2815  
G01 X-2.8315 Y0.2630  
G01 X-2.8315 Y0.2370  
G01 X-2.8130 Y0.2185  
G01 X-2.7940 Y0.2185  
G01 X-2.6450 Y0.1440  
G01 X-2.6442 Y0.1386  
G01 X-2.6418 Y0.1314  
G01 X-2.6383 Y0.1246  
G01 X-2.6338 Y0.1184  
G01 X-2.6284 Y0.1130  
G01 X-2.6223 Y0.1085  
G01 X-2.6155 Y0.1051  
G01 X-2.6082 Y0.1027  
G01 X-2.6007 Y0.1015  
G01 X-2.5930 Y0.1015  
G01 X-2.5855 Y0.1027  
G01 X-2.5782 Y0.1051  
G01 X-2.5714 Y0.1085  
G01 X-2.5653 Y0.1130  
G01 X-2.5599 Y0.1184  
G01 X-2.5554 Y0.1246  
G01 X-2.5519 Y0.1314  
G01 X-2.5495 Y0.1386  
G01 X-2.5484 Y0.1462  
G01 X-2.5484 Y0.1538  
G01 X-2.5495 Y0.1614  
G01 X-2.5519 Y0.1686  
G01 X-2.5554 Y0.1754  
G01 X-2.5599 Y0.1816  
G01 X-2.5653 Y0.1870  
G00 Z0.0500  
G00 X-3.4655 Y0.4453  
G01 Z-0.0035 F10    
G01 X-3.4604 Y0.4524  F20    
G01 X-3.4564 Y0.4602  
G01 X-3.4537 Y0.4685  
G01 X-3.4524 Y0.4771  
G01 X-3.4524 Y0.5859  
G01 X-3.4537 Y0.5945  
G01 X-3.4564 Y0.6028  
G01 X-3.4604 Y0.6106  
G01 X-3.4655 Y0.6177  
G01 X-3.4717 Y0.6238  
G01 X-3.4788 Y0.6290  
G01 X-3.4866 Y0.6329  
G01 X-3.4949 Y0.6356  
G01 X-3.5035 Y0.6370  
G01 X-3.5122 Y0.6370  
G01 X-3.5209 Y0.6356  
G01 X-3.5292 Y0.6329  
G01 X-3.5370 Y0.6290  
G01 X-3.5440 Y0.6238  
G01 X-3.5502 Y0.6177  
G01 X-3.5553 Y0.6106  
G01 X-3.5593 Y0.6028  
G01 X-3.5620 Y0.5945  
G01 X-3.5634 Y0.5859  
G01 X-3.5634 Y0.4771  
G01 X-3.5620 Y0.4685  
G01 X-3.5593 Y0.4602  
G01 X-3.5553 Y0.4524  
G01 X-3.5502 Y0.4453  
G01 X-3.5440 Y0.4392  
G01 X-3.5370 Y0.4340  
G01 X-3.5292 Y0.4301  
G01 X-3.5209 Y0.4274  
G01 X-3.5122 Y0.4260  
G01 X-3.5035 Y0.4260  
G01 X-3.4949 Y0.4274  
G01 X-3.4866 Y0.4301  
G01 X-3.4788 Y0.4340  
G01 X-3.4717 Y0.4392  
G01 X-3.4655 Y0.4453  
G00 Z0.0500  
G00 X-3.3527 Y1.2426  
G01 Z-0.0035 F10    
G01 X-3.3473 Y1.2387  F20    
G01 X-3.3413 Y1.2356  
G01 X-3.3350 Y1.2335  
G01 X-3.3283 Y1.2325  
G01 X-3.3217 Y1.2325  
G01 X-3.3150 Y1.2335  
G01 X-3.3087 Y1.2356  
G01 X-3.3027 Y1.2387  
G01 X-3.2973 Y1.2426  
G01 X-3.2926 Y1.2473  
G01 X-3.2917 Y1.2485  
G01 X-3.1766 Y1.2321  
G01 X-3.1630 Y1.2185  
G01 X-3.1370 Y1.2185  
G01 X-3.1185 Y1.2370  
G01 X-3.1185 Y1.2630  
G01 X-3.1370 Y1.2815  
G01 X-3.1630 Y1.2815  
G01 X-3.1700 Y1.2746  
G01 X-3.2855 Y1.2911  
G01 X-3.2856 Y1.2913  
G01 X-3.2887 Y1.2973  
G01 X-3.2926 Y1.3027  
G01 X-3.2973 Y1.3074  
G01 X-3.3027 Y1.3113  
G01 X-3.3087 Y1.3144  
G01 X-3.3150 Y1.3165  
G01 X-3.3217 Y1.3175  
G01 X-3.3283 Y1.3175  
G01 X-3.3350 Y1.3165  
G01 X-3.3413 Y1.3144  
G01 X-3.3473 Y1.3113  
G01 X-3.3527 Y1.3074  
G01 X-3.3574 Y1.3027  
G01 X-3.3613 Y1.2973  
G01 X-3.3644 Y1.2913  
G01 X-3.3665 Y1.2850  
G01 X-3.3675 Y1.2783  
G01 X-3.3675 Y1.2717  
G01 X-3.3665 Y1.2650  
G01 X-3.3644 Y1.2587  
G01 X-3.3613 Y1.2527  
G01 X-3.3574 Y1.2473  
G01 X-3.3527 Y1.2426  
G00 Z0.0500  
G00 X-3.3870 Y1.5535  
G01 Z-0.0035 F10    
G01 X-3.3736 Y1.5668  F20    
G01 X-3.2702 Y1.5806  
G01 X-3.2649 Y1.5771  
G01 X-3.2592 Y1.5747  
G01 X-3.2531 Y1.5735  
G01 X-3.2469 Y1.5735  
G01 X-3.2408 Y1.5747  
G01 X-3.2351 Y1.5771  
G01 X-3.2299 Y1.5805  
G01 X-3.2255 Y1.5849  
G01 X-3.2221 Y1.5901  
G01 X-3.2201 Y1.5949  
G01 X-3.1434 Y1.6294  
G01 X-3.1429 Y1.6295  
G01 X-3.1408 Y1.6306  
G01 X-3.1386 Y1.6316  
G01 X-3.1383 Y1.6318  
G01 X-3.0786 Y1.6617  
G01 X-3.0777 Y1.6595  
G01 X-3.0743 Y1.6543  
G01 X-3.0699 Y1.6500  
G01 X-3.0648 Y1.6466  
G01 X-3.0591 Y1.6442  
G01 X-3.0531 Y1.6430  
G01 X-3.0469 Y1.6430  
G01 X-3.0409 Y1.6442  
G01 X-3.0352 Y1.6466  
G01 X-3.0301 Y1.6500  
G01 X-3.0257 Y1.6543  
G01 X-3.0223 Y1.6595  
G01 X-3.0200 Y1.6651  
G01 X-3.0188 Y1.6712  
G01 X-3.0188 Y1.7288  
G01 X-3.0200 Y1.7349  
G01 X-3.0223 Y1.7405  
G01 X-3.0257 Y1.7457  
G01 X-3.0301 Y1.7500  
G01 X-3.0352 Y1.7534  
G01 X-3.0409 Y1.7558  
G01 X-3.0469 Y1.7570  
G01 X-3.0531 Y1.7570  
G01 X-3.0591 Y1.7558  
G01 X-3.0648 Y1.7534  
G01 X-3.0699 Y1.7500  
G01 X-3.0743 Y1.7457  
G01 X-3.0777 Y1.7405  
G01 X-3.0800 Y1.7349  
G01 X-3.0812 Y1.7288  
G01 X-3.0812 Y1.7084  
G01 X-3.1592 Y1.6694  
G01 X-3.2378 Y1.6341  
G01 X-3.2408 Y1.6353  
G01 X-3.2469 Y1.6365  
G01 X-3.2531 Y1.6365  
G01 X-3.2592 Y1.6353  
G01 X-3.2649 Y1.6329  
G01 X-3.2701 Y1.6295  
G01 X-3.2745 Y1.6251  
G01 X-3.2757 Y1.6233  
G01 X-3.3798 Y1.6094  
G01 X-3.3870 Y1.6165  
G01 X-3.4130 Y1.6165  
G01 X-3.4315 Y1.5980  
G01 X-3.4315 Y1.5720  
G01 X-3.4130 Y1.5535  
G01 X-3.3870 Y1.5535  
G00 Z0.0500  
G00 X-3.3870 Y1.7685  
G01 Z-0.0035 F10    
G01 X-3.3777 Y1.7777  F20    
G01 X-3.2738 Y1.7743  
G01 X-3.2701 Y1.7705  
G01 X-3.2649 Y1.7671  
G01 X-3.2592 Y1.7647  
G01 X-3.2531 Y1.7635  
G01 X-3.2469 Y1.7635  
G01 X-3.2408 Y1.7647  
G01 X-3.2351 Y1.7671  
G01 X-3.2299 Y1.7705  
G01 X-3.2255 Y1.7749  
G01 X-3.2231 Y1.7785  
G01 X-3.0133 Y1.7785  
G01 X-2.9812 Y1.7144  
G01 X-2.9812 Y1.6712  
G01 X-2.9800 Y1.6651  
G01 X-2.9777 Y1.6595  
G01 X-2.9743 Y1.6543  
G01 X-2.9699 Y1.6500  
G01 X-2.9648 Y1.6466  
G01 X-2.9591 Y1.6442  
G01 X-2.9531 Y1.6430  
G01 X-2.9469 Y1.6430  
G01 X-2.9409 Y1.6442  
G01 X-2.9352 Y1.6466  
G01 X-2.9301 Y1.6500  
G01 X-2.9257 Y1.6543  
G01 X-2.9223 Y1.6595  
G01 X-2.9200 Y1.6651  
G01 X-2.9188 Y1.6712  
G01 X-2.9188 Y1.7288  
G01 X-2.9200 Y1.7349  
G01 X-2.9223 Y1.7405  
G01 X-2.9257 Y1.7457  
G01 X-2.9301 Y1.7500  
G01 X-2.9352 Y1.7534  
G01 X-2.9409 Y1.7558  
G01 X-2.9469 Y1.7570  
G01 X-2.9531 Y1.7570  
G01 X-2.9543 Y1.7567  
G01 X-2.9798 Y1.8077  
G01 X-2.9800 Y1.8083  
G01 X-2.9811 Y1.8102  
G01 X-2.9820 Y1.8121  
G01 X-2.9825 Y1.8126  
G01 X-2.9828 Y1.8132  
G01 X-2.9843 Y1.8147  
G01 X-2.9858 Y1.8164  
G01 X-2.9863 Y1.8167  
G01 X-2.9868 Y1.8172  
G01 X-2.9887 Y1.8183  
G01 X-2.9905 Y1.8195  
G01 X-2.9911 Y1.8197  
G01 X-2.9917 Y1.8200  
G01 X-2.9938 Y1.8206  
G01 X-2.9959 Y1.8213  
G01 X-2.9965 Y1.8213  
G01 X-2.9972 Y1.8215  
G01 X-2.9994 Y1.8215  
G01 X-3.0015 Y1.8216  
G01 X-3.0022 Y1.8215  
G01 X-3.2330 Y1.8215  
G01 X-3.2351 Y1.8229  
G01 X-3.2408 Y1.8253  
G01 X-3.2469 Y1.8265  
G01 X-3.2531 Y1.8265  
G01 X-3.2592 Y1.8253  
G01 X-3.2649 Y1.8229  
G01 X-3.2670 Y1.8215  
G01 X-3.2989 Y1.8215  
G01 X-3.3007 Y1.8217  
G01 X-3.3017 Y1.8215  
G01 X-3.3028 Y1.8215  
G01 X-3.3045 Y1.8210  
G01 X-3.3063 Y1.8208  
G01 X-3.3073 Y1.8203  
G01 X-3.3083 Y1.8200  
G01 X-3.3098 Y1.8192  
G01 X-3.3112 Y1.8186  
G01 X-3.3762 Y1.8207  
G01 X-3.3870 Y1.8315  
G01 X-3.4130 Y1.8315  
G01 X-3.4315 Y1.8130  
G01 X-3.4315 Y1.7870  
G01 X-3.4130 Y1.7685  
G01 X-3.3870 Y1.7685  
G00 Z0.0500  
G00 X-3.2953 Y2.0130  
G01 Z-0.0035 F10    
G01 X-3.2647 Y2.0130  F20    
G01 X-3.2430 Y2.0347  
G01 X-3.2430 Y2.0653  
G01 X-3.2465 Y2.0689  
G01 X-3.1917 Y2.1785  
G01 X-3.1870 Y2.1785  
G01 X-3.1685 Y2.1970  
G01 X-3.1685 Y2.2230  
